; generated by PrusaSlicer 2.5.0+linux-x64-GTK3 on 2023-01-12 at 19:39:23 UTC

; 

; external perimeters extrusion width = 0.45mm
; perimeters extrusion width = 0.45mm
; infill extrusion width = 0.45mm
; solid infill extrusion width = 0.45mm
; top infill extrusion width = 0.40mm
; first layer extrusion width = 0.70mm

M107
M104 S200 ; set temperature
;TYPE:Custom
G28 ; home all axes
G1 Z5 F5000 ; lift nozzle
M109 S200 ; set temperature and wait for it to be reached
G21 ; set units to millimeters
G90 ; use absolute coordinates
M82 ; use absolute distances for extrusion
G92 E0
; Filament gcode
M107
;LAYER_CHANGE
;Z:0.35
;HEIGHT:0.35
G1 Z.35 F7800
G1 E-2 F2400
G92 E0
G1 X66.326 Y57.787 F7800
G1 E2 F2400
;TYPE:Skirt/Brim
;WIDTH:0.7
G1 F1800
G1 X67.363 Y56.662 E2.13913
G1 X68.641 Y55.648 E2.28741
G1 X69.439 Y55.154 E2.37275
G1 X70.829 Y54.515 E2.51185
G1 X71.817 Y54.194 E2.6063
G1 X73.835 Y53.846 E2.79256
G1 X125.747 Y53.824 E7.51285
G1 X127.572 Y54.047 E7.68007
G1 X129.171 Y54.515 E7.8315
G1 X131.008 Y55.42 E8.01779
G1 X132.637 Y56.662 E8.204
G1 X133.673 Y57.786 E8.34303
G1 X134.285 Y58.628 E8.43767
G1 X134.943 Y59.771 E8.55757
G1 X135.603 Y61.489 E8.72493
G1 X135.955 Y63.295 E8.89226
G1 X136.025 Y64.44 E8.99657
G1 X136.025 Y135.56 E15.46348
G1 X135.865 Y137.394 E15.6309
G1 X135.603 Y138.511 E15.73519
G1 X135.033 Y140.04 E15.88362
G1 X134.285 Y141.373 E16.02255
G1 X133.674 Y142.214 E16.11711
G1 X132.638 Y143.337 E16.25605
G1 X131.92 Y143.945 E16.34154
G1 X130.561 Y144.846 E16.48984
G1 X129.171 Y145.485 E16.6289
G1 X128.183 Y145.806 E16.72338
G1 X126.889 Y146.079 E16.84363
G1 X125.746 Y146.176 E16.94792
G1 X74.254 Y146.176 E21.63015
G1 X73.111 Y146.079 E21.73443
G1 X71.817 Y145.806 E21.8547
G1 X70.249 Y145.245 E22.00613
G1 X68.992 Y144.58 E22.13537
G1 X68.08 Y143.945 E22.2365
G1 X67.211 Y143.193 E22.34097
G1 X66.327 Y142.214 E22.46091
G1 X65.387 Y140.838 E22.61244
G1 X64.761 Y139.561 E22.74173
G1 X64.288 Y138.106 E22.88086
G1 X64.045 Y136.706 E23.0101
G1 X63.975 Y135.56 E23.11446
G1 X63.975 Y64.44 E29.58137
G1 X64.135 Y62.607 E29.74867
G1 X64.397 Y61.489 E29.85304
G1 X64.966 Y59.961 E30.00135
G1 X65.715 Y58.627 E30.14045
G1 X66.291 Y57.835 E30.22949
G1 E28.22949 F2400
G92 E0
G1 X75.92 Y69.168 F7800
G1 E2 F2400
;TYPE:Perimeter
;WIDTH:0.7
G1 F1800
G1 X75.92 Y74.638 E2.49732
G1 X75.975 Y75.153 E2.54446
G1 X75.92 Y75.562 E2.58201
G1 X75.92 Y84.798 E3.42175
G1 X75.975 Y85.313 E3.4689
G1 X75.92 Y85.722 E3.50644
G1 X75.92 Y94.958 E4.34619
G1 X75.975 Y95.473 E4.39333
G1 X75.92 Y95.882 E4.43088
G1 X75.92 Y105.118 E5.27062
G1 X75.975 Y105.633 E5.31777
G1 X75.92 Y106.042 E5.35531
G1 X75.92 Y115.278 E6.19506
G1 X75.975 Y115.793 E6.2422
G1 X75.92 Y116.202 E6.27975
G1 X75.92 Y125.438 E7.11949
G1 X75.975 Y125.953 E7.16664
G1 X75.92 Y126.362 E7.20418
G1 X75.92 Y130.832 E7.61057
G1 X72.772 Y130.832 E7.89683
G1 X72.2 Y130.96 E7.95016
G1 X72.2 Y69.04 E13.58049
G1 X72.772 Y69.168 E13.63382
G1 X75.86 Y69.168 E13.91462
G1 X76.545 Y68.476 F7800
G1 F1800
G1 X76.545 Y74.638 E14.47491
G1 X76.554 Y74.764 E14.4864
G1 X76.659 Y75.085 E14.51713
G1 X76.578 Y75.317 E14.53948
G1 X76.545 Y75.562 E14.56201
G1 X76.545 Y84.798 E15.40175
G1 X76.554 Y84.924 E15.41324
G1 X76.659 Y85.245 E15.44397
G1 X76.578 Y85.477 E15.46631
G1 X76.545 Y85.722 E15.48884
G1 X76.545 Y94.958 E16.32858
G1 X76.554 Y95.084 E16.34007
G1 X76.659 Y95.405 E16.3708
G1 X76.578 Y95.637 E16.39315
G1 X76.545 Y95.882 E16.41568
G1 X76.545 Y105.118 E17.25542
G1 X76.554 Y105.244 E17.26691
G1 X76.659 Y105.565 E17.29764
G1 X76.578 Y105.797 E17.31998
G1 X76.545 Y106.042 E17.34251
G1 X76.545 Y115.278 E18.18225
G1 X76.554 Y115.404 E18.19374
G1 X76.659 Y115.725 E18.22447
G1 X76.578 Y115.957 E18.24682
G1 X76.545 Y116.202 E18.26934
G1 X76.545 Y125.438 E19.10909
G1 X76.554 Y125.564 E19.12058
G1 X76.659 Y125.885 E19.15131
G1 X76.578 Y126.117 E19.17365
G1 X76.545 Y126.362 E19.19618
G1 X76.545 Y131.524 E19.66554
G1 X76.428 Y131.457 E19.67784
G1 X72.772 Y131.457 E20.01027
G1 X72.372 Y131.546 E20.04753
G1 X71.96 Y131.925 E20.09843
G1 X71.575 Y132.593 E20.16852
G1 X71.575 Y67.407 E26.09582
G1 X71.96 Y68.075 E26.16592
G1 X72.372 Y68.454 E26.21682
G1 X72.772 Y68.543 E26.25408
G1 X76.428 Y68.543 E26.5865
G1 X76.493 Y68.506 E26.59335
G1 E24.59335 F2400
G92 E0
G1 X72.674 Y61.162 F7800
G1 E2 F2400
;TYPE:External perimeter
;WIDTH:0.459672
G1 F1800
G1 X72.45 Y61.45 E2.02038
;WIDTH:0.462849
G1 X71.877 Y62.437 E2.08476
;WIDTH:0.470185
G1 X71.328 Y63.416 E2.1493
;WIDTH:0.433322
G1 X70.805 Y64.36 E2.20554
G1 X70.866 Y63.841 E2.23277
G1 X71.008 Y63.258 E2.26404
;WIDTH:0.470185
G1 X71.254 Y62.718 E2.29817
G1 X71.562 Y62.214 E2.33212
;WIDTH:0.462849
G1 X71.945 Y61.768 E2.36529
G1 X72.627 Y61.201 E2.41536
G1 X72.436 Y61.438 F7800
G1 E.41536 F2400
G92 E0
G1 X85.029 Y75.331 F7800
G1 E2 F2400
;WIDTH:0.729106
G1 F1800
G1 X85.029 Y75.389 E2.0055
;WIDTH:0.681218
G1 X85.029 Y75.447 E2.0106
;WIDTH:0.633331
G1 X85.029 Y75.505 E2.01529
;WIDTH:0.585443
G1 X85.029 Y75.562 E2.01959
;WIDTH:0.537556
G1 X85.029 Y84.798 E2.64103
;WIDTH:0.585443
G1 X85.029 Y84.855 E2.64533
;WIDTH:0.633331
G1 X85.029 Y84.913 E2.65002
;WIDTH:0.681218
G1 X85.029 Y84.971 E2.65512
;WIDTH:0.729106
G1 X85.029 Y85.029 E2.66062
G1 X84.971 Y85.029 E2.66612
;WIDTH:0.681218
G1 X84.913 Y85.029 E2.67122
;WIDTH:0.633331
G1 X84.855 Y85.029 E2.67592
;WIDTH:0.585443
G1 X84.798 Y85.029 E2.68021
;WIDTH:0.537556
G1 X77.482 Y85.029 E3.17246
;WIDTH:0.578167
G1 X77.414 Y85.008 E3.1777
;WIDTH:0.618778
G1 X77.345 Y84.988 E3.18337
;WIDTH:0.659389
G1 X77.277 Y84.967 E3.18946
;WIDTH:0.7
G1 X77.208 Y84.947 E3.19598
G1 X77.17 Y84.798 E3.20996
G1 X77.17 Y75.562 E4.04971
G1 X77.208 Y75.413 E4.06369
G1 X77.277 Y75.393 E4.07021
;WIDTH:0.659389
G1 X77.345 Y75.372 E4.0763
;WIDTH:0.618778
G1 X77.414 Y75.352 E4.08197
;WIDTH:0.578167
G1 X77.482 Y75.331 E4.08721
;WIDTH:0.537556
G1 X84.798 Y75.331 E4.57946
;WIDTH:0.585443
G1 X84.855 Y75.331 E4.58375
;WIDTH:0.633331
G1 X84.913 Y75.331 E4.58845
;WIDTH:0.681218
G1 X84.969 Y75.331 E4.59335
G1 X85.491 Y75.331 F7800
;WIDTH:0.729106
G1 F1800
G1 X85.549 Y75.331 E4.59886
;WIDTH:0.681218
G1 X85.607 Y75.331 E4.60395
;WIDTH:0.633331
G1 X85.665 Y75.331 E4.60865
;WIDTH:0.585443
G1 X85.722 Y75.331 E4.61294
;WIDTH:0.537556
G1 X94.958 Y75.331 E5.23439
;WIDTH:0.585443
G1 X95.015 Y75.331 E5.23868
;WIDTH:0.633331
G1 X95.073 Y75.331 E5.24338
;WIDTH:0.681218
G1 X95.131 Y75.331 E5.24848
;WIDTH:0.729106
G1 X95.189 Y75.331 E5.25398
G1 X95.189 Y75.389 E5.25948
;WIDTH:0.681218
G1 X95.189 Y75.447 E5.26458
;WIDTH:0.633331
G1 X95.189 Y75.505 E5.26927
;WIDTH:0.585443
G1 X95.189 Y75.562 E5.27356
;WIDTH:0.537556
G1 X95.189 Y84.798 E5.89501
;WIDTH:0.585443
G1 X95.189 Y84.855 E5.8993
;WIDTH:0.633331
G1 X95.189 Y84.913 E5.904
;WIDTH:0.681218
G1 X95.189 Y84.971 E5.9091
;WIDTH:0.729106
G1 X95.189 Y85.029 E5.9146
G1 X95.131 Y85.029 E5.9201
;WIDTH:0.681218
G1 X95.073 Y85.029 E5.9252
;WIDTH:0.633331
G1 X95.015 Y85.029 E5.92989
;WIDTH:0.585443
G1 X94.958 Y85.029 E5.93419
;WIDTH:0.537556
G1 X85.722 Y85.029 E6.55563
;WIDTH:0.585443
G1 X85.665 Y85.029 E6.55993
;WIDTH:0.633331
G1 X85.607 Y85.029 E6.56462
;WIDTH:0.681218
G1 X85.549 Y85.029 E6.56972
;WIDTH:0.729106
G1 X85.491 Y85.029 E6.57522
G1 X85.491 Y84.971 E6.58072
;WIDTH:0.681218
G1 X85.491 Y84.913 E6.58582
;WIDTH:0.633331
G1 X85.491 Y84.855 E6.59052
;WIDTH:0.585443
G1 X85.491 Y84.798 E6.59481
;WIDTH:0.537556
G1 X85.491 Y75.562 E7.21626
;WIDTH:0.585443
G1 X85.491 Y75.505 E7.22055
;WIDTH:0.633331
G1 X85.491 Y75.447 E7.22524
;WIDTH:0.681218
G1 X85.491 Y75.391 E7.23015
G1 E5.23015 F2400
G92 E0
G1 X105.349 Y75.331 F7800
G1 E2 F2400
;WIDTH:0.729106
G1 F1800
G1 X105.349 Y75.389 E2.0055
;WIDTH:0.681218
G1 X105.349 Y75.447 E2.0106
;WIDTH:0.633331
G1 X105.349 Y75.505 E2.01529
;WIDTH:0.585443
G1 X105.349 Y75.562 E2.01959
;WIDTH:0.537556
G1 X105.349 Y84.798 E2.64103
;WIDTH:0.585443
G1 X105.349 Y84.855 E2.64533
;WIDTH:0.633331
G1 X105.349 Y84.913 E2.65002
;WIDTH:0.681218
G1 X105.349 Y84.971 E2.65512
;WIDTH:0.729106
G1 X105.349 Y85.029 E2.66062
G1 X105.291 Y85.029 E2.66612
;WIDTH:0.681218
G1 X105.233 Y85.029 E2.67122
;WIDTH:0.633331
G1 X105.175 Y85.029 E2.67592
;WIDTH:0.585443
G1 X105.118 Y85.029 E2.68021
;WIDTH:0.537556
G1 X95.882 Y85.029 E3.30166
;WIDTH:0.585443
G1 X95.825 Y85.029 E3.30595
;WIDTH:0.633331
G1 X95.767 Y85.029 E3.31064
;WIDTH:0.681218
G1 X95.709 Y85.029 E3.31574
;WIDTH:0.729106
G1 X95.651 Y85.029 E3.32124
G1 X95.651 Y84.971 E3.32675
;WIDTH:0.681218
G1 X95.651 Y84.913 E3.33184
;WIDTH:0.633331
G1 X95.651 Y84.855 E3.33654
;WIDTH:0.585443
G1 X95.651 Y84.798 E3.34083
;WIDTH:0.537556
G1 X95.651 Y75.562 E3.96228
;WIDTH:0.585443
G1 X95.651 Y75.505 E3.96657
;WIDTH:0.633331
G1 X95.651 Y75.447 E3.97127
;WIDTH:0.681218
G1 X95.651 Y75.389 E3.97637
;WIDTH:0.729106
G1 X95.651 Y75.331 E3.98187
G1 X95.709 Y75.331 E3.98737
;WIDTH:0.681218
G1 X95.767 Y75.331 E3.99247
;WIDTH:0.633331
G1 X95.825 Y75.331 E3.99716
;WIDTH:0.585443
G1 X95.882 Y75.331 E4.00145
;WIDTH:0.537556
G1 X105.118 Y75.331 E4.6229
;WIDTH:0.585443
G1 X105.175 Y75.331 E4.62719
;WIDTH:0.633331
G1 X105.233 Y75.331 E4.63189
;WIDTH:0.681218
G1 X105.289 Y75.331 E4.63679
G1 E2.63679 F2400
G92 E0
G1 X95.651 Y95.073 F7800
G1 E2 F2400
;WIDTH:0.633331
G1 F1800
G1 X95.651 Y95.015 E2.0047
;WIDTH:0.585443
G1 X95.651 Y94.958 E2.00899
;WIDTH:0.537556
G1 X95.651 Y85.722 E2.63044
;WIDTH:0.585443
G1 X95.651 Y85.665 E2.63473
;WIDTH:0.633331
G1 X95.651 Y85.607 E2.63942
;WIDTH:0.681218
G1 X95.651 Y85.549 E2.64452
;WIDTH:0.729106
G1 X95.651 Y85.491 E2.65002
G1 X95.709 Y85.491 E2.65552
;WIDTH:0.681218
G1 X95.767 Y85.491 E2.66062
;WIDTH:0.633331
G1 X95.825 Y85.491 E2.66532
;WIDTH:0.585443
G1 X95.882 Y85.491 E2.66961
;WIDTH:0.537556
G1 X105.118 Y85.491 E3.29106
;WIDTH:0.585443
G1 X105.175 Y85.491 E3.29535
;WIDTH:0.633331
G1 X105.233 Y85.491 E3.30005
;WIDTH:0.681218
G1 X105.291 Y85.491 E3.30514
;WIDTH:0.729106
G1 X105.349 Y85.491 E3.31065
G1 X105.349 Y85.549 E3.31615
;WIDTH:0.681218
G1 X105.349 Y85.607 E3.32124
;WIDTH:0.633331
G1 X105.349 Y85.665 E3.32594
;WIDTH:0.585443
G1 X105.349 Y85.722 E3.33023
;WIDTH:0.537556
G1 X105.349 Y94.958 E3.95168
;WIDTH:0.585443
G1 X105.349 Y95.015 E3.95597
;WIDTH:0.633331
G1 X105.349 Y95.073 E3.96067
;WIDTH:0.681218
G1 X105.349 Y95.131 E3.96577
;WIDTH:0.729106
G1 X105.349 Y95.189 E3.97127
G1 X105.291 Y95.189 E3.97677
;WIDTH:0.681218
G1 X105.233 Y95.189 E3.98187
;WIDTH:0.633331
G1 X105.175 Y95.189 E3.98656
;WIDTH:0.585443
G1 X105.118 Y95.189 E3.99086
;WIDTH:0.537556
G1 X95.882 Y95.189 E4.6123
;WIDTH:0.585443
G1 X95.825 Y95.189 E4.61659
;WIDTH:0.633331
G1 X95.767 Y95.189 E4.62129
;WIDTH:0.681218
G1 X95.709 Y95.189 E4.62639
;WIDTH:0.729106
G1 X95.651 Y95.189 E4.63189
G1 X95.651 Y95.133 E4.63718
G1 X95.597 Y95.052 F7800
G1 X95.189 Y95.073
;WIDTH:0.681218
G1 F1800
G1 X95.189 Y95.131 E4.64228
;WIDTH:0.729106
G1 X95.189 Y95.189 E4.64778
G1 X95.131 Y95.189 E4.65328
;WIDTH:0.681218
G1 X95.073 Y95.189 E4.65838
;WIDTH:0.633331
G1 X95.015 Y95.189 E4.66308
;WIDTH:0.585443
G1 X94.958 Y95.189 E4.66737
;WIDTH:0.537556
G1 X85.722 Y95.189 E5.28882
;WIDTH:0.585443
G1 X85.665 Y95.189 E5.29311
;WIDTH:0.633331
G1 X85.607 Y95.189 E5.2978
;WIDTH:0.681218
G1 X85.549 Y95.189 E5.3029
;WIDTH:0.729106
G1 X85.491 Y95.189 E5.3084
G1 X85.491 Y95.131 E5.3139
;WIDTH:0.681218
G1 X85.491 Y95.073 E5.319
;WIDTH:0.633331
G1 X85.491 Y95.015 E5.3237
;WIDTH:0.585443
G1 X85.491 Y94.958 E5.32799
;WIDTH:0.537556
G1 X85.491 Y85.722 E5.94944
;WIDTH:0.585443
G1 X85.491 Y85.665 E5.95373
;WIDTH:0.633331
G1 X85.491 Y85.607 E5.95843
;WIDTH:0.681218
G1 X85.491 Y85.549 E5.96352
;WIDTH:0.729106
G1 X85.491 Y85.491 E5.96903
G1 X85.549 Y85.491 E5.97453
;WIDTH:0.681218
G1 X85.607 Y85.491 E5.97963
;WIDTH:0.633331
G1 X85.665 Y85.491 E5.98432
;WIDTH:0.585443
G1 X85.722 Y85.491 E5.98861
;WIDTH:0.537556
G1 X94.958 Y85.491 E6.61006
;WIDTH:0.585443
G1 X95.015 Y85.491 E6.61435
;WIDTH:0.633331
G1 X95.073 Y85.491 E6.61905
;WIDTH:0.681218
G1 X95.131 Y85.491 E6.62415
;WIDTH:0.729106
G1 X95.189 Y85.491 E6.62965
G1 X95.189 Y85.549 E6.63515
;WIDTH:0.681218
G1 X95.189 Y85.607 E6.64025
;WIDTH:0.633331
G1 X95.189 Y85.665 E6.64494
;WIDTH:0.585443
G1 X95.189 Y85.722 E6.64924
;WIDTH:0.537556
G1 X95.189 Y94.958 E7.27068
;WIDTH:0.585443
G1 X95.189 Y95.013 E7.27481
G1 E5.27481 F2400
G92 E0
G1 X85.029 Y95.073 F7800
G1 E2 F2400
;WIDTH:0.681218
G1 F1800
G1 X85.029 Y95.131 E2.0051
;WIDTH:0.729106
G1 X85.029 Y95.189 E2.0106
G1 X84.971 Y95.189 E2.0161
;WIDTH:0.681218
G1 X84.913 Y95.189 E2.0212
;WIDTH:0.633331
G1 X84.855 Y95.189 E2.02589
;WIDTH:0.585443
G1 X84.798 Y95.189 E2.03019
;WIDTH:0.537556
G1 X77.482 Y95.189 E2.52243
;WIDTH:0.578167
G1 X77.414 Y95.168 E2.52768
;WIDTH:0.618778
G1 X77.345 Y95.148 E2.53335
;WIDTH:0.659389
G1 X77.277 Y95.127 E2.53944
;WIDTH:0.7
G1 X77.208 Y95.107 E2.54595
G1 X77.17 Y94.958 E2.55994
G1 X77.17 Y85.722 E3.39969
G1 X77.208 Y85.573 E3.41367
G1 X77.277 Y85.553 E3.42019
;WIDTH:0.659389
G1 X77.345 Y85.532 E3.42628
;WIDTH:0.618778
G1 X77.414 Y85.512 E3.43195
;WIDTH:0.578167
G1 X77.482 Y85.491 E3.43719
;WIDTH:0.537556
G1 X84.798 Y85.491 E3.92944
;WIDTH:0.585443
G1 X84.855 Y85.491 E3.93373
;WIDTH:0.633331
G1 X84.913 Y85.491 E3.93843
;WIDTH:0.681218
G1 X84.971 Y85.491 E3.94353
;WIDTH:0.729106
G1 X85.029 Y85.491 E3.94903
G1 X85.029 Y85.549 E3.95453
;WIDTH:0.681218
G1 X85.029 Y85.607 E3.95963
;WIDTH:0.633331
G1 X85.029 Y85.665 E3.96432
;WIDTH:0.585443
G1 X85.029 Y85.722 E3.96861
;WIDTH:0.537556
G1 X85.029 Y94.958 E4.59006
;WIDTH:0.585443
G1 X85.029 Y95.013 E4.59419
G1 X84.913 Y95.651 F7800
;WIDTH:0.681218
G1 F1800
G1 X84.971 Y95.651 E4.59929
;WIDTH:0.729106
G1 X85.029 Y95.651 E4.60479
G1 X85.029 Y95.709 E4.61029
;WIDTH:0.681218
G1 X85.029 Y95.767 E4.61539
;WIDTH:0.633331
G1 X85.029 Y95.825 E4.62009
;WIDTH:0.585443
G1 X85.029 Y95.882 E4.62438
;WIDTH:0.537556
G1 X85.029 Y105.118 E5.24582
;WIDTH:0.585443
G1 X85.029 Y105.175 E5.25012
;WIDTH:0.633331
G1 X85.029 Y105.233 E5.25481
;WIDTH:0.681218
G1 X85.029 Y105.291 E5.25991
;WIDTH:0.729106
G1 X85.029 Y105.349 E5.26541
G1 X84.971 Y105.349 E5.27091
;WIDTH:0.681218
G1 X84.913 Y105.349 E5.27601
;WIDTH:0.633331
G1 X84.855 Y105.349 E5.28071
;WIDTH:0.585443
G1 X84.798 Y105.349 E5.285
;WIDTH:0.537556
G1 X77.482 Y105.349 E5.77725
;WIDTH:0.578167
G1 X77.414 Y105.328 E5.78249
;WIDTH:0.618778
G1 X77.345 Y105.308 E5.78816
;WIDTH:0.659389
G1 X77.277 Y105.287 E5.79425
;WIDTH:0.7
G1 X77.208 Y105.267 E5.80077
G1 X77.17 Y105.118 E5.81475
G1 X77.17 Y95.882 E6.6545
G1 X77.208 Y95.733 E6.66848
G1 X77.277 Y95.713 E6.675
;WIDTH:0.659389
G1 X77.345 Y95.692 E6.68109
;WIDTH:0.618778
G1 X77.414 Y95.672 E6.68676
;WIDTH:0.578167
G1 X77.482 Y95.651 E6.692
;WIDTH:0.537556
G1 X84.798 Y95.651 E7.18425
;WIDTH:0.585443
G1 X84.853 Y95.651 E7.18838
G1 E5.18838 F2400
G92 E0
G1 X95.073 Y95.651 F7800
G1 E2 F2400
;WIDTH:0.681218
G1 F1800
G1 X95.131 Y95.651 E2.0051
;WIDTH:0.729106
G1 X95.189 Y95.651 E2.0106
G1 X95.189 Y95.709 E2.0161
;WIDTH:0.681218
G1 X95.189 Y95.767 E2.0212
;WIDTH:0.633331
G1 X95.189 Y95.825 E2.02589
;WIDTH:0.585443
G1 X95.189 Y95.882 E2.03019
;WIDTH:0.537556
G1 X95.189 Y105.118 E2.65163
;WIDTH:0.585443
G1 X95.189 Y105.175 E2.65593
;WIDTH:0.633331
G1 X95.189 Y105.233 E2.66062
;WIDTH:0.681218
G1 X95.189 Y105.291 E2.66572
;WIDTH:0.729106
G1 X95.189 Y105.349 E2.67122
G1 X95.131 Y105.349 E2.67672
;WIDTH:0.681218
G1 X95.073 Y105.349 E2.68182
;WIDTH:0.633331
G1 X95.015 Y105.349 E2.68652
;WIDTH:0.585443
G1 X94.958 Y105.349 E2.69081
;WIDTH:0.537556
G1 X85.722 Y105.349 E3.31226
;WIDTH:0.585443
G1 X85.665 Y105.349 E3.31655
;WIDTH:0.633331
G1 X85.607 Y105.349 E3.32124
;WIDTH:0.681218
G1 X85.549 Y105.349 E3.32634
;WIDTH:0.729106
G1 X85.491 Y105.349 E3.33184
G1 X85.491 Y105.291 E3.33734
;WIDTH:0.681218
G1 X85.491 Y105.233 E3.34244
;WIDTH:0.633331
G1 X85.491 Y105.175 E3.34714
;WIDTH:0.585443
G1 X85.491 Y105.118 E3.35143
;WIDTH:0.537556
G1 X85.491 Y95.882 E3.97288
;WIDTH:0.585443
G1 X85.491 Y95.825 E3.97717
;WIDTH:0.633331
G1 X85.491 Y95.767 E3.98187
;WIDTH:0.681218
G1 X85.491 Y95.709 E3.98696
;WIDTH:0.729106
G1 X85.491 Y95.651 E3.99247
G1 X85.549 Y95.651 E3.99797
;WIDTH:0.681218
G1 X85.607 Y95.651 E4.00306
