; generated by PrusaSlicer 2.5.0+linux-x64-GTK3 on 2023-01-12 at 19:39:02 UTC

; 

; external perimeters extrusion width = 0.45mm
; perimeters extrusion width = 0.45mm
; infill extrusion width = 0.45mm
; solid infill extrusion width = 0.45mm
; top infill extrusion width = 0.40mm
; first layer extrusion width = 0.70mm

M107
M104 S200 ; set temperature
;TYPE:Custom
G28 ; home all axes
G1 Z5 F5000 ; lift nozzle
M109 S200 ; set temperature and wait for it to be reached
G21 ; set units to millimeters
G90 ; use absolute coordinates
M82 ; use absolute distances for extrusion
G92 E0
; Filament gcode
M107
;LAYER_CHANGE
;Z:0.35
;HEIGHT:0.35
G1 Z.35 F7800
G1 E-2 F2400
G92 E0
G1 X72.834 Y71.559 F7800
G1 E2 F2400
;TYPE:Skirt/Brim
;WIDTH:0.7
G1 F1800
G1 X73.721 Y70.888 E2.1011
G1 X74.703 Y70.294 E2.20546
G1 X75.909 Y69.755 E2.32555
G1 X76.897 Y69.434 E2.42003
G1 X78.915 Y69.086 E2.60627
G1 X120.667 Y69.064 E6.40272
G1 X122.492 Y69.287 E6.56995
G1 X124.09 Y69.755 E6.7213
G1 X125.482 Y70.394 E6.86059
G1 X127.166 Y71.559 E7.04675
G1 X128.593 Y73.026 E7.23292
G1 X129.533 Y74.403 E7.38449
G1 X130.309 Y76.07 E7.55174
G1 X130.785 Y77.846 E7.71886
G1 X130.945 Y79.68 E7.88627
G1 X130.925 Y120.839 E11.62888
G1 X130.746 Y122.36 E11.7681
G1 X130.309 Y123.93 E11.91629
G1 X129.533 Y125.597 E12.08354
G1 X128.593 Y126.974 E12.23506
G1 X127.166 Y128.441 E12.42122
G1 X126.279 Y129.112 E12.52232
G1 X125.297 Y129.706 E12.62669
G1 X124.091 Y130.245 E12.74676
G1 X123.103 Y130.566 E12.84124
G1 X121.809 Y130.839 E12.96147
G1 X120.667 Y130.936 E13.06577
G1 X79.333 Y130.936 E16.82417
G1 X77.507 Y130.712 E16.99149
G1 X75.909 Y130.245 E17.14287
G1 X74.52 Y129.607 E17.28192
G1 X73.16 Y128.704 E17.43031
G1 X72.291 Y127.953 E17.53476
G1 X71.407 Y126.974 E17.65472
G1 X70.795 Y126.133 E17.74928
G1 X70.136 Y124.987 E17.86949
G1 X69.691 Y123.931 E17.9737
G1 X69.368 Y122.866 E18.07488
G1 X69.125 Y121.466 E18.20412
G1 X69.055 Y120.32 E18.30848
G1 X69.076 Y79.16 E22.05112
G1 X69.253 Y77.641 E22.19019
G1 X69.691 Y76.07 E22.33851
G1 X70.467 Y74.402 E22.50575
G1 X71.406 Y73.027 E22.65721
G1 X72.792 Y71.602 E22.83795
G1 E20.83795 F2400
G92 E0
G1 X81 Y115.592 F7800
G1 E2 F2400
;TYPE:Perimeter
;WIDTH:0.7
G1 F1800
G1 X77.852 Y115.592 E2.28626
G1 X77.28 Y115.72 E2.33959
G1 X77.28 Y84.28 E5.19839
G1 X77.852 Y84.408 E5.25172
G1 X81 Y84.408 E5.53798
G1 X81 Y115.532 E8.36801
G1 X81.625 Y116.284 F7800
G1 F1800
G1 X81.508 Y116.217 E8.38032
G1 X77.852 Y116.217 E8.71274
G1 X77.452 Y116.306 E8.75001
G1 X77.04 Y116.685 E8.80091
G1 X76.655 Y117.353 E8.871
G1 X76.655 Y82.647 E12.02677
G1 X77.04 Y83.315 E12.09686
G1 X77.452 Y83.694 E12.14776
G1 X77.852 Y83.783 E12.18502
G1 X81.508 Y83.783 E12.51745
G1 X81.625 Y83.716 E12.52975
G1 X81.625 Y116.224 E15.48573
G1 E13.48573 F2400
G92 E0
G1 X77.754 Y76.402 F7800
G1 E2 F2400
;TYPE:External perimeter
;WIDTH:0.459611
G1 F1800
G1 X77.53 Y76.69 E2.02035
;WIDTH:0.462849
G1 X76.957 Y77.677 E2.08475
;WIDTH:0.470198
G1 X76.408 Y78.656 E2.1493
;WIDTH:0.433354
G1 X75.885 Y79.6 E2.20555
G1 X75.946 Y79.08 E2.23283
G1 X76.088 Y78.498 E2.26405
;WIDTH:0.470198
G1 X76.334 Y77.959 E2.29813
G1 X76.642 Y77.454 E2.33213
;WIDTH:0.462849
G1 X77.024 Y77.008 E2.36525
G1 X77.707 Y76.441 E2.41537
G1 X77.516 Y76.678 F7800
G1 E.41537 F2400
G92 E0
G1 X93.683 Y81 F7800
G1 E2 F2400
;TYPE:Perimeter
;WIDTH:0.7
G1 F1800
G1 X84.378 Y81 E2.84611
G1 X84.689 Y80.461 E2.90271
G1 X84.884 Y79.888 E2.95781
G1 X84.879 Y79.434 E2.99909
G1 X84.689 Y78.899 E3.05068
G1 X83.754 Y77.28 E3.22065
G1 X116.244 Y77.283 E6.17495
G1 X115.311 Y78.899 E6.34462
G1 X115.121 Y79.434 E6.39625
G1 X115.116 Y79.888 E6.43752
G1 X115.311 Y80.461 E6.49259
G1 X115.622 Y81 E6.54919
G1 X93.743 Y81 E8.53871
G1 X93.52 Y81.625 F7800
G1 F1800
G1 X83.295 Y81.625 E9.46844
G1 X84.148 Y80.149 E9.62347
G1 X84.265 Y79.805 E9.65652
G1 X84.261 Y79.532 E9.68129
G1 X84.148 Y79.211 E9.71225
G1 X82.672 Y76.655 E9.98064
G1 X117.326 Y76.658 E13.13177
G1 X115.852 Y79.211 E13.39985
G1 X115.738 Y79.532 E13.43083
G1 X115.735 Y79.805 E13.45559
G1 X115.852 Y80.149 E13.48863
G1 X116.705 Y81.625 E13.64365
G1 X93.58 Y81.625 E15.74638
G1 E13.74638 F2400
G92 E0
G1 X122.537 Y76.634 F7800
G1 E2 F2400
;TYPE:External perimeter
;WIDTH:0.462862
G1 F1800
G1 X122.992 Y77.024 E2.03379
G1 X123.376 Y77.478 E2.06738
;WIDTH:0.470185
G1 X123.68 Y77.986 E2.10141
G1 X123.921 Y78.525 E2.13531
;WIDTH:0.433338
G1 X124.057 Y79.095 E2.16586
G1 X124.128 Y79.668 E2.19597
;WIDTH:0.418281
G1 X124.115 Y79.6 E2.19945
;WIDTH:0.433338
G1 X123.592 Y78.656 E2.25569
;WIDTH:0.470185
G1 X123.043 Y77.677 E2.32023
;WIDTH:0.462862
G1 X122.761 Y77.187 E2.3521
G1 X122.284 Y76.435 E2.40234
;WIDTH:0.462675
G1 X122.49 Y76.597 E2.4171
G1 E.4171 F2400
G92 E0
G1 X119 Y115.592 F7800
G1 E2 F2400
;TYPE:Perimeter
;WIDTH:0.7
G1 F1800
G1 X119 Y84.408 E4.83549
G1 X122.148 Y84.408 E5.12175
G1 X122.72 Y84.28 E5.17508
G1 X122.72 Y115.72 E8.03388
G1 X122.148 Y115.592 E8.08721
G1 X119.06 Y115.592 E8.36801
G1 X118.375 Y116.284 F7800
G1 F1800
G1 X118.375 Y83.716 E11.32944
G1 X118.492 Y83.783 E11.34174
G1 X122.148 Y83.783 E11.67417
G1 X122.548 Y83.694 E11.71144
G1 X122.96 Y83.315 E11.76234
G1 X123.345 Y82.647 E11.83243
G1 X123.345 Y117.353 E14.9882
G1 X122.96 Y116.685 E15.05829
G1 X122.548 Y116.306 E15.10919
G1 X122.148 Y116.217 E15.14645
G1 X118.492 Y116.217 E15.47888
G1 X118.427 Y116.254 E15.48572
G1 E13.48572 F2400
G92 E0
G1 X124.115 Y120.4 F7800
G1 E2 F2400
;TYPE:External perimeter
;WIDTH:0.433343
G1 F1800
G1 X124.054 Y120.92 E2.02728
G1 X123.912 Y121.502 E2.0585
;WIDTH:0.47019
G1 X123.666 Y122.041 E2.09258
G1 X123.358 Y122.546 E2.12658
;WIDTH:0.462848
G1 X122.976 Y122.992 E2.1597
G1 X122.246 Y123.598 E2.21321
;WIDTH:0.459604
G1 X122.47 Y123.311 E2.23355
;WIDTH:0.462848
G1 X123.043 Y122.323 E2.29796
;WIDTH:0.47019
G1 X123.592 Y121.344 E2.3625
;WIDTH:0.433343
G1 X124.087 Y120.453 E2.41562
G1 E.41562 F2400
G92 E0
G1 X84.764 Y119.76 F7800
G1 E2 F2400
;TYPE:Perimeter
;WIDTH:0.7
G1 F1800
G1 X84.689 Y119.539 E2.02128
G1 X84.378 Y119 E2.07789
G1 X115.622 Y119 E4.91897
G1 X115.311 Y119.539 E4.97558
G1 X115.116 Y120.112 E5.03068
G1 X115.121 Y120.566 E5.07197
G1 X115.311 Y121.101 E5.12355
G1 X116.246 Y122.72 E5.29355
G1 X83.754 Y122.72 E8.24803
G1 X84.689 Y121.101 E8.41803
G1 X84.879 Y120.566 E8.46961
G1 X84.884 Y120.112 E8.5109
G1 X84.784 Y119.817 E8.53926
G1 X84.185 Y119.962 F7800
G1 F1800
G1 X84.148 Y119.851 E8.5499
G1 X83.295 Y118.375 E8.70492
G1 X116.705 Y118.375 E11.74284
G1 X115.852 Y119.851 E11.89786
G1 X115.735 Y120.195 E11.93092
G1 X115.739 Y120.468 E11.95569
G1 X115.852 Y120.789 E11.98664
G1 X117.328 Y123.345 E12.25506
G1 X82.672 Y123.345 E15.40637
G1 X84.148 Y120.789 E15.67478
G1 X84.261 Y120.468 E15.70573
G1 X84.265 Y120.195 E15.7305
G1 X84.205 Y120.019 E15.74747
G1 E13.74747 F2400
G92 E0
G1 X77.463 Y123.366 F7800
G1 E2 F2400
;TYPE:External perimeter
;WIDTH:0.462854
G1 F1800
G1 X77.009 Y122.977 E2.03374
G1 X76.624 Y122.522 E2.06737
;WIDTH:0.470203
G1 X76.32 Y122.014 E2.10141
G1 X76.079 Y121.475 E2.13531
;WIDTH:0.433359
G1 X75.943 Y120.905 E2.16587
G1 X75.875 Y120.358 E2.19459
;WIDTH:0.417075
G1 X75.885 Y120.4 E2.19673
;WIDTH:0.433359
G1 X76.408 Y121.344 E2.25298
;WIDTH:0.470203
G1 X76.957 Y122.323 E2.31753
;WIDTH:0.462854
G1 X77.24 Y122.813 E2.34944
G1 X77.716 Y123.565 E2.39963
;WIDTH:0.462674
G1 X77.51 Y123.403 E2.41439
G1 E.41439 F2400
G92 E0
G1 X117.615 Y117.516 F7800
G1 E2 F2400
;WIDTH:0.623717
G1 F1800
G1 X117.556 Y117.594 E2.00782
;WIDTH:0.661858
G1 X117.497 Y117.672 E2.01618
;WIDTH:0.7
G1 X117.438 Y117.75 E2.02508
G1 X82.562 Y117.75 E5.19626
;WIDTH:0.699144
G1 X82.477 Y117.646 E5.20846
;WIDTH:0.661267
G1 X82.392 Y117.542 E5.21992
;WIDTH:0.623391
G1 X82.307 Y117.438 E5.23064
;WIDTH:0.623676
G1 X82.288 Y117.249 E5.24578
;WIDTH:0.661838
G1 X82.269 Y117.06 E5.26198
;WIDTH:0.7
G1 X82.25 Y116.871 E5.27923
G1 X82.25 Y83.129 E8.34743
G1 X82.269 Y82.987 E8.36042
;WIDTH:0.661864
G1 X82.288 Y82.846 E8.37262
;WIDTH:0.623729
G1 X82.307 Y82.704 E8.38402
;WIDTH:0.585594
G1 X82.326 Y82.562 E8.39463
G1 X82.385 Y82.484 E8.4019
;WIDTH:0.623729
G1 X82.444 Y82.406 E8.40972
;WIDTH:0.661864
G1 X82.503 Y82.328 E8.41808
;WIDTH:0.7
G1 X82.562 Y82.25 E8.42698
G1 X117.438 Y82.25 E11.59816
;WIDTH:0.69914
G1 X117.523 Y82.354 E11.61036
;WIDTH:0.661262
G1 X117.608 Y82.458 E11.62182
;WIDTH:0.623384
G1 X117.693 Y82.562 E11.63254
;WIDTH:0.62367
G1 X117.712 Y82.751 E11.64768
;WIDTH:0.661835
G1 X117.731 Y82.94 E11.66387
;WIDTH:0.7
G1 X117.75 Y83.129 E11.68112
G1 X117.75 Y116.871 E14.74933
G1 X117.731 Y117.013 E14.76232
;WIDTH:0.661858
G1 X117.712 Y117.154 E14.77452
;WIDTH:0.623717
G1 X117.693 Y117.296 E14.78592
;WIDTH:0.585575
G1 X117.674 Y117.438 E14.79653
G1 X117.651 Y117.468 E14.79934
G1 X117.662 Y117.602 F7800
G1 E12.79934 F2400
G92 E0
G1 X83.606 Y120.164 F7800
G1 E2 F2400
;WIDTH:0.7
G1 F1800
G1 X82.387 Y118.053 E2.22165
;WIDTH:0.699144
G1 X82.329 Y117.999 E2.22884
;WIDTH:0.652062
G1 X82.271 Y117.945 E2.2355
;WIDTH:0.604981
G1 X82.213 Y117.892 E2.2416
;WIDTH:0.5579
G1 X82.154 Y117.838 E2.24717
;WIDTH:0.510819
G1 X82.096 Y117.784 E2.25219
;WIDTH:0.50433
G1 X82.068 Y117.695 E2.25803
;WIDTH:0.544922
G1 X82.04 Y117.606 E2.26443
;WIDTH:0.585515
G1 X82.012 Y117.517 E2.27137
;WIDTH:0.623676
G1 X81.934 Y117.344 E2.28651
;WIDTH:0.661838
G1 X81.856 Y117.171 E2.30271
;WIDTH:0.7
G1 X81.779 Y116.998 E2.31996
G1 X81.508 Y116.841 E2.34837
G1 X77.852 Y116.841 E2.6808
G1 X77.719 Y116.871 E2.69322
G1 X77.581 Y116.998 E2.71018
G1 X76.03 Y119.685 E2.99234
G1 X76.03 Y80.315 E6.57222
G1 X77.581 Y83.002 E6.85437
G1 X77.719 Y83.129 E6.87134
G1 X77.852 Y83.159 E6.88376
G1 X81.508 Y83.159 E7.21619
G1 X81.779 Y83.002 E7.2446
G1 X81.829 Y82.868 E7.25761
;WIDTH:0.652749
G1 X81.879 Y82.734 E7.26964
;WIDTH:0.605498
G1 X81.929 Y82.6 E7.28068
;WIDTH:0.558247
G1 X81.979 Y82.466 E7.29075
;WIDTH:0.510996
G1 X82.029 Y82.332 E7.29982
G1 X82.101 Y82.255 E7.30649
;WIDTH:0.558247
G1 X82.173 Y82.178 E7.31389
;WIDTH:0.605498
G1 X82.244 Y82.101 E7.32201
;WIDTH:0.652749
G1 X82.316 Y82.024 E7.33085
;WIDTH:0.7
G1 X82.388 Y81.947 E7.34042
G1 X83.606 Y79.836 E7.56207
G1 X83.646 Y79.722 E7.57308
G1 X83.606 Y79.524 E7.59141
G1 X81.779 Y76.358 E7.92384
G1 X81.724 Y76.349 E7.92882
;WIDTH:0.654644
G1 X81.67 Y76.341 E7.93344
;WIDTH:0.609288
G1 X81.616 Y76.332 E7.9377
;WIDTH:0.563932
G1 X81.562 Y76.323 E7.9416
;WIDTH:0.518576
G1 X81.508 Y76.315 E7.94513
;WIDTH:0.473297
G1 X79.119 Y76.326 E8.08355
;WIDTH:0.450585
G1 X78.551 Y76.326 E8.11458
G1 X77.852 Y76.354 E8.1528
;WIDTH:0.433328
G1 X77.96 Y76.299 E8.1591
;WIDTH:0.450585
G1 X78.523 Y76.089 E8.19197
G1 X79.104 Y75.951 E8.2246
;WIDTH:0.473297
G1 X79.689 Y75.917 E8.25856
G1 X81.508 Y75.917 E8.36393
;WIDTH:0.518576
G1 X81.6 Y75.939 E8.37004
;WIDTH:0.563932
G1 X81.692 Y75.962 E8.37678
;WIDTH:0.609288
G1 X81.784 Y75.985 E8.38414
;WIDTH:0.654644
G1 X81.876 Y76.008 E8.39212
;WIDTH:0.7
G1 X81.968 Y76.03 E8.40073
G1 X118.034 Y76.033 E11.68025
G1 X118.126 Y76.01 E11.68883
;WIDTH:0.654327
G1 X118.217 Y75.988 E11.69678
;WIDTH:0.608654
G1 X118.309 Y75.965 E11.70411
;WIDTH:0.562981
G1 X118.4 Y75.942 E11.71081
;WIDTH:0.517308
G1 X118.492 Y75.919 E11.71688
;WIDTH:0.471555
G1 X120.347 Y75.919 E11.82391
G1 X120.925 Y75.956 E11.85729
;WIDTH:0.450586
G1 X121.495 Y76.094 E11.88935
G1 X122.148 Y76.354 E11.92775
;WIDTH:0.431059
G1 X122.031 Y76.348 E11.9338
;WIDTH:0.450586
G1 X120.881 Y76.326 E11.99667
;WIDTH:0.471636
G1 X118.492 Y76.316 E12.1345
;WIDTH:0.517308
G1 X118.438 Y76.324 E12.13803
;WIDTH:0.562981
G1 X118.384 Y76.332 E12.14192
;WIDTH:0.608654
G1 X118.33 Y76.341 E12.14617
;WIDTH:0.654327
G1 X118.276 Y76.349 E12.15078
;WIDTH:0.7
G1 X118.221 Y76.358 E12.15576
G1 X116.394 Y79.524 E12.48819
G1 X116.356 Y79.631 E12.49851
G1 X116.394 Y79.836 E12.51751
G1 X117.613 Y81.947 E12.73916
;WIDTH:0.69914
G1 X117.671 Y82.001 E12.74635
;WIDTH:0.652057
G1 X117.729 Y82.055 E12.753
;WIDTH:0.604975
G1 X117.787 Y82.108 E12.75911
;WIDTH:0.557892
G1 X117.846 Y82.162 E12.76468
;WIDTH:0.51081
G1 X117.904 Y82.216 E12.7697
;WIDTH:0.50432
G1 X117.932 Y82.305 E12.77554
;WIDTH:0.544913
G1 X117.96 Y82.394 E12.78193
;WIDTH:0.585506
G1 X117.988 Y82.483 E12.78888
;WIDTH:0.62367
G1 X118.066 Y82.656 E12.80402
;WIDTH:0.661835
G1 X118.144 Y82.829 E12.82021
;WIDTH:0.7
G1 X118.221 Y83.002 E12.83746
G1 X118.492 Y83.159 E12.86587
G1 X122.148 Y83.159 E13.1983
G1 X122.281 Y83.129 E13.21072
G1 X122.419 Y83.002 E13.22769
G1 X123.97 Y80.315 E13.50984
G1 X123.97 Y119.685 E17.08973
G1 X122.419 Y116.998 E17.37188
G1 X122.281 Y116.871 E17.38885
G1 X122.148 Y116.841 E17.40127
G1 X118.492 Y116.841 E17.7337
G1 X118.221 Y116.998 E17.76211
G1 X118.171 Y117.132 E17.77512
;WIDTH:0.652744
G1 X118.121 Y117.266 E17.78715
;WIDTH:0.605488
G1 X118.071 Y117.4 E17.7982
;WIDTH:0.558232
G1 X118.021 Y117.534 E17.80826
;WIDTH:0.510976
G1 X117.971 Y117.668 E17.81734
G1 X117.899 Y117.745 E17.82401
;WIDTH:0.558232
G1 X117.827 Y117.822 E17.8314
;WIDTH:0.605488
G1 X117.756 Y117.899 E17.83952
;WIDTH:0.652744
G1 X117.684 Y117.976 E17.84836
;WIDTH:0.7
G1 X117.612 Y118.053 E17.85793
G1 X116.394 Y120.164 E18.07958
G1 X116.354 Y120.278 E18.0906
G1 X116.394 Y120.476 E18.10893
G1 X118.221 Y123.642 E18.44135
G1 X118.276 Y123.651 E18.44633
;WIDTH:0.654656
G1 X118.33 Y123.659 E18.45095
;WIDTH:0.609312
G1 X118.384 Y123.668 E18.45521
;WIDTH:0.563969
G1 X118.438 Y123.677 E18.45911
;WIDTH:0.518625
G1 X118.492 Y123.685 E18.46265
;WIDTH:0.473281
G1 X120.881 Y123.674 E18.60106
;WIDTH:0.45059
G1 X121.449 Y123.674 E18.63209
G1 X122.148 Y123.646 E18.67032
;WIDTH:0.433325
G1 X122.041 Y123.701 E18.67661
;WIDTH:0.45059
G1 X121.477 Y123.911 E18.70948
G1 X120.896 Y124.049 E18.74212
;WIDTH:0.473282
G1 X120.311 Y124.083 E18.77607
G1 X118.492 Y124.083 E18.88144
;WIDTH:0.518625
G1 X118.4 Y124.061 E18.88756
;WIDTH:0.563969
G1 X118.308 Y124.038 E18.89429
;WIDTH:0.609312
G1 X118.216 Y124.015 E18.90165
;WIDTH:0.654656
G1 X118.124 Y123.993 E18.90964
;WIDTH:0.7
G1 X118.032 Y123.97 E18.91825
G1 X81.968 Y123.97 E22.19758
G1 X81.876 Y123.993 E22.2062
;WIDTH:0.654656
G1 X81.784 Y124.015 E22.21418
;WIDTH:0.609312
G1 X81.692 Y124.038 E22.22155
;WIDTH:0.563969
G1 X81.6 Y124.061 E22.22828
;WIDTH:0.518625
G1 X81.508 Y124.083 E22.23439
;WIDTH:0.473281
G1 X79.697 Y124.083 E22.33931
G1 X79.075 Y124.044 E22.37541
;WIDTH:0.450591
G1 X78.505 Y123.906 E22.40747
G1 X77.852 Y123.646 E22.44587
;WIDTH:0.430972
G1 X77.968 Y123.652 E22.45188
;WIDTH:0.450591
G1 X79.119 Y123.674 E22.51479
;WIDTH:0.473282
G1 X81.508 Y123.685 E22.6532
;WIDTH:0.518625
G1 X81.562 Y123.677 E22.65674
;WIDTH:0.563969
G1 X81.616 Y123.668 E22.66063
;WIDTH:0.609312
G1 X81.67 Y123.659 E22.66489
;WIDTH:0.654656
G1 X81.724 Y123.651 E22.66951
;WIDTH:0.7
G1 X81.779 Y123.642 E22.6745
G1 X83.606 Y120.476 E23.00693
G1 X83.644 Y120.369 E23.01724
G1 X83.617 Y120.223 E23.03079
G1 X83.864 Y119.857 F7800
G1 E21.03079 F2400
G92 E0
G1 X113.981 Y119.187 F7800
G1 E2 F2400
;TYPE:Solid infill
;WIDTH:0.703645
G1 F1800
G1 X114.698 Y119.904 E2.09275
G1 X114.65 Y120.046 E2.10645
G1 X114.657 Y120.644 E2.16111
G1 X114.717 Y120.812 E2.17747
G1 X113.373 Y119.468 E2.35129
G1 X112.484 Y119.468 E2.43258
G1 X115.267 Y122.252 E2.79257
G1 X114.378 Y122.252 E2.87386
G1 X111.595 Y119.468 E3.23385
G1 X110.706 Y119.468 E3.31514
G1 X113.49 Y122.252 E3.67513
G1 X112.601 Y122.252 E3.75642
G1 X109.818 Y119.468 E4.11641
G1 X108.929 Y119.468 E4.19771
G1 X111.712 Y122.252 E4.55769
G1 X110.823 Y122.252 E4.63899
G1 X108.04 Y119.468 E4.99897
G1 X107.151 Y119.468 E5.08027
G1 X109.934 Y122.252 E5.44025
G1 X109.045 Y122.252 E5.52155
G1 X106.262 Y119.468 E5.88153
G1 X105.373 Y119.468 E5.96283
G1 X108.156 Y122.252 E6.32281
G1 X107.267 Y122.252 E6.40411
G1 X104.484 Y119.468 E6.76409
G1 X103.595 Y119.468 E6.84539
G1 X106.379 Y122.252 E7.20537
G1 X105.49 Y122.252 E7.28667
G1 X102.707 Y119.468 E7.64666
G1 X101.818 Y119.468 E7.72795
G1 X104.601 Y122.252 E8.08794
G1 X103.712 Y122.252 E8.16923
G1 X100.929 Y119.468 E8.52922
G1 X100.04 Y119.468 E8.61051
G1 X102.823 Y122.252 E8.9705
G1 X101.934 Y122.252 E9.05179
G1 X99.151 Y119.468 E9.41178
G1 X98.262 Y119.468 E9.49308
G1 X101.045 Y122.252 E9.85306
G1 X100.156 Y122.252 E9.93436
