; generated by PrusaSlicer 2.5.0+linux-x64-GTK3 on 2023-01-12 at 19:37:49 UTC

; 

; external perimeters extrusion width = 0.45mm
; perimeters extrusion width = 0.45mm
; infill extrusion width = 0.45mm
; solid infill extrusion width = 0.45mm
; top infill extrusion width = 0.40mm
; first layer extrusion width = 0.70mm

M107
M104 S200 ; set temperature
;TYPE:Custom
G28 ; home all axes
G1 Z5 F5000 ; lift nozzle
M109 S200 ; set temperature and wait for it to be reached
G21 ; set units to millimeters
G90 ; use absolute coordinates
M82 ; use absolute distances for extrusion
G92 E0
; Filament gcode
M107
;LAYER_CHANGE
;Z:0.35
;HEIGHT:0.35
G1 Z.35 F7800
G1 E-2 F2400
G92 E0
G1 X87.531 Y82.206 F7800
G1 E2 F2400
;TYPE:Skirt/Brim
;WIDTH:0.7
G1 F1800
G1 X88.4 Y81.455 E2.10436
G1 X89.312 Y80.82 E2.20545
G1 X91.149 Y79.915 E2.39163
G1 X92.748 Y79.447 E2.54313
G1 X94.573 Y79.224 E2.71036
G1 X105.427 Y79.224 E3.69725
G1 X107.252 Y79.447 E3.86449
G1 X108.85 Y79.915 E4.01583
G1 X110.242 Y80.554 E4.15513
G1 X111.6 Y81.455 E4.30336
G1 X112.946 Y82.709 E4.47056
G1 X113.965 Y84.028 E4.62215
G1 X114.713 Y85.36 E4.76106
G1 X115.283 Y86.889 E4.90944
G1 X115.545 Y88.006 E5.01375
G1 X115.705 Y89.84 E5.18117
G1 X115.705 Y110.16 E7.02886
G1 X115.545 Y111.994 E7.19628
G1 X115.069 Y113.77 E7.36344
G1 X114.623 Y114.828 E7.46785
G1 X113.965 Y115.973 E7.58791
G1 X113.353 Y116.814 E7.68248
G1 X112.318 Y117.937 E7.82142
G1 X111.6 Y118.545 E7.90689
G1 X110.241 Y119.446 E8.05519
G1 X108.851 Y120.085 E8.19427
G1 X107.863 Y120.406 E8.28874
G1 X106.569 Y120.679 E8.40898
G1 X105.427 Y120.776 E8.51327
G1 X94.92 Y120.785 E9.46863
G1 X93.638 Y120.706 E9.58539
G1 X92.747 Y120.552 E9.66764
G1 X91.149 Y120.085 E9.81902
G1 X89.944 Y119.546 E9.93909
G1 X88.961 Y118.952 E10.04348
G1 X87.682 Y117.937 E10.19192
G1 X86.647 Y116.814 E10.33087
G1 X86.035 Y115.973 E10.42543
G1 X85.286 Y114.638 E10.56464
G1 X84.717 Y113.11 E10.71286
G1 X84.455 Y111.993 E10.81721
G1 X84.295 Y110.16 E10.98451
G1 X84.295 Y89.84 E12.8322
G1 X84.455 Y88.007 E12.9995
G1 X84.931 Y86.23 E13.16681
G1 X85.376 Y85.172 E13.27116
G1 X86.035 Y84.027 E13.39126
G1 X86.646 Y83.187 E13.48577
G1 X87.491 Y82.25 E13.60043
G1 E11.60043 F2400
G92 E0
G1 X100.462 Y91.206 F7800
G1 E2 F2400
;TYPE:Perimeter
;WIDTH:0.60837
G1 F1800
G1 X99.538 Y91.206 E2.07167
G1 X99.889 Y90.598 E2.12613
G1 X99.917 Y90.44 E2.13861
;WIDTH:0.564953
G1 X99.945 Y90.281 E2.15007
;WIDTH:0.521536
G1 X99.972 Y90.123 E2.16052
;WIDTH:0.478119
G1 X100 Y89.965 E2.16995
G1 X100.028 Y90.123 E2.17938
;WIDTH:0.521536
G1 X100.055 Y90.281 E2.18983
;WIDTH:0.564953
G1 X100.083 Y90.44 E2.20129
;WIDTH:0.60837
G1 X100.111 Y90.598 E2.21377
G1 X100.432 Y91.154 E2.26357
G1 E.26357 F2400
G92 E0
G1 X100 Y88.914 F7800
G1 E2 F2400
;WIDTH:0.96779
G1 F1800
G1 X99.227 Y87.575 E2.20088
G1 X100.773 Y87.576 E2.40172
G1 X100.03 Y88.862 E2.59473
G1 E.59473 F2400
G92 E0
G1 X101.465 Y91.785 F7800
G1 E2 F2400
;WIDTH:0.7
G1 F1800
G1 X98.535 Y91.785 E2.26639
G1 X99.388 Y90.309 E2.42141
G1 X99.513 Y89.84 E2.46553
G1 X99.388 Y89.371 E2.50964
G1 X97.912 Y86.816 E2.77796
G1 X102.087 Y86.817 E3.15755
G1 X100.612 Y89.371 E3.42571
G1 X100.487 Y89.84 E3.46983
G1 X100.612 Y90.309 E3.51395
G1 X101.435 Y91.733 E3.66352
G1 E1.66352 F2400
G92 E0
G1 X100 Y89.965 F7800
G1 E2 F2400
;WIDTH:0.434703
G1 F1800
G1 X100 Y89.715 E2.01304
G1 E.01304 F2400
G92 E0
G1 X92.994 Y86.562 F7800
G1 E2 F2400
;TYPE:External perimeter
;WIDTH:0.459611
G1 F1800
G1 X92.77 Y86.85 E2.02035
;WIDTH:0.462849
G1 X92.197 Y87.837 E2.08475
;WIDTH:0.470198
G1 X91.648 Y88.816 E2.1493
;WIDTH:0.433356
G1 X91.125 Y89.76 E2.20555
G1 X91.186 Y89.24 E2.23283
G1 X91.328 Y88.658 E2.26405
;WIDTH:0.470198
G1 X91.574 Y88.119 E2.29813
G1 X91.882 Y87.614 E2.33213
;WIDTH:0.462849
G1 X92.264 Y87.168 E2.36525
G1 X92.947 Y86.601 E2.41537
G1 X92.756 Y86.838 F7800
G1 E.41537 F2400
G92 E0
G1 X96.24 Y105.432 F7800
G1 E2 F2400
;TYPE:Perimeter
;WIDTH:0.7
G1 F1800
G1 X93.092 Y105.432 E2.28626
G1 X92.52 Y105.56 E2.33959
G1 X92.52 Y94.44 E3.3507
G1 X93.092 Y94.568 E3.40403
G1 X96.24 Y94.568 E3.69029
G1 X96.24 Y105.372 E4.67264
G1 X96.865 Y106.124 F7800
G1 F1800
G1 X96.748 Y106.057 E4.68494
G1 X93.092 Y106.057 E5.01737
G1 X92.692 Y106.146 E5.05463
G1 X92.28 Y106.525 E5.10553
G1 X91.895 Y107.193 E5.17562
G1 X91.895 Y92.807 E6.4837
G1 X92.28 Y93.475 E6.5538
G1 X92.692 Y93.854 E6.6047
G1 X93.092 Y93.943 E6.64196
G1 X96.748 Y93.943 E6.97438
G1 X96.865 Y93.876 E6.98669
G1 X96.865 Y106.064 E8.09498
G1 E6.09498 F2400
G92 E0
G1 X107.044 Y86.595 F7800
G1 E2 F2400
;TYPE:External perimeter
;WIDTH:0.462676
G1 F1800
G1 X107.297 Y86.794 E2.01814
;WIDTH:0.462867
G1 X107.751 Y87.183 E2.05188
G1 X108.136 Y87.638 E2.08552
;WIDTH:0.470175
G1 X108.44 Y88.145 E2.1195
G1 X108.681 Y88.685 E2.15346
;WIDTH:0.433305
G1 X108.817 Y89.256 E2.18405
G1 X108.888 Y89.828 E2.21411
;WIDTH:0.418276
G1 X108.875 Y89.76 E2.21758
;WIDTH:0.433305
G1 X108.352 Y88.816 E2.27382
;WIDTH:0.470175
G1 X107.803 Y87.837 E2.33836
;WIDTH:0.462867
G1 X107.52 Y87.347 E2.37029
G1 X107.076 Y86.646 E2.41708
G1 X107.272 Y86.822 F7800
G1 E.41708 F2400
G92 E0
G1 X103.76 Y105.432 F7800
G1 E2 F2400
;TYPE:Perimeter
;WIDTH:0.7
G1 F1800
G1 X103.76 Y94.568 E2.9878
G1 X106.908 Y94.568 E3.27406
G1 X107.48 Y94.44 E3.32739
G1 X107.48 Y105.56 E4.33851
G1 X106.908 Y105.432 E4.39183
G1 X103.82 Y105.432 E4.67264
G1 X103.135 Y106.124 F7800
G1 F1800
G1 X103.135 Y93.876 E5.78638
G1 X103.252 Y93.943 E5.79868
G1 X106.908 Y93.943 E6.13111
G1 X107.308 Y93.854 E6.16837
G1 X107.72 Y93.475 E6.21927
G1 X108.105 Y92.807 E6.28937
G1 X108.105 Y107.193 E7.59745
G1 X107.72 Y106.525 E7.66754
G1 X107.308 Y106.146 E7.71844
G1 X106.908 Y106.057 E7.7557
G1 X103.252 Y106.057 E8.08813
G1 X103.187 Y106.094 E8.09498
G1 E6.09498 F2400
G92 E0
G1 X108.875 Y110.24 F7800
G1 E2 F2400
;TYPE:External perimeter
;WIDTH:0.433345
G1 F1800
G1 X108.814 Y110.76 E2.02728
G1 X108.672 Y111.342 E2.0585
;WIDTH:0.470194
G1 X108.426 Y111.881 E2.09258
G1 X108.118 Y112.386 E2.12658
;WIDTH:0.462852
G1 X107.736 Y112.832 E2.1597
G1 X107.006 Y113.438 E2.21321
;WIDTH:0.459609
G1 X107.23 Y113.151 E2.23355
;WIDTH:0.462852
G1 X107.803 Y112.163 E2.29797
;WIDTH:0.470194
G1 X108.352 Y111.184 E2.36251
;WIDTH:0.433345
G1 X108.847 Y110.293 E2.41563
G1 E.41563 F2400
G92 E0
G1 X100 Y111.086 F7800
G1 E2 F2400
;TYPE:Perimeter
;WIDTH:0.968366
G1 F1800
G1 X100.774 Y112.426 E2.2011
G1 X99.226 Y112.426 E2.4022
G1 X99.97 Y111.138 E2.5955
G1 X99.99 Y109.975 F7800
;WIDTH:0.47812
G1 F1800
G1 X99.972 Y109.877 E2.60137
;WIDTH:0.521537
G1 X99.945 Y109.719 E2.61181
;WIDTH:0.564954
G1 X99.917 Y109.56 E2.62327
;WIDTH:0.608371
G1 X99.889 Y109.402 E2.63575
G1 X99.538 Y108.794 E2.69022
G1 X100.462 Y108.794 E2.76189
G1 X100.111 Y109.402 E2.81635
G1 X100.083 Y109.56 E2.82883
;WIDTH:0.564954
G1 X100.055 Y109.719 E2.84029
;WIDTH:0.521537
G1 X100.028 Y109.877 E2.85073
;WIDTH:0.47812
G1 X100 Y110.035 E2.86012
G1 X99.477 Y110.023 F7800
;WIDTH:0.7
G1 F1800
G1 X99.388 Y109.691 E2.89135
G1 X98.535 Y108.215 E3.04637
G1 X101.465 Y108.215 E3.31276
G1 X100.612 Y109.691 E3.46778
G1 X100.487 Y110.16 E3.5119
G1 X100.612 Y110.629 E3.55601
G1 X102.088 Y113.185 E3.82443
G1 X97.912 Y113.185 E4.20421
G1 X99.388 Y110.629 E4.47262
G1 X99.513 Y110.16 E4.51674
G1 X99.492 Y110.081 E4.52417
G1 X100 Y110.285 F7800
;WIDTH:0.434703
G1 F1800
G1 X100 Y110.035 E4.53721
G1 E2.53721 F2400
G92 E0
G1 X92.703 Y113.206 F7800
G1 E2 F2400
;TYPE:External perimeter
;WIDTH:0.462853
G1 F1800
G1 X92.248 Y112.816 E2.03379
G1 X91.864 Y112.362 E2.06737
;WIDTH:0.47019
G1 X91.56 Y111.855 E2.10135
G1 X91.319 Y111.315 E2.13534
;WIDTH:0.433292
G1 X91.183 Y110.745 E2.16586
G1 X91.115 Y110.198 E2.19458
;WIDTH:0.417067
G1 X91.125 Y110.24 E2.19672
;WIDTH:0.433292
G1 X91.648 Y111.183 E2.25293
;WIDTH:0.47019
G1 X92.197 Y112.163 E2.3175
;WIDTH:0.462853
G1 X92.479 Y112.653 E2.34937
G1 X92.956 Y113.405 E2.39961
;WIDTH:0.462673
G1 X92.75 Y113.243 E2.41437
G1 E.41437 F2400
G92 E0
G1 X102.375 Y107.356 F7800
G1 E2 F2400
;WIDTH:0.623717
G1 F1800
G1 X102.316 Y107.434 E2.00782
;WIDTH:0.661858
G1 X102.257 Y107.512 E2.01618
;WIDTH:0.7
G1 X102.198 Y107.59 E2.02508
G1 X97.802 Y107.59 E2.42472
;WIDTH:0.699144
G1 X97.717 Y107.486 E2.43693
;WIDTH:0.661267
G1 X97.632 Y107.382 E2.44839
;WIDTH:0.623391
G1 X97.547 Y107.278 E2.45911
;WIDTH:0.623676
G1 X97.528 Y107.089 E2.47425
;WIDTH:0.661838
G1 X97.509 Y106.9 E2.49044
;WIDTH:0.7
G1 X97.49 Y106.711 E2.50769
G1 X97.49 Y93.289 E3.72821
G1 X97.509 Y93.147 E3.7412
;WIDTH:0.661864
G1 X97.528 Y93.006 E3.7534
;WIDTH:0.623729
G1 X97.547 Y92.864 E3.7648
;WIDTH:0.585594
G1 X97.566 Y92.722 E3.77541
G1 X97.625 Y92.644 E3.78268
;WIDTH:0.623729
G1 X97.684 Y92.566 E3.7905
;WIDTH:0.661864
G1 X97.743 Y92.488 E3.79886
;WIDTH:0.7
G1 X97.802 Y92.41 E3.80776
G1 X102.198 Y92.41 E4.20741
;WIDTH:0.69914
G1 X102.283 Y92.514 E4.21961
;WIDTH:0.661262
G1 X102.368 Y92.618 E4.23107
;WIDTH:0.623384
G1 X102.453 Y92.722 E4.24179
;WIDTH:0.62367
G1 X102.472 Y92.911 E4.25693
;WIDTH:0.661835
G1 X102.491 Y93.1 E4.27312
;WIDTH:0.7
G1 X102.51 Y93.289 E4.29037
G1 X102.51 Y106.711 E5.51089
G1 X102.491 Y106.853 E5.52388
;WIDTH:0.661858
G1 X102.472 Y106.994 E5.53608
;WIDTH:0.623717
G1 X102.453 Y107.136 E5.54748
;WIDTH:0.585575
G1 X102.434 Y107.278 E5.55809
G1 X102.411 Y107.308 E5.5609
G1 X102.422 Y107.442 F7800
G1 E3.5609 F2400
G92 E0
G1 X98.887 Y110.133 F7800
G1 E2 F2400
;WIDTH:0.7
G1 F1800
G1 X98.726 Y109.796 E2.03394
G1 X97.627 Y107.893 E2.23376
;WIDTH:0.699144
G1 X97.569 Y107.839 E2.24096
;WIDTH:0.652062
G1 X97.511 Y107.785 E2.24761
;WIDTH:0.604981
G1 X97.453 Y107.732 E2.25372
;WIDTH:0.5579
G1 X97.394 Y107.678 E2.25928
;WIDTH:0.510819
G1 X97.336 Y107.624 E2.2643
;WIDTH:0.50433
G1 X97.308 Y107.535 E2.27014
;WIDTH:0.544922
G1 X97.28 Y107.446 E2.27654
;WIDTH:0.585515
G1 X97.252 Y107.357 E2.28348
;WIDTH:0.623676
G1 X97.174 Y107.184 E2.29862
;WIDTH:0.661838
G1 X97.096 Y107.011 E2.31482
;WIDTH:0.7
G1 X97.019 Y106.838 E2.33207
G1 X96.748 Y106.681 E2.36048
G1 X93.092 Y106.681 E2.69291
G1 X92.959 Y106.711 E2.70533
G1 X92.821 Y106.838 E2.72229
G1 X91.27 Y109.525 E3.00445
G1 X91.27 Y90.475 E4.73665
G1 X92.821 Y93.162 E5.0188
G1 X92.959 Y93.289 E5.03576
G1 X93.092 Y93.319 E5.04818
G1 X96.748 Y93.319 E5.38061
G1 X97.019 Y93.162 E5.40902
G1 X97.069 Y93.028 E5.42203
;WIDTH:0.652749
G1 X97.119 Y92.894 E5.43406
;WIDTH:0.605498
G1 X97.169 Y92.76 E5.44511
;WIDTH:0.558247
G1 X97.219 Y92.626 E5.45517
;WIDTH:0.510996
G1 X97.269 Y92.492 E5.46425
G1 X97.341 Y92.415 E5.47092
;WIDTH:0.558247
G1 X97.413 Y92.338 E5.47831
;WIDTH:0.605498
G1 X97.484 Y92.261 E5.48643
;WIDTH:0.652749
G1 X97.556 Y92.184 E5.49527
;WIDTH:0.7
G1 X97.628 Y92.107 E5.50484
G1 X98.726 Y90.204 E5.70466
G1 X98.887 Y89.867 E5.7386
G1 X98.846 Y89.684 E5.75569
G1 X97.019 Y86.518 E6.08811
G1 X96.964 Y86.509 E6.09309
;WIDTH:0.654597
G1 X96.91 Y86.501 E6.09771
;WIDTH:0.609194
G1 X96.856 Y86.492 E6.10197
;WIDTH:0.563792
G1 X96.802 Y86.484 E6.10586
;WIDTH:0.518389
G1 X96.748 Y86.475 E6.1094
;WIDTH:0.473294
G1 X94.359 Y86.486 E6.24781
;WIDTH:0.450585
G1 X93.791 Y86.486 E6.27885
G1 X93.092 Y86.514 E6.31707
;WIDTH:0.433328
G1 X93.2 Y86.459 E6.32337
;WIDTH:0.450585
G1 X93.763 Y86.249 E6.35623
G1 X94.344 Y86.111 E6.38887
;WIDTH:0.473294
G1 X94.929 Y86.077 E6.42282
G1 X96.748 Y86.077 E6.5282
;WIDTH:0.518388
G1 X96.84 Y86.1 E6.5343
;WIDTH:0.563791
G1 X96.932 Y86.123 E6.54103
;WIDTH:0.609194
G1 X97.024 Y86.145 E6.54839
;WIDTH:0.654597
G1 X97.115 Y86.168 E6.55637
;WIDTH:0.7
G1 X97.207 Y86.191 E6.56497
G1 X102.794 Y86.193 E7.07295
G1 X102.885 Y86.17 E7.08154
;WIDTH:0.654375
G1 X102.977 Y86.147 E7.0895
;WIDTH:0.60875
G1 X103.069 Y86.124 E7.09683
;WIDTH:0.563125
G1 X103.16 Y86.102 E7.10354
;WIDTH:0.5175
G1 X103.252 Y86.079 E7.10962
;WIDTH:0.471875
G1 X105.107 Y86.079 E7.21673
;WIDTH:0.471557
G1 X105.685 Y86.116 E7.25011
;WIDTH:0.450585
G1 X106.255 Y86.254 E7.28217
G1 X106.908 Y86.514 E7.32057
;WIDTH:0.43097
G1 X106.792 Y86.508 E7.32657
;WIDTH:0.450585
G1 X105.641 Y86.486 E7.38948
;WIDTH:0.471557
G1 X105.107 Y86.476 E7.42028
;WIDTH:0.471875
G1 X103.252 Y86.476 E7.52738
;WIDTH:0.5175
G1 X103.198 Y86.484 E7.53091
;WIDTH:0.563125
G1 X103.144 Y86.492 E7.5348
;WIDTH:0.60875
G1 X103.09 Y86.501 E7.53905
;WIDTH:0.654375
G1 X103.036 Y86.509 E7.54367
;WIDTH:0.7
G1 X102.981 Y86.518 E7.54865
G1 X101.154 Y89.684 E7.88107
G1 X101.113 Y89.867 E7.89816
G1 X101.274 Y90.204 E7.9321
G1 X102.373 Y92.107 E8.13192
;WIDTH:0.69914
G1 X102.431 Y92.161 E8.13912
;WIDTH:0.652057
G1 X102.489 Y92.215 E8.14577
;WIDTH:0.604975
G1 X102.547 Y92.268 E8.15188
;WIDTH:0.557892
G1 X102.606 Y92.322 E8.15744
;WIDTH:0.51081
G1 X102.664 Y92.376 E8.16246
;WIDTH:0.50432
G1 X102.692 Y92.465 E8.1683
;WIDTH:0.544913
G1 X102.72 Y92.554 E8.1747
;WIDTH:0.585506
G1 X102.748 Y92.643 E8.18164
;WIDTH:0.62367
G1 X102.826 Y92.816 E8.19678
;WIDTH:0.661835
G1 X102.904 Y92.989 E8.21298
;WIDTH:0.7
G1 X102.981 Y93.162 E8.23022
G1 X103.252 Y93.319 E8.25863
G1 X106.908 Y93.319 E8.59106
G1 X107.041 Y93.289 E8.60349
G1 X107.179 Y93.162 E8.62045
G1 X108.73 Y90.475 E8.9026
G1 X108.73 Y109.525 E10.6348
G1 X107.179 Y106.838 E10.91696
G1 X107.041 Y106.711 E10.93392
G1 X106.908 Y106.681 E10.94634
G1 X103.252 Y106.681 E11.27877
G1 X102.981 Y106.838 E11.30718
G1 X102.931 Y106.972 E11.3202
;WIDTH:0.652744
G1 X102.881 Y107.106 E11.33223
;WIDTH:0.605488
G1 X102.831 Y107.24 E11.34327
;WIDTH:0.558232
G1 X102.781 Y107.374 E11.35333
;WIDTH:0.510976
G1 X102.731 Y107.508 E11.36241
G1 X102.659 Y107.585 E11.36908
;WIDTH:0.558232
G1 X102.587 Y107.662 E11.37647
;WIDTH:0.605488
G1 X102.516 Y107.739 E11.38459
;WIDTH:0.652744
G1 X102.444 Y107.816 E11.39343
;WIDTH:0.7
G1 X102.372 Y107.893 E11.403
G1 X101.274 Y109.796 E11.60282
G1 X101.113 Y110.133 E11.63676
G1 X101.154 Y110.316 E11.65385
G1 X102.981 Y113.482 E11.98628
G1 X103.036 Y113.491 E11.99126
;WIDTH:0.654656
G1 X103.09 Y113.499 E11.99588
;WIDTH:0.609312
G1 X103.144 Y113.508 E12.00014
;WIDTH:0.563968
G1 X103.198 Y113.517 E12.00404
;WIDTH:0.518624
G1 X103.252 Y113.525 E12.00757
;WIDTH:0.47328
G1 X105.64 Y113.514 E12.14593
;WIDTH:0.450703
G1 X106.209 Y113.514 E12.17702
G1 X106.908 Y113.486 E12.21526
;WIDTH:0.433381
G1 X106.801 Y113.541 E12.22155
;WIDTH:0.450703
G1 X106.237 Y113.751 E12.25443
G1 X105.655 Y113.889 E12.28714
;WIDTH:0.473281
G1 X105.071 Y113.923 E12.321
G1 X103.252 Y113.923 E12.4264
;WIDTH:0.518624
G1 X103.16 Y113.901 E12.43251
;WIDTH:0.563968
G1 X103.068 Y113.878 E12.43925
;WIDTH:0.609312
G1 X102.976 Y113.855 E12.44661
;WIDTH:0.654656
G1 X102.884 Y113.833 E12.4546
;WIDTH:0.7
G1 X102.792 Y113.81 E12.46321
G1 X97.208 Y113.81 E12.97101
G1 X97.116 Y113.833 E12.97962
;WIDTH:0.654656
G1 X97.024 Y113.855 E12.98761
;WIDTH:0.609312
G1 X96.932 Y113.878 E12.99497
;WIDTH:0.563968
G1 X96.84 Y113.901 E13.00171
;WIDTH:0.518624
G1 X96.748 Y113.923 E13.00782
;WIDTH:0.473281
G1 X94.937 Y113.923 E13.11274
G1 X94.315 Y113.884 E13.14884
;WIDTH:0.450592
G1 X93.745 Y113.746 E13.1809
G1 X93.092 Y113.486 E13.2193
;WIDTH:0.431059
G1 X93.209 Y113.492 E13.22535
;WIDTH:0.450592
G1 X94.359 Y113.514 E13.28822
;WIDTH:0.473281
G1 X96.748 Y113.525 E13.42663
;WIDTH:0.518624
G1 X96.802 Y113.517 E13.43016
;WIDTH:0.563968
G1 X96.856 Y113.508 E13.43406
;WIDTH:0.609312
G1 X96.91 Y113.499 E13.43832
;WIDTH:0.654656
G1 X96.964 Y113.491 E13.44294
;WIDTH:0.7
G1 X97.019 Y113.482 E13.44792
G1 X98.846 Y110.316 E13.78035
G1 X98.874 Y110.191 E13.79198
G1 X99.184 Y109.907 F7800
G1 E11.79198 F2400
G92 E0
G1 X94.71 Y94.756 F7800
G1 E2 F2400
;TYPE:Solid infill
;WIDTH:0.737721
G1 F1800
G1 X95.772 Y95.818 E2.14481
G1 X95.772 Y96.755 E2.23516
G1 X94.054 Y95.037 E2.4694
G1 X93.117 Y95.037 E2.55975
G1 X95.772 Y97.692 E2.92177
G1 X95.772 Y98.629 E3.01212
G1 X92.988 Y95.846 E3.39162
G1 X92.988 Y96.783 E3.48197
G1 X95.772 Y99.566 E3.86147
G1 X95.772 Y100.503 E3.95182
G1 X92.988 Y97.72 E4.33132
G1 X92.988 Y98.657 E4.42167
G1 X95.772 Y101.44 E4.80118
G1 X95.772 Y102.377 E4.89153
G1 X92.988 Y99.594 E5.27103
G1 X92.988 Y100.531 E5.36138
G1 X95.772 Y103.314 E5.74088
G1 X95.772 Y104.251 E5.83123
G1 X92.988 Y101.468 E6.21073
G1 X92.988 Y102.405 E6.30108
G1 X95.546 Y104.963 E6.64984
G1 X94.609 Y104.963 E6.74019
