; generated by PrusaSlicer 2.5.0+linux-x64-GTK3 on 2023-01-12 at 19:37:54 UTC

; 

; external perimeters extrusion width = 0.45mm
; perimeters extrusion width = 0.45mm
; infill extrusion width = 0.45mm
; solid infill extrusion width = 0.45mm
; top infill extrusion width = 0.40mm
; first layer extrusion width = 0.70mm

M107
M104 S200 ; set temperature
;TYPE:Custom
G28 ; home all axes
G1 Z5 F5000 ; lift nozzle
M109 S200 ; set temperature and wait for it to be reached
G21 ; set units to millimeters
G90 ; use absolute coordinates
M82 ; use absolute distances for extrusion
G92 E0
; Filament gcode
M107
;LAYER_CHANGE
;Z:0.35
;HEIGHT:0.35
G1 Z.35 F7800
G1 E-2 F2400
G92 E0
G1 X82.451 Y82.206 F7800
G1 E2 F2400
;TYPE:Skirt/Brim
;WIDTH:0.7
G1 F1800
G1 X83.32 Y81.455 E2.10435
G1 X84.232 Y80.82 E2.20545
G1 X86.069 Y79.915 E2.39163
G1 X87.057 Y79.594 E2.4861
G1 X88.349 Y79.321 E2.60623
G1 X89.84 Y79.215 E2.74211
G1 X110.507 Y79.224 E4.62133
G1 X112.332 Y79.447 E4.78856
G1 X113.93 Y79.915 E4.9399
G1 X115.322 Y80.554 E5.0792
G1 X116.68 Y81.455 E5.22743
G1 X118.026 Y82.709 E5.39464
G1 X119.045 Y84.028 E5.54622
G1 X119.793 Y85.36 E5.68513
G1 X120.472 Y87.293 E5.87145
G1 X120.715 Y88.695 E6.00082
G1 X120.785 Y89.84 E6.10513
G1 X120.765 Y110.679 E8.00004
G1 X120.625 Y111.994 E8.12028
G1 X120.363 Y113.111 E8.22456
G1 X119.794 Y114.639 E8.37286
G1 X119.045 Y115.973 E8.51192
G1 X118.433 Y116.814 E8.60649
G1 X117.398 Y117.937 E8.74543
G1 X116.68 Y118.545 E8.83091
G1 X115.321 Y119.446 E8.97921
G1 X113.931 Y120.085 E9.11828
G1 X112.943 Y120.406 E9.21276
G1 X110.925 Y120.754 E9.39901
G1 X89.075 Y120.754 E11.38576
G1 X87.667 Y120.552 E11.51513
G1 X86.069 Y120.085 E11.66651
G1 X84.864 Y119.546 E11.78658
G1 X83.881 Y118.952 E11.89096
G1 X82.994 Y118.281 E11.99212
G1 X81.974 Y117.291 E12.12135
G1 X80.627 Y115.438 E12.3297
G1 X80.001 Y114.162 E12.45894
G1 X79.637 Y113.11 E12.56011
G1 X79.285 Y111.306 E12.72731
G1 X79.215 Y110.16 E12.83167
G1 X79.236 Y89.32 E14.72663
G1 X79.413 Y87.801 E14.86569
G1 X79.851 Y86.23 E15.01402
G1 X80.296 Y85.172 E15.11837
G1 X80.955 Y84.027 E15.23848
G1 X81.566 Y83.187 E15.33298
G1 X82.411 Y82.25 E15.44765
G1 E13.44765 F2400
G92 E0
G1 X91.16 Y105.432 F7800
G1 E2 F2400
;TYPE:Perimeter
;WIDTH:0.7
G1 F1800
G1 X88.012 Y105.432 E2.28626
G1 X87.44 Y105.56 E2.33959
G1 X87.44 Y94.44 E3.3507
G1 X88.012 Y94.568 E3.40403
G1 X91.16 Y94.568 E3.69029
G1 X91.16 Y105.372 E4.67264
G1 X91.785 Y106.124 F7800
G1 F1800
G1 X91.668 Y106.057 E4.68494
G1 X88.012 Y106.057 E5.01737
G1 X87.612 Y106.146 E5.05463
G1 X87.2 Y106.525 E5.10553
G1 X86.815 Y107.193 E5.17562
G1 X86.815 Y92.807 E6.4837
G1 X87.2 Y93.475 E6.5538
G1 X87.612 Y93.854 E6.6047
G1 X88.012 Y93.943 E6.64196
G1 X91.668 Y93.943 E6.97438
G1 X91.785 Y93.876 E6.98669
G1 X91.785 Y106.064 E8.09498
G1 E6.09498 F2400
G92 E0
G1 X87.913 Y86.562 F7800
G1 E2 F2400
;TYPE:External perimeter
;WIDTH:0.459609
G1 F1800
G1 X87.69 Y86.849 E2.02035
;WIDTH:0.462849
G1 X87.117 Y87.837 E2.08475
;WIDTH:0.470185
G1 X86.568 Y88.816 E2.1493
;WIDTH:0.433321
G1 X86.045 Y89.76 E2.20554
G1 X86.106 Y89.241 E2.23276
G1 X86.248 Y88.658 E2.26403
;WIDTH:0.470185
G1 X86.494 Y88.118 E2.29817
G1 X86.802 Y87.614 E2.33211
;WIDTH:0.462849
G1 X87.185 Y87.168 E2.36529
G1 X87.867 Y86.601 E2.41535
G1 X87.676 Y86.838 F7800
G1 E.41535 F2400
G92 E0
G1 X98.618 Y91.16 F7800
G1 E2 F2400
;TYPE:Perimeter
;WIDTH:0.7
G1 F1800
G1 X94.538 Y91.16 E2.371
G1 X94.849 Y90.621 E2.42761
G1 X95.044 Y90.048 E2.48269
G1 X95.039 Y89.594 E2.52397
G1 X94.849 Y89.059 E2.57558
G1 X93.914 Y87.44 E2.74551
G1 X106.084 Y87.443 E3.85212
G1 X105.151 Y89.059 E4.02183
G1 X104.961 Y89.594 E4.07345
G1 X104.956 Y90.048 E4.11472
G1 X105.151 Y90.621 E4.16979
G1 X105.462 Y91.16 E4.2264
G1 X98.678 Y91.16 E4.84334
G1 X98.453 Y91.785 F7800
G1 F1800
G1 X93.455 Y91.785 E5.29777
G1 X94.308 Y90.309 E5.45279
G1 X94.425 Y89.965 E5.48585
G1 X94.421 Y89.692 E5.51061
G1 X94.308 Y89.371 E5.54158
G1 X92.832 Y86.815 E5.80994
G1 X107.167 Y86.818 E7.11338
G1 X105.692 Y89.371 E7.38149
G1 X105.579 Y89.692 E7.41246
G1 X105.575 Y89.965 E7.43723
G1 X105.692 Y90.309 E7.47027
G1 X106.545 Y91.785 E7.62529
G1 X98.513 Y91.785 E8.35563
G1 E6.35563 F2400
G92 E0
G1 X113.955 Y89.76 F7800
G1 E2 F2400
;TYPE:External perimeter
;WIDTH:0.433299
G1 F1800
G1 X113.432 Y88.816 E2.05624
;WIDTH:0.470163
G1 X112.883 Y87.837 E2.12078
;WIDTH:0.462852
G1 X112.6 Y87.347 E2.1527
G1 X112.124 Y86.595 E2.20288
;WIDTH:0.462656
G1 X112.377 Y86.794 E2.22102
;WIDTH:0.462852
G1 X112.831 Y87.183 E2.25476
G1 X113.216 Y87.638 E2.28839
;WIDTH:0.470163
G1 X113.52 Y88.145 E2.32237
G1 X113.761 Y88.685 E2.35633
;WIDTH:0.433299
G1 X113.897 Y89.256 E2.38692
G1 X113.968 Y89.828 E2.41698
;WIDTH:0.418275
G1 X113.966 Y89.819 E2.41746
G1 E.41746 F2400
G92 E0
G1 X108.84 Y105.432 F7800
G1 E2 F2400
;TYPE:Perimeter
;WIDTH:0.7
G1 F1800
G1 X108.84 Y94.568 E2.9878
G1 X111.988 Y94.568 E3.27407
G1 X112.56 Y94.44 E3.32739
G1 X112.56 Y105.56 E4.3385
G1 X111.988 Y105.432 E4.39183
G1 X108.9 Y105.432 E4.67264
G1 X108.215 Y106.124 F7800
G1 F1800
G1 X108.215 Y93.876 E5.78638
G1 X108.332 Y93.943 E5.79868
G1 X111.988 Y93.943 E6.13111
G1 X112.388 Y93.854 E6.16837
G1 X112.8 Y93.475 E6.21927
G1 X113.185 Y92.807 E6.28936
G1 X113.185 Y107.193 E7.59743
G1 X112.8 Y106.525 E7.66751
G1 X112.388 Y106.146 E7.71841
G1 X111.988 Y106.057 E7.75568
G1 X108.332 Y106.057 E8.08811
G1 X108.267 Y106.094 E8.09495
G1 E6.09495 F2400
G92 E0
G1 X112.087 Y113.438 F7800
G1 E2 F2400
;TYPE:External perimeter
;WIDTH:0.459652
G1 F1800
G1 X112.31 Y113.15 E2.02037
;WIDTH:0.462838
G1 X112.883 Y112.163 E2.08476
;WIDTH:0.470169
G1 X113.432 Y111.184 E2.14929
;WIDTH:0.433304
G1 X113.955 Y110.24 E2.20553
G1 X113.894 Y110.759 E2.23276
G1 X113.752 Y111.342 E2.26403
;WIDTH:0.470169
G1 X113.506 Y111.882 E2.29816
G1 X113.198 Y112.386 E2.3321
;WIDTH:0.462838
G1 X112.815 Y112.832 E2.36528
G1 X112.133 Y113.399 E2.41534
G1 X112.324 Y113.162 F7800
G1 E.41534 F2400
G92 E0
G1 X94.924 Y109.6 F7800
G1 E2 F2400
;TYPE:Perimeter
;WIDTH:0.7
G1 F1800
G1 X94.849 Y109.379 E2.02128
G1 X94.538 Y108.84 E2.07789
G1 X105.462 Y108.84 E3.07129
G1 X105.151 Y109.379 E3.12789
G1 X104.956 Y109.952 E3.18299
G1 X104.961 Y110.406 E3.22428
G1 X105.151 Y110.941 E3.27586
G1 X106.086 Y112.56 E3.44586
G1 X93.914 Y112.56 E4.55265
G1 X94.849 Y110.941 E4.72265
G1 X95.039 Y110.406 E4.77423
G1 X95.044 Y109.952 E4.81552
G1 X94.944 Y109.657 E4.84388
G1 X94.345 Y109.802 F7800
G1 F1800
G1 X94.308 Y109.691 E4.85452
G1 X93.455 Y108.215 E5.00955
G1 X106.545 Y108.215 E6.19977
G1 X105.692 Y109.691 E6.35479
G1 X105.575 Y110.035 E6.38785
G1 X105.579 Y110.308 E6.41263
G1 X105.692 Y110.629 E6.44357
G1 X107.168 Y113.185 E6.71199
G1 X92.832 Y113.185 E8.01561
G1 X94.308 Y110.629 E8.28403
G1 X94.421 Y110.308 E8.31498
G1 X94.425 Y110.035 E8.33975
G1 X94.365 Y109.859 E8.35671
G1 E6.35671 F2400
G92 E0
G1 X87.623 Y113.206 F7800
G1 E2 F2400
;TYPE:External perimeter
;WIDTH:0.462853
G1 F1800
G1 X87.169 Y112.817 E2.03374
G1 X86.784 Y112.362 E2.06737
;WIDTH:0.470203
G1 X86.48 Y111.854 E2.10141
G1 X86.239 Y111.315 E2.13531
;WIDTH:0.43336
G1 X86.103 Y110.745 E2.16587
G1 X86.035 Y110.198 E2.19459
;WIDTH:0.417075
G1 X86.045 Y110.24 E2.19673
;WIDTH:0.43336
G1 X86.568 Y111.184 E2.25298
;WIDTH:0.470203
G1 X87.117 Y112.163 E2.31753
;WIDTH:0.462853
G1 X87.4 Y112.653 E2.34945
G1 X87.876 Y113.405 E2.39963
;WIDTH:0.462672
G1 X87.67 Y113.243 E2.41439
G1 E.41439 F2400
G92 E0
G1 X107.541 Y92.807 F7800
G1 E2 F2400
;WIDTH:0.62367
G1 F1800
G1 X107.552 Y92.911 E2.0084
;WIDTH:0.661835
G1 X107.571 Y93.1 E2.02459
;WIDTH:0.7
G1 X107.59 Y93.289 E2.04184
G1 X107.59 Y106.711 E3.26236
G1 X107.571 Y106.853 E3.27535
;WIDTH:0.661858
G1 X107.552 Y106.994 E3.28754
;WIDTH:0.623717
G1 X107.533 Y107.136 E3.29895
;WIDTH:0.585576
G1 X107.514 Y107.278 E3.30956
G1 X107.455 Y107.356 E3.31683
;WIDTH:0.623717
G1 X107.396 Y107.434 E3.32465
;WIDTH:0.661858
G1 X107.337 Y107.512 E3.333
;WIDTH:0.7
G1 X107.278 Y107.59 E3.34191
G1 X92.722 Y107.59 E4.6654
;WIDTH:0.699144
G1 X92.637 Y107.486 E4.6776
;WIDTH:0.661267
G1 X92.552 Y107.382 E4.68906
;WIDTH:0.623391
G1 X92.467 Y107.278 E4.69978
;WIDTH:0.623676
G1 X92.448 Y107.089 E4.71492
;WIDTH:0.661838
G1 X92.429 Y106.9 E4.73112
;WIDTH:0.7
G1 X92.41 Y106.711 E4.74837
G1 X92.41 Y93.289 E5.96889
G1 X92.429 Y93.147 E5.98187
;WIDTH:0.661864
G1 X92.448 Y93.006 E5.99407
;WIDTH:0.623729
G1 X92.467 Y92.864 E6.00547
;WIDTH:0.585594
G1 X92.486 Y92.722 E6.01608
G1 X92.545 Y92.644 E6.02335
;WIDTH:0.623729
G1 X92.604 Y92.566 E6.03117
;WIDTH:0.661864
G1 X92.663 Y92.488 E6.03953
;WIDTH:0.7
G1 X92.722 Y92.41 E6.04843
G1 X107.278 Y92.41 E7.37192
;WIDTH:0.699139
G1 X107.363 Y92.514 E7.38412
;WIDTH:0.661261
G1 X107.448 Y92.618 E7.39558
;WIDTH:0.623383
G1 X107.533 Y92.722 E7.4063
;WIDTH:0.62367
G1 X107.535 Y92.747 E7.40826
G1 E5.40826 F2400
G92 E0
G1 X93.766 Y110.004 F7800
G1 E2 F2400
;WIDTH:0.7
G1 F1800
G1 X92.547 Y107.893 E2.22165
;WIDTH:0.699144
G1 X92.489 Y107.839 E2.22884
;WIDTH:0.652062
G1 X92.431 Y107.785 E2.2355
;WIDTH:0.604981
G1 X92.373 Y107.732 E2.2416
;WIDTH:0.5579
G1 X92.314 Y107.678 E2.24717
;WIDTH:0.510819
G1 X92.256 Y107.624 E2.25219
;WIDTH:0.50433
G1 X92.228 Y107.535 E2.25803
;WIDTH:0.544922
G1 X92.2 Y107.446 E2.26443
;WIDTH:0.585515
G1 X92.172 Y107.357 E2.27137
;WIDTH:0.623676
G1 X92.094 Y107.184 E2.28651
;WIDTH:0.661838
G1 X92.016 Y107.011 E2.30271
;WIDTH:0.7
G1 X91.939 Y106.838 E2.31996
G1 X91.668 Y106.681 E2.34837
G1 X88.012 Y106.681 E2.6808
G1 X87.879 Y106.711 E2.69322
G1 X87.741 Y106.838 E2.71018
G1 X86.19 Y109.525 E2.99234
G1 X86.19 Y90.475 E4.72453
G1 X87.741 Y93.162 E5.00669
G1 X87.879 Y93.289 E5.02365
G1 X88.012 Y93.319 E5.03607
G1 X91.668 Y93.319 E5.3685
G1 X91.939 Y93.162 E5.39691
G1 X91.989 Y93.028 E5.40992
;WIDTH:0.652749
G1 X92.039 Y92.894 E5.42195
;WIDTH:0.605498
G1 X92.089 Y92.76 E5.433
;WIDTH:0.558247
G1 X92.139 Y92.626 E5.44306
;WIDTH:0.510996
G1 X92.189 Y92.492 E5.45213
G1 X92.261 Y92.415 E5.45881
;WIDTH:0.558247
G1 X92.333 Y92.338 E5.4662
;WIDTH:0.605498
G1 X92.404 Y92.261 E5.47432
;WIDTH:0.652749
G1 X92.476 Y92.184 E5.48316
;WIDTH:0.7
G1 X92.548 Y92.107 E5.49273
G1 X93.766 Y89.996 E5.71438
G1 X93.806 Y89.882 E5.72539
G1 X93.766 Y89.684 E5.74372
G1 X91.939 Y86.518 E6.07615
G1 X91.884 Y86.509 E6.08113
;WIDTH:0.654628
G1 X91.83 Y86.501 E6.08575
;WIDTH:0.609257
G1 X91.776 Y86.492 E6.09001
;WIDTH:0.563885
G1 X91.722 Y86.483 E6.09391
;WIDTH:0.518514
G1 X91.668 Y86.475 E6.09744
;WIDTH:0.473296
G1 X89.28 Y86.486 E6.2358
;WIDTH:0.450695
G1 X88.711 Y86.486 E6.2669
G1 X88.012 Y86.514 E6.30513
;WIDTH:0.433298
G1 X88.119 Y86.46 E6.31137
;WIDTH:0.450695
G1 X88.683 Y86.249 E6.3443
G1 X89.265 Y86.111 E6.377
;WIDTH:0.473296
G1 X89.849 Y86.077 E6.41087
G1 X91.668 Y86.077 E6.51628
;WIDTH:0.518513
G1 X91.76 Y86.1 E6.52238
;WIDTH:0.563885
G1 X91.852 Y86.122 E6.52912
;WIDTH:0.609256
G1 X91.944 Y86.145 E6.53648
;WIDTH:0.654628
G1 X92.036 Y86.168 E6.54446
;WIDTH:0.7
G1 X92.128 Y86.19 E6.55307
G1 X107.874 Y86.193 E7.98489
G1 X107.966 Y86.17 E7.99348
;WIDTH:0.654343
G1 X108.057 Y86.147 E8.00143
;WIDTH:0.608686
G1 X108.149 Y86.125 E8.00876
;WIDTH:0.563029
G1 X108.24 Y86.102 E8.01546
;WIDTH:0.517372
G1 X108.332 Y86.079 E8.02154
;WIDTH:0.471715
G1 X110.187 Y86.079 E8.1286
;WIDTH:0.471556
G1 X110.765 Y86.116 E8.16198
;WIDTH:0.450585
G1 X111.335 Y86.254 E8.19404
G1 X111.988 Y86.514 E8.23245
;WIDTH:0.430975
G1 X111.872 Y86.508 E8.23845
;WIDTH:0.450585
G1 X110.721 Y86.486 E8.30137
;WIDTH:0.471556
G1 X110.187 Y86.476 E8.33216
;WIDTH:0.471715
G1 X108.332 Y86.476 E8.43923
;WIDTH:0.517372
G1 X108.278 Y86.484 E8.44275
;WIDTH:0.563029
G1 X108.224 Y86.492 E8.44664
;WIDTH:0.608686
G1 X108.17 Y86.501 E8.45089
;WIDTH:0.654343
G1 X108.116 Y86.509 E8.45551
;WIDTH:0.7
G1 X108.061 Y86.518 E8.46049
G1 X106.234 Y89.684 E8.79291
G1 X106.196 Y89.791 E8.80324
G1 X106.234 Y89.996 E8.82223
G1 X107.453 Y92.107 E9.04388
;WIDTH:0.699139
G1 X107.511 Y92.161 E9.05108
;WIDTH:0.652057
G1 X107.569 Y92.215 E9.05773
;WIDTH:0.604975
G1 X107.627 Y92.268 E9.06384
;WIDTH:0.557893
G1 X107.686 Y92.322 E9.0694
;WIDTH:0.510811
G1 X107.744 Y92.376 E9.07442
;WIDTH:0.504321
G1 X107.772 Y92.465 E9.08026
;WIDTH:0.544913
G1 X107.8 Y92.554 E9.08666
;WIDTH:0.585506
G1 X107.828 Y92.643 E9.0936
;WIDTH:0.62367
G1 X107.906 Y92.816 E9.10874
;WIDTH:0.661835
G1 X107.984 Y92.989 E9.12494
;WIDTH:0.7
G1 X108.061 Y93.162 E9.14219
G1 X108.332 Y93.319 E9.1706
G1 X111.988 Y93.319 E9.50303
G1 X112.121 Y93.289 E9.51545
G1 X112.259 Y93.162 E9.53242
G1 X113.81 Y90.475 E9.81457
G1 X113.81 Y109.525 E11.54676
G1 X112.259 Y106.838 E11.82891
G1 X112.121 Y106.711 E11.84588
G1 X111.988 Y106.681 E11.8583
G1 X108.332 Y106.681 E12.19074
G1 X108.061 Y106.838 E12.21915
G1 X108.011 Y106.972 E12.23216
;WIDTH:0.652744
G1 X107.961 Y107.106 E12.24419
;WIDTH:0.605489
G1 X107.911 Y107.24 E12.25523
;WIDTH:0.558233
G1 X107.861 Y107.374 E12.26529
;WIDTH:0.510978
G1 X107.811 Y107.508 E12.27437
G1 X107.739 Y107.585 E12.28104
;WIDTH:0.558233
G1 X107.667 Y107.662 E12.28844
;WIDTH:0.605489
G1 X107.596 Y107.739 E12.29656
;WIDTH:0.652744
G1 X107.524 Y107.816 E12.3054
;WIDTH:0.7
G1 X107.452 Y107.893 E12.31496
G1 X106.234 Y110.004 E12.53661
G1 X106.194 Y110.118 E12.54763
G1 X106.234 Y110.316 E12.56596
G1 X108.061 Y113.482 E12.89839
G1 X108.116 Y113.491 E12.90337
;WIDTH:0.654656
G1 X108.17 Y113.499 E12.90799
;WIDTH:0.609312
G1 X108.224 Y113.508 E12.91225
;WIDTH:0.563968
G1 X108.278 Y113.517 E12.91615
;WIDTH:0.518624
G1 X108.332 Y113.525 E12.91968
;WIDTH:0.47328
G1 X110.721 Y113.514 E13.05809
;WIDTH:0.450591
G1 X111.289 Y113.514 E13.08913
G1 X111.988 Y113.486 E13.12736
;WIDTH:0.433329
G1 X111.881 Y113.541 E13.13365
;WIDTH:0.450591
G1 X111.317 Y113.751 E13.16652
G1 X110.736 Y113.889 E13.19916
;WIDTH:0.473281
G1 X110.151 Y113.923 E13.23311
G1 X108.332 Y113.923 E13.33848
;WIDTH:0.518624
G1 X108.24 Y113.901 E13.3446
;WIDTH:0.563968
G1 X108.148 Y113.878 E13.35133
;WIDTH:0.609312
G1 X108.056 Y113.855 E13.35869
;WIDTH:0.654656
G1 X107.964 Y113.833 E13.36668
;WIDTH:0.7
G1 X107.872 Y113.81 E13.37529
G1 X92.128 Y113.81 E14.80694
G1 X92.036 Y113.833 E14.81555
;WIDTH:0.654656
G1 X91.944 Y113.855 E14.82354
;WIDTH:0.609312
G1 X91.852 Y113.878 E14.8309
;WIDTH:0.563968
G1 X91.76 Y113.901 E14.83763
;WIDTH:0.518624
G1 X91.668 Y113.923 E14.84375
;WIDTH:0.473281
G1 X89.857 Y113.923 E14.94866
G1 X89.235 Y113.884 E14.98477
;WIDTH:0.450592
G1 X88.665 Y113.746 E15.01683
G1 X88.012 Y113.486 E15.05523
;WIDTH:0.430972
G1 X88.128 Y113.492 E15.06123
;WIDTH:0.450592
G1 X89.279 Y113.514 E15.12414
;WIDTH:0.473281
G1 X91.668 Y113.525 E15.26255
;WIDTH:0.518624
G1 X91.722 Y113.517 E15.26609
;WIDTH:0.563968
G1 X91.776 Y113.508 E15.26999
;WIDTH:0.609312
G1 X91.83 Y113.499 E15.27425
;WIDTH:0.654656
G1 X91.884 Y113.491 E15.27887
;WIDTH:0.7
G1 X91.939 Y113.482 E15.28385
G1 X93.766 Y110.316 E15.61628
G1 X93.804 Y110.209 E15.62659
G1 X93.777 Y110.063 E15.64014
G1 X94.024 Y109.697 F7800
G1 E13.64014 F2400
G92 E0
G1 X103.809 Y109.027 F7800
G1 E2 F2400
;TYPE:Solid infill
;WIDTH:0.709138
G1 F1800
G1 X104.535 Y109.753 E2.09469
G1 X104.49 Y109.886 E2.10766
G1 X104.497 Y110.484 E2.1628
G1 X104.568 Y110.682 E2.18225
G1 X103.194 Y109.308 E2.36152
G1 X102.297 Y109.308 E2.44424
G1 X105.08 Y112.092 E2.80737
G1 X104.184 Y112.092 E2.8901
G1 X101.4 Y109.308 E3.25322
G1 X100.504 Y109.308 E3.33595
G1 X103.287 Y112.092 E3.69908
G1 X102.39 Y112.092 E3.7818
G1 X99.607 Y109.308 E4.14493
G1 X98.71 Y109.308 E4.22766
G1 X101.494 Y112.092 E4.59079
G1 X100.597 Y112.092 E4.67351
G1 X97.814 Y109.308 E5.03664
G1 X96.917 Y109.308 E5.11936
G1 X99.7 Y112.092 E5.48249
G1 X98.804 Y112.092 E5.56522
G1 X96.02 Y109.308 E5.92835
G1 X95.314 Y109.308 E5.99356
G1 X95.412 Y109.596 E6.02162
G1 X97.907 Y112.092 E6.34719
G1 X97.01 Y112.092 E6.42991
G1 X95.477 Y110.558 E6.63003
G1 X95.234 Y111.212 E6.69437
G1 X96.114 Y112.092 E6.80918
G1 X95.217 Y112.092 E6.89191
G1 X94.7 Y111.574 E6.95941
G1 E4.95941 F2400
G92 E0
G1 X89.63 Y94.756 F7800
G1 E2 F2400
;WIDTH:0.737721
G1 F1800
G1 X90.692 Y95.818 E2.14481
G1 X90.692 Y96.755 E2.23516
G1 X88.974 Y95.037 E2.4694
G1 X88.037 Y95.037 E2.55975
G1 X90.692 Y97.692 E2.92177
G1 X90.692 Y98.629 E3.01212
