; generated by PrusaSlicer 2.5.0+linux-x64-GTK3 on 2023-01-12 at 19:37:54 UTC

; 

; external perimeters extrusion width = 0.45mm
; perimeters extrusion width = 0.45mm
; infill extrusion width = 0.45mm
; solid infill extrusion width = 0.45mm
; top infill extrusion width = 0.40mm
; first layer extrusion width = 0.70mm

M107
M104 S200 ; set temperature
;TYPE:Custom
G28 ; home all axes
G1 Z5 F5000 ; lift nozzle
M109 S200 ; set temperature and wait for it to be reached
G21 ; set units to millimeters
G90 ; use absolute coordinates
M82 ; use absolute distances for extrusion
G92 E0
; Filament gcode
M107
;LAYER_CHANGE
;Z:0.35
;HEIGHT:0.35
G1 Z.35 F7800
G1 E-2 F2400
G92 E0
G1 X82.451 Y77.126 F7800
G1 E2 F2400
;TYPE:Skirt/Brim
;WIDTH:0.7
G1 F1800
G1 X83.32 Y76.375 E2.10435
G1 X84.232 Y75.74 E2.20545
G1 X85.489 Y75.075 E2.33473
G1 X87.668 Y74.367 E2.54306
G1 X88.557 Y74.214 E2.62511
G1 X89.84 Y74.135 E2.74199
G1 X110.507 Y74.144 E4.62121
G1 X112.332 Y74.367 E4.78844
G1 X113.93 Y74.835 E4.93978
G1 X115.322 Y75.474 E5.07908
G1 X117.006 Y76.639 E5.26525
G1 X118.433 Y78.106 E5.45141
G1 X119.373 Y79.483 E5.60298
G1 X120.149 Y81.15 E5.77022
G1 X120.586 Y82.72 E5.91837
G1 X120.785 Y84.76 E6.10475
G1 X120.785 Y115.24 E8.87629
G1 X120.715 Y116.385 E8.98059
G1 X120.472 Y117.786 E9.10993
G1 X120.149 Y118.85 E9.211
G1 X119.703 Y119.908 E9.3154
G1 X119.045 Y121.053 E9.43546
G1 X118.026 Y122.371 E9.587
G1 X117.006 Y123.361 E9.71625
G1 X116.119 Y124.032 E9.81735
G1 X115.137 Y124.626 E9.92172
G1 X113.931 Y125.165 E10.0418
G1 X112.943 Y125.486 E10.13627
G1 X111.649 Y125.759 E10.2565
G1 X110.16 Y125.865 E10.39228
G1 X89.493 Y125.856 E12.27148
G1 X88.351 Y125.759 E12.37577
G1 X87.057 Y125.486 E12.49603
G1 X86.069 Y125.165 E12.59044
G1 X84.864 Y124.626 E12.7105
G1 X83.881 Y124.032 E12.8149
G1 X82.603 Y123.017 E12.96333
G1 X81.567 Y121.894 E13.10229
G1 X80.955 Y121.053 E13.19685
G1 X80.296 Y119.907 E13.31707
G1 X79.851 Y118.851 E13.42127
G1 X79.528 Y117.786 E13.52245
G1 X79.285 Y116.386 E13.65169
G1 X79.215 Y115.24 E13.75605
G1 X79.215 Y84.76 E16.52758
G1 X79.285 Y83.614 E16.63194
G1 X79.528 Y82.214 E16.76121
G1 X79.851 Y81.15 E16.86232
G1 X80.296 Y80.092 E16.96667
G1 X80.955 Y78.947 E17.08677
G1 X81.566 Y78.107 E17.18128
G1 X82.411 Y77.17 E17.29595
G1 E15.29595 F2400
G92 E0
G1 X91.16 Y110.512 F7800
G1 E2 F2400
;TYPE:Perimeter
;WIDTH:0.7
G1 F1800
G1 X88.012 Y110.512 E2.28626
G1 X87.44 Y110.64 E2.33959
G1 X87.44 Y89.36 E4.27455
G1 X88.012 Y89.488 E4.32788
G1 X91.16 Y89.488 E4.61414
G1 X91.16 Y110.452 E6.52033
G1 X91.785 Y111.204 F7800
G1 F1800
G1 X91.668 Y111.137 E6.53263
G1 X88.012 Y111.137 E6.86506
G1 X87.612 Y111.226 E6.90232
G1 X87.2 Y111.605 E6.95322
G1 X86.815 Y112.273 E7.02331
G1 X86.815 Y87.727 E9.25524
G1 X87.2 Y88.395 E9.32533
G1 X87.612 Y88.774 E9.37623
G1 X88.012 Y88.863 E9.41349
G1 X91.668 Y88.863 E9.74592
G1 X91.785 Y88.796 E9.75822
G1 X91.785 Y111.144 E11.79035
G1 E9.79035 F2400
G92 E0
G1 X87.914 Y81.482 F7800
G1 E2 F2400
;TYPE:External perimeter
;WIDTH:0.459612
G1 F1800
G1 X87.69 Y81.77 E2.02035
;WIDTH:0.462849
G1 X87.117 Y82.757 E2.08475
;WIDTH:0.470184
G1 X86.568 Y83.737 E2.14933
;WIDTH:0.433286
G1 X86.045 Y84.68 E2.20553
G1 X86.106 Y84.16 E2.23281
G1 X86.248 Y83.579 E2.264
;WIDTH:0.470184
G1 X86.494 Y83.038 E2.29816
G1 X86.802 Y82.534 E2.33211
;WIDTH:0.462849
G1 X87.184 Y82.088 E2.36523
G1 X87.867 Y81.521 E2.41535
G1 X87.676 Y81.758 F7800
G1 E.41535 F2400
G92 E0
G1 X101.23 Y86.08 F7800
G1 E2 F2400
;TYPE:Perimeter
;WIDTH:0.7
G1 F1800
G1 X94.538 Y86.08 E2.60852
G1 X94.849 Y85.541 E2.66512
G1 X95.044 Y84.968 E2.72021
G1 X95.039 Y84.514 E2.76149
G1 X94.849 Y83.979 E2.81309
G1 X93.914 Y82.36 E2.98302
G1 X106.084 Y82.363 E4.08963
G1 X105.151 Y83.979 E4.25934
G1 X104.961 Y84.514 E4.31096
G1 X104.956 Y84.968 E4.35223
G1 X105.151 Y85.541 E4.40731
G1 X105.462 Y86.08 E4.46391
G1 X101.29 Y86.08 E4.84334
G1 X101.066 Y86.705 F7800
G1 F1800
G1 X93.455 Y86.705 E5.53541
G1 X94.308 Y85.229 E5.69044
G1 X94.425 Y84.885 E5.72349
G1 X94.421 Y84.612 E5.74826
G1 X94.308 Y84.291 E5.77922
G1 X92.832 Y81.735 E6.04758
G1 X107.167 Y81.738 E7.35102
G1 X105.692 Y84.291 E7.61913
G1 X105.579 Y84.612 E7.6501
G1 X105.575 Y84.885 E7.67487
G1 X105.692 Y85.229 E7.70791
G1 X106.545 Y86.705 E7.86293
G1 X101.126 Y86.705 E8.35563
G1 E6.35563 F2400
G92 E0
G1 X113.955 Y84.68 F7800
G1 E2 F2400
;TYPE:External perimeter
;WIDTH:0.433299
G1 F1800
G1 X113.432 Y83.736 E2.05624
;WIDTH:0.470164
G1 X112.883 Y82.757 E2.12078
;WIDTH:0.462851
G1 X112.6 Y82.267 E2.1527
G1 X112.124 Y81.515 E2.20288
;WIDTH:0.462655
G1 X112.377 Y81.714 E2.22102
;WIDTH:0.462851
G1 X112.831 Y82.103 E2.25476
G1 X113.216 Y82.558 E2.28839
;WIDTH:0.470164
G1 X113.52 Y83.065 E2.32237
G1 X113.761 Y83.605 E2.35633
;WIDTH:0.433299
G1 X113.897 Y84.176 E2.38692
G1 X113.968 Y84.748 E2.41698
;WIDTH:0.418275
G1 X113.966 Y84.739 E2.41746
G1 E.41746 F2400
G92 E0
G1 X108.84 Y110.512 F7800
G1 E2 F2400
;TYPE:Perimeter
;WIDTH:0.7
G1 F1800
G1 X108.84 Y89.488 E3.91165
G1 X111.988 Y89.488 E4.19791
G1 X112.56 Y89.36 E4.25123
G1 X112.56 Y110.64 E6.18619
G1 X111.988 Y110.512 E6.23951
G1 X108.9 Y110.512 E6.52032
G1 X108.215 Y111.204 F7800
G1 F1800
G1 X108.215 Y88.796 E8.55791
G1 X108.332 Y88.863 E8.57021
G1 X111.988 Y88.863 E8.90264
G1 X112.388 Y88.774 E8.93991
G1 X112.8 Y88.395 E8.99081
G1 X113.185 Y87.727 E9.06089
G1 X113.185 Y112.273 E11.2928
G1 X112.8 Y111.605 E11.36289
G1 X112.388 Y111.226 E11.41379
G1 X111.988 Y111.137 E11.45105
G1 X108.332 Y111.137 E11.78349
G1 X108.267 Y111.174 E11.79033
G1 E9.79033 F2400
G92 E0
G1 X113.955 Y115.32 F7800
G1 E2 F2400
;TYPE:External perimeter
;WIDTH:0.433271
G1 F1800
G1 X113.894 Y115.84 E2.02727
G1 X113.752 Y116.421 E2.05846
;WIDTH:0.47017
G1 X113.506 Y116.962 E2.09263
G1 X113.198 Y117.466 E2.12657
;WIDTH:0.462837
G1 X112.816 Y117.912 E2.15969
G1 X112.087 Y118.518 E2.21319
;WIDTH:0.459589
G1 X112.31 Y118.231 E2.23353
;WIDTH:0.462837
G1 X112.883 Y117.243 E2.29794
;WIDTH:0.47017
G1 X113.432 Y116.263 E2.36251
;WIDTH:0.433271
G1 X113.927 Y115.373 E2.41559
G1 E.41559 F2400
G92 E0
G1 X94.924 Y114.68 F7800
G1 E2 F2400
;TYPE:Perimeter
;WIDTH:0.7
G1 F1800
G1 X94.849 Y114.459 E2.02128
G1 X94.538 Y113.92 E2.07789
G1 X105.462 Y113.92 E3.07129
G1 X105.151 Y114.459 E3.12789
G1 X104.956 Y115.032 E3.18299
G1 X104.961 Y115.486 E3.22428
G1 X105.151 Y116.021 E3.27586
G1 X106.086 Y117.64 E3.44586
G1 X93.914 Y117.64 E4.55265
G1 X94.849 Y116.021 E4.72265
G1 X95.039 Y115.486 E4.77424
G1 X95.044 Y115.032 E4.81552
G1 X94.944 Y114.737 E4.84388
G1 X94.345 Y114.882 F7800
G1 F1800
G1 X94.308 Y114.771 E4.85452
G1 X93.455 Y113.295 E5.00955
G1 X106.545 Y113.295 E6.19977
G1 X105.692 Y114.771 E6.3548
G1 X105.575 Y115.115 E6.38786
G1 X105.579 Y115.388 E6.41263
G1 X105.692 Y115.709 E6.44358
G1 X107.168 Y118.265 E6.71199
G1 X92.832 Y118.265 E8.01561
G1 X94.308 Y115.709 E8.28403
G1 X94.421 Y115.388 E8.31498
G1 X94.425 Y115.115 E8.33975
G1 X94.365 Y114.939 E8.35672
G1 E6.35672 F2400
G92 E0
G1 X87.623 Y118.287 F7800
G1 E2 F2400
;TYPE:External perimeter
;WIDTH:0.462854
G1 F1800
G1 X87.168 Y117.896 E2.03382
G1 X86.784 Y117.442 E2.0674
;WIDTH:0.470191
G1 X86.48 Y116.935 E2.10138
G1 X86.239 Y116.395 E2.13537
;WIDTH:0.433291
G1 X86.103 Y115.825 E2.16589
G1 X86.035 Y115.278 E2.1946
;WIDTH:0.417067
G1 X86.045 Y115.32 E2.19675
;WIDTH:0.433291
G1 X86.568 Y116.263 E2.25296
;WIDTH:0.470191
G1 X87.117 Y117.244 E2.31753
;WIDTH:0.462854
G1 X87.399 Y117.733 E2.3494
G1 X87.876 Y118.485 E2.39964
;WIDTH:0.462611
G1 X87.67 Y118.324 E2.41437
G1 E.41437 F2400
G92 E0
G1 X107.455 Y112.436 F7800
G1 E2 F2400
;WIDTH:0.623716
G1 F1800
G1 X107.396 Y112.514 E2.00782
;WIDTH:0.661858
G1 X107.337 Y112.592 E2.01618
;WIDTH:0.7
G1 X107.278 Y112.67 E2.02508
G1 X92.722 Y112.67 E3.34857
;WIDTH:0.699144
G1 X92.637 Y112.566 E3.36077
;WIDTH:0.661267
G1 X92.552 Y112.462 E3.37223
;WIDTH:0.623391
G1 X92.467 Y112.358 E3.38295
;WIDTH:0.623676
G1 X92.448 Y112.169 E3.39809
;WIDTH:0.661838
G1 X92.429 Y111.98 E3.41429
;WIDTH:0.7
G1 X92.41 Y111.791 E3.43154
G1 X92.41 Y88.209 E5.5759
G1 X92.429 Y88.067 E5.58889
;WIDTH:0.661864
G1 X92.448 Y87.926 E5.60108
;WIDTH:0.623729
G1 X92.467 Y87.784 E5.61249
;WIDTH:0.585593
G1 X92.486 Y87.642 E5.62309
G1 X92.545 Y87.564 E5.63037
;WIDTH:0.623729
G1 X92.604 Y87.486 E5.63818
;WIDTH:0.661864
G1 X92.663 Y87.408 E5.64654
;WIDTH:0.7
G1 X92.722 Y87.33 E5.65545
G1 X107.278 Y87.33 E6.97894
;WIDTH:0.699139
G1 X107.363 Y87.434 E6.99114
;WIDTH:0.661261
G1 X107.448 Y87.538 E7.0026
;WIDTH:0.623383
G1 X107.533 Y87.642 E7.01332
;WIDTH:0.62367
G1 X107.552 Y87.831 E7.02846
;WIDTH:0.661835
G1 X107.571 Y88.02 E7.04465
;WIDTH:0.7
G1 X107.59 Y88.209 E7.0619
G1 X107.59 Y111.791 E9.20627
G1 X107.571 Y111.933 E9.21926
;WIDTH:0.661858
G1 X107.552 Y112.074 E9.23145
;WIDTH:0.623716
G1 X107.533 Y112.216 E9.24285
;WIDTH:0.585574
G1 X107.514 Y112.358 E9.25346
G1 X107.491 Y112.388 E9.25628
G1 X107.502 Y112.522 F7800
G1 E7.25628 F2400
G92 E0
G1 X93.766 Y115.084 F7800
G1 E2 F2400
;WIDTH:0.7
G1 F1800
G1 X92.547 Y112.973 E2.22165
;WIDTH:0.699144
G1 X92.489 Y112.919 E2.22884
;WIDTH:0.652062
G1 X92.431 Y112.865 E2.2355
;WIDTH:0.604981
G1 X92.373 Y112.812 E2.2416
;WIDTH:0.5579
G1 X92.314 Y112.758 E2.24717
;WIDTH:0.510819
G1 X92.256 Y112.704 E2.25219
;WIDTH:0.50433
G1 X92.228 Y112.615 E2.25803
;WIDTH:0.544922
G1 X92.2 Y112.526 E2.26443
;WIDTH:0.585515
G1 X92.172 Y112.437 E2.27137
;WIDTH:0.623676
G1 X92.094 Y112.264 E2.28651
;WIDTH:0.661838
G1 X92.016 Y112.091 E2.30271
;WIDTH:0.7
G1 X91.939 Y111.918 E2.31996
G1 X91.668 Y111.761 E2.34837
G1 X88.012 Y111.761 E2.6808
G1 X87.879 Y111.791 E2.69322
G1 X87.741 Y111.918 E2.71018
G1 X86.19 Y114.605 E2.99234
G1 X86.19 Y85.395 E5.64838
G1 X87.741 Y88.082 E5.93053
G1 X87.879 Y88.209 E5.9475
G1 X88.012 Y88.239 E5.95992
G1 X91.668 Y88.239 E6.29234
G1 X91.939 Y88.082 E6.32075
G1 X91.989 Y87.948 E6.33377
;WIDTH:0.652748
G1 X92.039 Y87.814 E6.3458
;WIDTH:0.605497
G1 X92.089 Y87.68 E6.35684
;WIDTH:0.558246
G1 X92.139 Y87.546 E6.3669
;WIDTH:0.510995
G1 X92.189 Y87.412 E6.37598
G1 X92.261 Y87.335 E6.38265
;WIDTH:0.558246
G1 X92.333 Y87.258 E6.39005
;WIDTH:0.605497
G1 X92.404 Y87.181 E6.39816
;WIDTH:0.652748
G1 X92.476 Y87.104 E6.40701
;WIDTH:0.7
G1 X92.548 Y87.027 E6.41657
G1 X93.766 Y84.916 E6.63822
G1 X93.806 Y84.802 E6.64924
G1 X93.766 Y84.604 E6.66757
G1 X91.939 Y81.438 E7
G1 X91.884 Y81.429 E7.00498
;WIDTH:0.654628
G1 X91.83 Y81.421 E7.0096
;WIDTH:0.609257
G1 X91.776 Y81.412 E7.01385
;WIDTH:0.563885
G1 X91.722 Y81.403 E7.01775
;WIDTH:0.518514
G1 X91.668 Y81.395 E7.02129
;WIDTH:0.473296
G1 X89.28 Y81.406 E7.15965
;WIDTH:0.450695
G1 X88.711 Y81.406 E7.19074
G1 X88.012 Y81.434 E7.22898
;WIDTH:0.433384
G1 X88.12 Y81.379 E7.23527
;WIDTH:0.450695
G1 X88.683 Y81.169 E7.26815
G1 X89.265 Y81.031 E7.30085
;WIDTH:0.473296
G1 X89.849 Y80.997 E7.33472
G1 X91.668 Y80.997 E7.44012
;WIDTH:0.518513
G1 X91.76 Y81.02 E7.44623
;WIDTH:0.563885
G1 X91.852 Y81.042 E7.45296
;WIDTH:0.609256
G1 X91.944 Y81.065 E7.46032
;WIDTH:0.654628
G1 X92.036 Y81.088 E7.4683
;WIDTH:0.7
G1 X92.128 Y81.11 E7.47691
G1 X107.874 Y81.113 E8.90874
G1 X107.966 Y81.09 E8.91732
;WIDTH:0.654343
G1 X108.057 Y81.067 E8.92528
;WIDTH:0.608686
G1 X108.149 Y81.045 E8.93261
;WIDTH:0.563029
G1 X108.24 Y81.022 E8.93931
;WIDTH:0.517372
G1 X108.332 Y80.999 E8.94538
;WIDTH:0.471715
G1 X110.187 Y80.999 E9.05245
;WIDTH:0.471556
G1 X110.765 Y81.036 E9.08583
;WIDTH:0.450585
G1 X111.335 Y81.174 E9.11789
G1 X111.988 Y81.434 E9.15629
;WIDTH:0.430976
G1 X111.872 Y81.428 E9.1623
;WIDTH:0.450585
G1 X110.721 Y81.406 E9.22521
;WIDTH:0.471556
G1 X110.187 Y81.396 E9.25601
;WIDTH:0.471715
G1 X108.332 Y81.396 E9.36307
;WIDTH:0.517372
G1 X108.278 Y81.404 E9.3666
;WIDTH:0.563029
G1 X108.224 Y81.412 E9.37048
;WIDTH:0.608686
G1 X108.17 Y81.421 E9.37474
;WIDTH:0.654343
G1 X108.116 Y81.429 E9.37935
;WIDTH:0.7
G1 X108.061 Y81.438 E9.38433
G1 X106.234 Y84.604 E9.71676
G1 X106.196 Y84.711 E9.72708
G1 X106.234 Y84.916 E9.74608
G1 X107.453 Y87.027 E9.96773
;WIDTH:0.699139
G1 X107.511 Y87.081 E9.97492
;WIDTH:0.652057
G1 X107.569 Y87.135 E9.98157
;WIDTH:0.604975
G1 X107.627 Y87.188 E9.98768
;WIDTH:0.557893
G1 X107.686 Y87.242 E9.99325
;WIDTH:0.510811
G1 X107.744 Y87.296 E9.99827
;WIDTH:0.504321
G1 X107.772 Y87.385 E10.00411
;WIDTH:0.544913
G1 X107.8 Y87.474 E10.0105
;WIDTH:0.585506
G1 X107.828 Y87.563 E10.01745
;WIDTH:0.62367
G1 X107.906 Y87.736 E10.03259
;WIDTH:0.661835
G1 X107.984 Y87.909 E10.04878
;WIDTH:0.7
G1 X108.061 Y88.082 E10.06603
G1 X108.332 Y88.239 E10.09444
G1 X111.988 Y88.239 E10.42688
G1 X112.121 Y88.209 E10.4393
G1 X112.259 Y88.082 E10.45626
G1 X113.81 Y85.395 E10.73841
G1 X113.81 Y114.605 E13.39445
G1 X112.259 Y111.918 E13.6766
G1 X112.121 Y111.791 E13.69357
G1 X111.988 Y111.761 E13.70599
G1 X108.332 Y111.761 E14.03843
G1 X108.061 Y111.918 E14.06684
G1 X108.011 Y112.052 E14.07985
;WIDTH:0.652744
G1 X107.961 Y112.186 E14.09188
;WIDTH:0.605488
G1 X107.911 Y112.32 E14.10292
;WIDTH:0.558232
G1 X107.861 Y112.454 E14.11298
;WIDTH:0.510976
G1 X107.811 Y112.588 E14.12206
G1 X107.739 Y112.665 E14.12873
;WIDTH:0.558232
G1 X107.667 Y112.742 E14.13613
;WIDTH:0.605488
G1 X107.596 Y112.819 E14.14424
;WIDTH:0.652744
G1 X107.524 Y112.896 E14.15309
;WIDTH:0.7
G1 X107.452 Y112.973 E14.16265
G1 X106.234 Y115.084 E14.3843
G1 X106.194 Y115.198 E14.39532
G1 X106.234 Y115.396 E14.41365
G1 X108.061 Y118.562 E14.74608
G1 X108.116 Y118.571 E14.75106
;WIDTH:0.654656
G1 X108.17 Y118.579 E14.75568
;WIDTH:0.609313
G1 X108.224 Y118.588 E14.75994
;WIDTH:0.563969
G1 X108.278 Y118.597 E14.76384
;WIDTH:0.518626
G1 X108.332 Y118.605 E14.76737
;WIDTH:0.473281
G1 X110.72 Y118.594 E14.90573
;WIDTH:0.450703
G1 X111.289 Y118.594 E14.93682
G1 X111.988 Y118.566 E14.97506
;WIDTH:0.433386
G1 X111.881 Y118.621 E14.98136
;WIDTH:0.450703
G1 X111.317 Y118.831 E15.01424
G1 X110.735 Y118.969 E15.04694
;WIDTH:0.473283
G1 X110.151 Y119.003 E15.08081
G1 X108.332 Y119.003 E15.18621
;WIDTH:0.518626
G1 X108.24 Y118.981 E15.19232
;WIDTH:0.563969
G1 X108.148 Y118.958 E15.19906
;WIDTH:0.609313
G1 X108.056 Y118.935 E15.20642
;WIDTH:0.654656
G1 X107.964 Y118.913 E15.21441
;WIDTH:0.7
G1 X107.872 Y118.89 E15.22302
G1 X92.128 Y118.89 E16.65466
G1 X92.036 Y118.913 E16.66327
;WIDTH:0.654656
G1 X91.944 Y118.935 E16.67126
;WIDTH:0.609313
G1 X91.852 Y118.958 E16.67862
;WIDTH:0.563969
G1 X91.76 Y118.981 E16.68536
;WIDTH:0.518626
G1 X91.668 Y119.003 E16.69147
;WIDTH:0.473282
G1 X89.857 Y119.003 E16.79639
G1 X89.235 Y118.964 E16.83249
;WIDTH:0.450592
G1 X88.665 Y118.826 E16.86455
G1 X88.012 Y118.566 E16.90295
;WIDTH:0.430971
G1 X88.128 Y118.572 E16.90895
;WIDTH:0.450592
G1 X89.279 Y118.594 E16.97187
;WIDTH:0.473283
G1 X91.668 Y118.605 E17.11028
;WIDTH:0.518626
G1 X91.722 Y118.597 E17.11381
;WIDTH:0.563969
G1 X91.776 Y118.588 E17.11771
;WIDTH:0.609313
G1 X91.83 Y118.579 E17.12197
;WIDTH:0.654656
G1 X91.884 Y118.571 E17.12659
;WIDTH:0.7
G1 X91.939 Y118.562 E17.13157
G1 X93.766 Y115.396 E17.464
G1 X93.804 Y115.289 E17.47432
G1 X93.777 Y115.143 E17.48787
G1 X94.024 Y114.777 F7800
G1 E15.48787 F2400
G92 E0
G1 X103.809 Y114.107 F7800
G1 E2 F2400
;TYPE:Solid infill
;WIDTH:0.709138
G1 F1800
G1 X104.535 Y114.833 E2.09469
G1 X104.49 Y114.966 E2.10766
G1 X104.497 Y115.564 E2.1628
G1 X104.568 Y115.762 E2.18225
G1 X103.194 Y114.388 E2.36152
G1 X102.297 Y114.388 E2.44424
G1 X105.08 Y117.172 E2.80737
G1 X104.184 Y117.172 E2.89009
G1 X101.4 Y114.388 E3.25322
G1 X100.504 Y114.388 E3.33595
G1 X103.287 Y117.172 E3.69908
G1 X102.39 Y117.172 E3.7818
G1 X99.607 Y114.388 E4.14493
G1 X98.71 Y114.388 E4.22766
G1 X101.494 Y117.172 E4.59079
G1 X100.597 Y117.172 E4.67351
G1 X97.814 Y114.388 E5.03664
G1 X96.917 Y114.388 E5.11936
G1 X99.7 Y117.172 E5.48249
G1 X98.804 Y117.172 E5.56522
G1 X96.02 Y114.388 E5.92835
G1 X95.314 Y114.388 E5.99356
G1 X95.412 Y114.676 E6.02162
G1 X97.907 Y117.172 E6.34719
G1 X97.01 Y117.172 E6.42992
G1 X95.477 Y115.638 E6.63003
G1 X95.234 Y116.292 E6.69438
G1 X96.114 Y117.172 E6.80919
G1 X95.217 Y117.172 E6.89191
G1 X94.7 Y116.654 E6.95941
G1 E4.95941 F2400
G92 E0
G1 X89.69 Y89.676 F7800
G1 E2 F2400
;WIDTH:0.709309
G1 F1800
G1 X90.692 Y90.677 E2.13073
