; generated by PrusaSlicer 2.5.0+linux-x64-GTK3 on 2023-01-12 at 19:39:21 UTC

; 

; external perimeters extrusion width = 0.45mm
; perimeters extrusion width = 0.45mm
; infill extrusion width = 0.45mm
; solid infill extrusion width = 0.45mm
; top infill extrusion width = 0.40mm
; first layer extrusion width = 0.70mm

M107
M104 S200 ; set temperature
;TYPE:Custom
G28 ; home all axes
G1 Z5 F5000 ; lift nozzle
M109 S200 ; set temperature and wait for it to be reached
G21 ; set units to millimeters
G90 ; use absolute coordinates
M82 ; use absolute distances for extrusion
G92 E0
; Filament gcode
M107
;LAYER_CHANGE
;Z:0.35
;HEIGHT:0.35
G1 Z.35 F7800
G1 E-2 F2400
G92 E0
G1 X35.846 Y27.307 F7800
G1 E2 F2400
;TYPE:Skirt/Brim
;WIDTH:0.7
G1 F1800
G1 X37.274 Y25.839 E2.1862
G1 X38.161 Y25.168 E2.2873
G1 X39.143 Y24.574 E2.39166
G1 X40.349 Y24.035 E2.51175
G1 X41.337 Y23.714 E2.60622
G1 X42.629 Y23.441 E2.72636
G1 X43.773 Y23.344 E2.83074
G1 X156.227 Y23.344 E13.05609
G1 X158.053 Y23.568 E13.2234
G1 X160.231 Y24.275 E13.43162
G1 X161.84 Y25.168 E13.59897
G1 X163.283 Y26.34 E13.76793
G1 X164.152 Y27.304 E13.88598
G1 X164.764 Y28.147 E13.98074
G1 X165.515 Y29.485 E14.12024
G1 X166.19 Y31.404 E14.30523
G1 X166.346 Y32.132 E14.3729
G1 X166.485 Y33.443 E14.49276
G1 X166.505 Y166.04 E26.54977
G1 X166.346 Y167.868 E26.71659
G1 X165.869 Y169.649 E26.88424
G1 X165.092 Y171.319 E27.05173
G1 X164.15 Y172.697 E27.20352
G1 X163.296 Y173.647 E27.31964
G1 X162.717 Y174.169 E27.3906
G1 X161.84 Y174.832 E27.49055
G1 X160.86 Y175.425 E27.5947
G1 X159.649 Y175.966 E27.71528
G1 X158.668 Y176.285 E27.80908
G1 X157.359 Y176.561 E27.93072
G1 X155.88 Y176.665 E28.06555
G1 X44.12 Y176.665 E38.22783
G1 X42.847 Y176.588 E38.34377
G1 X41.943 Y176.432 E38.42721
G1 X40.352 Y175.966 E38.57792
G1 X38.957 Y175.325 E38.71757
G1 X37.604 Y174.428 E38.86512
G1 X36.717 Y173.66 E38.9718
G1 X35.847 Y172.695 E39.08998
G1 X35.236 Y171.854 E39.18452
G1 X34.576 Y170.708 E39.30472
G1 X34.131 Y169.65 E39.40917
G1 X33.809 Y168.588 E39.51002
G1 X33.565 Y167.186 E39.63947
G1 X33.495 Y166.04 E39.74383
G1 X33.495 Y33.96 E51.75381
G1 X33.655 Y32.127 E51.92112
G1 X34.131 Y30.35 E52.08842
G1 X34.907 Y28.682 E52.25566
G1 X35.812 Y27.356 E52.40166
G1 E50.40166 F2400
G92 E0
G1 X102.68 Y109.68 F7800
G1 E2 F2400
;TYPE:Perimeter
;WIDTH:0.7
G1 F1800
G1 X103.252 Y109.808 E2.05333
G1 X106.4 Y109.808 E2.33959
G1 X106.4 Y115.278 E2.8369
G1 X106.455 Y115.793 E2.88405
G1 X106.4 Y116.202 E2.92159
G1 X106.4 Y125.438 E3.76134
G1 X106.455 Y125.953 E3.80848
G1 X106.4 Y126.362 E3.84603
G1 X106.4 Y135.598 E4.68577
G1 X106.455 Y136.113 E4.73292
G1 X106.4 Y136.522 E4.77046
G1 X106.4 Y145.758 E5.61021
G1 X106.455 Y146.273 E5.65735
G1 X106.4 Y146.682 E5.6949
G1 X106.4 Y155.918 E6.53464
G1 X106.455 Y156.433 E6.58179
G1 X106.4 Y156.842 E6.61933
G1 X106.4 Y161.312 E7.02571
G1 X103.252 Y161.312 E7.31197
G1 X102.68 Y161.44 E7.3653
G1 X102.68 Y109.74 E12.06633
G1 X102.055 Y108.047 F7800
G1 F1800
G1 X102.44 Y108.715 E12.13642
G1 X102.852 Y109.094 E12.18732
G1 X103.252 Y109.183 E12.22458
G1 X106.908 Y109.183 E12.557
G1 X107.025 Y109.116 E12.56931
G1 X107.025 Y115.278 E13.1296
G1 X107.034 Y115.404 E13.14109
G1 X107.139 Y115.725 E13.17182
G1 X107.058 Y115.957 E13.19416
G1 X107.025 Y116.202 E13.21669
G1 X107.025 Y125.438 E14.05643
G1 X107.034 Y125.564 E14.06793
G1 X107.139 Y125.885 E14.09865
G1 X107.058 Y126.117 E14.121
G1 X107.025 Y126.362 E14.14353
G1 X107.025 Y135.598 E14.98327
G1 X107.034 Y135.724 E14.99476
G1 X107.139 Y136.045 E15.02549
G1 X107.058 Y136.277 E15.04783
G1 X107.025 Y136.522 E15.07036
G1 X107.025 Y145.758 E15.9101
G1 X107.034 Y145.884 E15.92159
G1 X107.139 Y146.205 E15.95232
G1 X107.058 Y146.437 E15.97467
G1 X107.025 Y146.682 E15.99719
G1 X107.025 Y155.918 E16.83694
G1 X107.034 Y156.044 E16.84843
G1 X107.139 Y156.365 E16.87916
G1 X107.058 Y156.597 E16.9015
G1 X107.025 Y156.842 E16.92403
G1 X107.025 Y162.004 E17.39338
G1 X106.908 Y161.936 E17.40569
G1 X103.252 Y161.936 E17.73811
G1 X102.852 Y162.026 E17.77538
G1 X102.44 Y162.405 E17.82628
G1 X102.055 Y163.073 E17.89637
G1 X102.055 Y108.107 E22.89436
G1 E20.89436 F2400
G92 E0
G1 X103.154 Y101.802 F7800
G1 E2 F2400
;TYPE:External perimeter
;WIDTH:0.459665
G1 F1800
G1 X102.93 Y102.09 E2.02038
;WIDTH:0.462847
G1 X102.357 Y103.077 E2.08476
;WIDTH:0.470177
G1 X101.808 Y104.056 E2.1493
;WIDTH:0.433307
G1 X101.285 Y105 E2.20554
G1 X101.346 Y104.481 E2.23276
G1 X101.488 Y103.898 E2.26403
;WIDTH:0.470177
G1 X101.734 Y103.358 E2.29817
G1 X102.042 Y102.854 E2.33211
;WIDTH:0.462847
G1 X102.425 Y102.408 E2.36529
G1 X103.107 Y101.841 E2.41535
G1 X102.916 Y102.078 F7800
G1 E.41535 F2400
G92 E0
G1 X115.509 Y116.087 F7800
G1 E2 F2400
;WIDTH:0.633331
G1 F1800
G1 X115.509 Y116.145 E2.0047
;WIDTH:0.585443
G1 X115.509 Y116.202 E2.00899
;WIDTH:0.537556
G1 X115.509 Y125.438 E2.63043
;WIDTH:0.585443
G1 X115.509 Y125.495 E2.63473
;WIDTH:0.633331
G1 X115.509 Y125.553 E2.63942
;WIDTH:0.681218
G1 X115.509 Y125.611 E2.64452
;WIDTH:0.729106
G1 X115.509 Y125.669 E2.65002
G1 X115.451 Y125.669 E2.65552
;WIDTH:0.681218
G1 X115.393 Y125.669 E2.66062
;WIDTH:0.633331
G1 X115.335 Y125.669 E2.66532
;WIDTH:0.585443
G1 X115.278 Y125.669 E2.66961
;WIDTH:0.537556
G1 X107.962 Y125.669 E3.16186
;WIDTH:0.578167
G1 X107.894 Y125.648 E3.1671
;WIDTH:0.618778
G1 X107.825 Y125.628 E3.17277
;WIDTH:0.659389
G1 X107.757 Y125.607 E3.17886
;WIDTH:0.7
G1 X107.688 Y125.587 E3.18538
G1 X107.65 Y125.438 E3.19936
G1 X107.65 Y116.202 E4.03911
G1 X107.688 Y116.053 E4.05309
G1 X107.757 Y116.033 E4.05961
;WIDTH:0.659389
G1 X107.825 Y116.012 E4.0657
;WIDTH:0.618778
G1 X107.894 Y115.992 E4.07137
;WIDTH:0.578167
G1 X107.962 Y115.971 E4.07661
;WIDTH:0.537556
G1 X115.278 Y115.971 E4.56886
;WIDTH:0.585443
G1 X115.335 Y115.971 E4.57315
;WIDTH:0.633331
G1 X115.393 Y115.971 E4.57785
;WIDTH:0.681218
G1 X115.451 Y115.971 E4.58295
;WIDTH:0.729106
G1 X115.509 Y115.971 E4.58845
G1 X115.509 Y116.027 E4.59374
G1 X115.563 Y116.108 F7800
G1 X115.971 Y116.029
G1 F1800
G1 X115.971 Y115.971 E4.59924
G1 X116.029 Y115.971 E4.60474
;WIDTH:0.681218
G1 X116.087 Y115.971 E4.60984
;WIDTH:0.633331
G1 X116.145 Y115.971 E4.61454
;WIDTH:0.585443
G1 X116.202 Y115.971 E4.61883
;WIDTH:0.537556
G1 X125.438 Y115.971 E5.24028
;WIDTH:0.585443
G1 X125.495 Y115.971 E5.24457
;WIDTH:0.633331
G1 X125.553 Y115.971 E5.24926
;WIDTH:0.681218
G1 X125.611 Y115.971 E5.25436
;WIDTH:0.729106
G1 X125.669 Y115.971 E5.25986
G1 X125.669 Y116.029 E5.26537
;WIDTH:0.681218
G1 X125.669 Y116.087 E5.27046
;WIDTH:0.633331
G1 X125.669 Y116.145 E5.27516
;WIDTH:0.585443
G1 X125.669 Y116.202 E5.27945
;WIDTH:0.537556
G1 X125.669 Y125.438 E5.9009
;WIDTH:0.585443
G1 X125.669 Y125.495 E5.90519
;WIDTH:0.633331
G1 X125.669 Y125.553 E5.90989
;WIDTH:0.681218
G1 X125.669 Y125.611 E5.91498
;WIDTH:0.729106
G1 X125.669 Y125.669 E5.92049
G1 X125.611 Y125.669 E5.92599
;WIDTH:0.681218
G1 X125.553 Y125.669 E5.93109
;WIDTH:0.633331
G1 X125.495 Y125.669 E5.93578
;WIDTH:0.585443
G1 X125.438 Y125.669 E5.94007
;WIDTH:0.537556
G1 X116.202 Y125.669 E6.56152
;WIDTH:0.585443
G1 X116.145 Y125.669 E6.56581
;WIDTH:0.633331
G1 X116.087 Y125.669 E6.57051
;WIDTH:0.681218
G1 X116.029 Y125.669 E6.57561
;WIDTH:0.729106
G1 X115.971 Y125.669 E6.58111
G1 X115.971 Y125.611 E6.58661
;WIDTH:0.681218
G1 X115.971 Y125.553 E6.59171
;WIDTH:0.633331
G1 X115.971 Y125.495 E6.5964
;WIDTH:0.585443
G1 X115.971 Y125.438 E6.6007
;WIDTH:0.537556
G1 X115.971 Y116.202 E7.22214
;WIDTH:0.585443
G1 X115.971 Y116.145 E7.22644
;WIDTH:0.633331
G1 X115.971 Y116.089 E7.23095
G1 E5.23095 F2400
G92 E0
G1 X115.971 Y135.829 F7800
G1 E2 F2400
;WIDTH:0.729106
G1 F1800
G1 X115.971 Y135.771 E2.0055
;WIDTH:0.681218
G1 X115.971 Y135.713 E2.0106
;WIDTH:0.633331
G1 X115.971 Y135.655 E2.01529
;WIDTH:0.585443
G1 X115.971 Y135.598 E2.01959
;WIDTH:0.537556
G1 X115.971 Y126.362 E2.64103
;WIDTH:0.585443
G1 X115.971 Y126.305 E2.64533
;WIDTH:0.633331
G1 X115.971 Y126.247 E2.65002
;WIDTH:0.681218
G1 X115.971 Y126.189 E2.65512
;WIDTH:0.729106
G1 X115.971 Y126.131 E2.66062
G1 X116.029 Y126.131 E2.66612
;WIDTH:0.681218
G1 X116.087 Y126.131 E2.67122
;WIDTH:0.633331
G1 X116.145 Y126.131 E2.67592
;WIDTH:0.585443
G1 X116.202 Y126.131 E2.68021
;WIDTH:0.537556
G1 X125.438 Y126.131 E3.30166
;WIDTH:0.585443
G1 X125.495 Y126.131 E3.30595
;WIDTH:0.633331
G1 X125.553 Y126.131 E3.31065
;WIDTH:0.681218
G1 X125.611 Y126.131 E3.31574
;WIDTH:0.729106
G1 X125.669 Y126.131 E3.32124
G1 X125.669 Y126.189 E3.32675
;WIDTH:0.681218
G1 X125.669 Y126.247 E3.33184
;WIDTH:0.633331
G1 X125.669 Y126.305 E3.33654
;WIDTH:0.585443
G1 X125.669 Y126.362 E3.34083
;WIDTH:0.537556
G1 X125.669 Y135.598 E3.96228
;WIDTH:0.585443
G1 X125.669 Y135.655 E3.96657
;WIDTH:0.633331
G1 X125.669 Y135.713 E3.97127
;WIDTH:0.681218
G1 X125.669 Y135.771 E3.97637
;WIDTH:0.729106
G1 X125.669 Y135.829 E3.98187
G1 X125.611 Y135.829 E3.98737
;WIDTH:0.681218
G1 X125.553 Y135.829 E3.99247
;WIDTH:0.633331
G1 X125.495 Y135.829 E3.99716
;WIDTH:0.585443
G1 X125.438 Y135.829 E4.00145
;WIDTH:0.537556
G1 X116.202 Y135.829 E4.6229
;WIDTH:0.585443
G1 X116.145 Y135.829 E4.62719
;WIDTH:0.633331
G1 X116.087 Y135.829 E4.63189
;WIDTH:0.681218
G1 X116.031 Y135.829 E4.63679
G1 X115.509 Y135.829 F7800
;WIDTH:0.729106
G1 F1800
G1 X115.451 Y135.829 E4.6423
;WIDTH:0.681218
G1 X115.393 Y135.829 E4.64739
;WIDTH:0.633331
G1 X115.335 Y135.829 E4.65209
;WIDTH:0.585443
G1 X115.278 Y135.829 E4.65638
;WIDTH:0.537556
G1 X107.962 Y135.829 E5.14863
;WIDTH:0.578167
G1 X107.894 Y135.808 E5.15387
;WIDTH:0.618778
G1 X107.825 Y135.788 E5.15954
;WIDTH:0.659389
G1 X107.757 Y135.767 E5.16563
;WIDTH:0.7
G1 X107.688 Y135.747 E5.17215
G1 X107.65 Y135.598 E5.18614
G1 X107.65 Y126.362 E6.02588
G1 X107.688 Y126.213 E6.03987
G1 X107.757 Y126.193 E6.04638
;WIDTH:0.659389
G1 X107.825 Y126.172 E6.05247
;WIDTH:0.618778
G1 X107.894 Y126.152 E6.05814
;WIDTH:0.578167
G1 X107.962 Y126.131 E6.06339
;WIDTH:0.537556
G1 X115.278 Y126.131 E6.55563
;WIDTH:0.585443
G1 X115.335 Y126.131 E6.55993
;WIDTH:0.633331
G1 X115.393 Y126.131 E6.56462
;WIDTH:0.681218
G1 X115.451 Y126.131 E6.56972
;WIDTH:0.729106
G1 X115.509 Y126.131 E6.57522
G1 X115.509 Y126.189 E6.58072
;WIDTH:0.681218
G1 X115.509 Y126.247 E6.58582
;WIDTH:0.633331
G1 X115.509 Y126.305 E6.59052
;WIDTH:0.585443
G1 X115.509 Y126.362 E6.59481
;WIDTH:0.537556
G1 X115.509 Y135.598 E7.21626
;WIDTH:0.585443
G1 X115.509 Y135.655 E7.22055
;WIDTH:0.633331
G1 X115.509 Y135.713 E7.22524
;WIDTH:0.681218
G1 X115.509 Y135.769 E7.23015
G1 X115.509 Y136.291 F7800
;WIDTH:0.729106
G1 F1800
G1 X115.509 Y136.349 E7.23565
;WIDTH:0.681218
G1 X115.509 Y136.407 E7.24075
;WIDTH:0.633331
G1 X115.509 Y136.465 E7.24544
;WIDTH:0.585443
G1 X115.509 Y136.522 E7.24974
;WIDTH:0.537556
G1 X115.509 Y145.758 E7.87118
;WIDTH:0.585443
G1 X115.509 Y145.815 E7.87548
;WIDTH:0.633331
G1 X115.509 Y145.873 E7.88017
;WIDTH:0.681218
G1 X115.509 Y145.931 E7.88527
;WIDTH:0.729106
G1 X115.509 Y145.989 E7.89077
G1 X115.451 Y145.989 E7.89627
;WIDTH:0.681218
G1 X115.393 Y145.989 E7.90137
;WIDTH:0.633331
G1 X115.335 Y145.989 E7.90607
;WIDTH:0.585443
G1 X115.278 Y145.989 E7.91036
;WIDTH:0.537556
G1 X107.962 Y145.989 E8.40261
;WIDTH:0.578167
G1 X107.894 Y145.968 E8.40785
;WIDTH:0.618778
G1 X107.825 Y145.948 E8.41352
;WIDTH:0.659389
G1 X107.757 Y145.927 E8.41961
;WIDTH:0.7
G1 X107.688 Y145.907 E8.42613
G1 X107.65 Y145.758 E8.44011
G1 X107.65 Y136.522 E9.27986
G1 X107.688 Y136.373 E9.29384
G1 X107.757 Y136.353 E9.30036
;WIDTH:0.659389
G1 X107.825 Y136.332 E9.30645
;WIDTH:0.618778
G1 X107.894 Y136.312 E9.31212
;WIDTH:0.578167
G1 X107.962 Y136.291 E9.31736
;WIDTH:0.537556
G1 X115.278 Y136.291 E9.80961
;WIDTH:0.585443
G1 X115.335 Y136.291 E9.8139
;WIDTH:0.633331
G1 X115.393 Y136.291 E9.8186
;WIDTH:0.681218
G1 X115.449 Y136.291 E9.8235
G1 E7.8235 F2400
G92 E0
G1 X125.669 Y145.989 F7800
G1 E2 F2400
;WIDTH:0.729106
G1 F1800
G1 X125.611 Y145.989 E2.0055
;WIDTH:0.681218
G1 X125.553 Y145.989 E2.0106
;WIDTH:0.633331
G1 X125.495 Y145.989 E2.01529
;WIDTH:0.585443
G1 X125.438 Y145.989 E2.01959
;WIDTH:0.537556
G1 X116.202 Y145.989 E2.64103
;WIDTH:0.585443
G1 X116.145 Y145.989 E2.64533
;WIDTH:0.633331
G1 X116.087 Y145.989 E2.65002
;WIDTH:0.681218
G1 X116.029 Y145.989 E2.65512
;WIDTH:0.729106
G1 X115.971 Y145.989 E2.66062
G1 X115.971 Y145.931 E2.66612
;WIDTH:0.681218
G1 X115.971 Y145.873 E2.67122
;WIDTH:0.633331
G1 X115.971 Y145.815 E2.67592
;WIDTH:0.585443
G1 X115.971 Y145.758 E2.68021
;WIDTH:0.537556
G1 X115.971 Y136.522 E3.30166
;WIDTH:0.585443
G1 X115.971 Y136.465 E3.30595
;WIDTH:0.633331
G1 X115.971 Y136.407 E3.31064
;WIDTH:0.681218
G1 X115.971 Y136.349 E3.31574
;WIDTH:0.729106
G1 X115.971 Y136.291 E3.32124
G1 X116.029 Y136.291 E3.32675
;WIDTH:0.681218
G1 X116.087 Y136.291 E3.33184
;WIDTH:0.633331
G1 X116.145 Y136.291 E3.33654
;WIDTH:0.585443
G1 X116.202 Y136.291 E3.34083
;WIDTH:0.537556
G1 X125.438 Y136.291 E3.96228
;WIDTH:0.585443
G1 X125.495 Y136.291 E3.96657
;WIDTH:0.633331
G1 X125.553 Y136.291 E3.97127
;WIDTH:0.681218
G1 X125.611 Y136.291 E3.97637
;WIDTH:0.729106
G1 X125.669 Y136.291 E3.98187
G1 X125.669 Y136.349 E3.98737
;WIDTH:0.681218
G1 X125.669 Y136.407 E3.99247
;WIDTH:0.633331
G1 X125.669 Y136.465 E3.99716
;WIDTH:0.585443
G1 X125.669 Y136.522 E4.00145
;WIDTH:0.537556
G1 X125.669 Y145.758 E4.6229
;WIDTH:0.585443
G1 X125.669 Y145.815 E4.62719
;WIDTH:0.633331
G1 X125.669 Y145.873 E4.63189
;WIDTH:0.681218
G1 X125.669 Y145.929 E4.63679
G1 X125.669 Y146.451 F7800
;WIDTH:0.729106
G1 F1800
G1 X125.669 Y146.509 E4.64229
;WIDTH:0.681218
G1 X125.669 Y146.567 E4.64739
;WIDTH:0.633331
G1 X125.669 Y146.625 E4.65209
;WIDTH:0.585443
G1 X125.669 Y146.682 E4.65638
;WIDTH:0.537556
G1 X125.669 Y155.918 E5.27783
;WIDTH:0.585443
G1 X125.669 Y155.975 E5.28212
;WIDTH:0.633331
G1 X125.669 Y156.033 E5.28682
;WIDTH:0.681218
G1 X125.669 Y156.091 E5.29192
;WIDTH:0.729106
G1 X125.669 Y156.149 E5.29742
G1 X125.611 Y156.149 E5.30292
;WIDTH:0.681218
G1 X125.553 Y156.149 E5.30802
;WIDTH:0.633331
G1 X125.495 Y156.149 E5.31271
;WIDTH:0.585443
G1 X125.438 Y156.149 E5.317
;WIDTH:0.537556
G1 X116.202 Y156.149 E5.93845
;WIDTH:0.585443
G1 X116.145 Y156.149 E5.94274
;WIDTH:0.633331
G1 X116.087 Y156.149 E5.94744
;WIDTH:0.681218
G1 X116.029 Y156.149 E5.95254
;WIDTH:0.729106
G1 X115.971 Y156.149 E5.95804
G1 X115.971 Y156.091 E5.96354
;WIDTH:0.681218
G1 X115.971 Y156.033 E5.96864
;WIDTH:0.633331
G1 X115.971 Y155.975 E5.97333
;WIDTH:0.585443
G1 X115.971 Y155.918 E5.97763
;WIDTH:0.537556
G1 X115.971 Y146.682 E6.59907
;WIDTH:0.585443
G1 X115.971 Y146.625 E6.60337
;WIDTH:0.633331
G1 X115.971 Y146.567 E6.60806
;WIDTH:0.681218
G1 X115.971 Y146.509 E6.61316
;WIDTH:0.729106
G1 X115.971 Y146.451 E6.61866
G1 X116.029 Y146.451 E6.62416
;WIDTH:0.681218
G1 X116.087 Y146.451 E6.62926
;WIDTH:0.633331
G1 X116.145 Y146.451 E6.63396
;WIDTH:0.585443
G1 X116.202 Y146.451 E6.63825
;WIDTH:0.537556
G1 X125.438 Y146.451 E7.2597
;WIDTH:0.585443
G1 X125.495 Y146.451 E7.26399
;WIDTH:0.633331
G1 X125.553 Y146.451 E7.26868
;WIDTH:0.681218
G1 X125.609 Y146.451 E7.27359
G1 E5.27359 F2400
G92 E0
G1 X115.451 Y146.451 F7800
G1 E2 F2400
;WIDTH:0.729106
G1 F1800
G1 X115.509 Y146.451 E2.0055
G1 X115.509 Y146.509 E2.011
;WIDTH:0.681218
G1 X115.509 Y146.567 E2.0161
;WIDTH:0.633331
G1 X115.509 Y146.625 E2.0208
;WIDTH:0.585443
G1 X115.509 Y146.682 E2.02509
;WIDTH:0.537556
G1 X115.509 Y155.918 E2.64654
;WIDTH:0.585443
G1 X115.509 Y155.975 E2.65083
;WIDTH:0.633331
G1 X115.509 Y156.033 E2.65552
;WIDTH:0.681218
G1 X115.509 Y156.091 E2.66062
;WIDTH:0.729106
G1 X115.509 Y156.149 E2.66612
G1 X115.451 Y156.149 E2.67162
;WIDTH:0.681218
G1 X115.393 Y156.149 E2.67672
;WIDTH:0.633331
G1 X115.335 Y156.149 E2.68142
;WIDTH:0.585443
G1 X115.278 Y156.149 E2.68571
;WIDTH:0.537556
G1 X107.962 Y156.149 E3.17796
;WIDTH:0.578167
G1 X107.894 Y156.128 E3.1832
;WIDTH:0.618778
G1 X107.825 Y156.108 E3.18887
;WIDTH:0.659389
G1 X107.757 Y156.087 E3.19496
;WIDTH:0.7
G1 X107.688 Y156.067 E3.20148
G1 X107.65 Y155.918 E3.21546
G1 X107.65 Y146.682 E4.05521
G1 X107.688 Y146.533 E4.0692
G1 X107.757 Y146.513 E4.07571
;WIDTH:0.659389
G1 X107.825 Y146.492 E4.0818
;WIDTH:0.618778
