; generated by PrusaSlicer 2.5.0+linux-x64-GTK3 on 2023-01-12 at 19:39:23 UTC

; 

; external perimeters extrusion width = 0.45mm
; perimeters extrusion width = 0.45mm
; infill extrusion width = 0.45mm
; solid infill extrusion width = 0.45mm
; top infill extrusion width = 0.40mm
; first layer extrusion width = 0.70mm

M107
M104 S200 ; set temperature
;TYPE:Custom
G28 ; home all axes
G1 Z5 F5000 ; lift nozzle
M109 S200 ; set temperature and wait for it to be reached
G21 ; set units to millimeters
G90 ; use absolute coordinates
M82 ; use absolute distances for extrusion
G92 E0
; Filament gcode
M107
;LAYER_CHANGE
;Z:0.35
;HEIGHT:0.35
G1 Z.35 F7800
G1 E-2 F2400
G92 E0
G1 X67.176 Y61.944 F7800
G1 E2 F2400
;TYPE:Skirt/Brim
;WIDTH:0.7
G1 F1800
G1 X67.363 Y61.742 E2.02507
G1 X68.08 Y61.135 E2.11041
G1 X69.439 Y60.234 E2.25871
G1 X70.829 Y59.595 E2.3978
G1 X71.817 Y59.274 E2.49228
G1 X73.835 Y58.926 E2.67852
G1 X125.747 Y58.904 E7.3988
G1 X127.572 Y59.127 E7.56603
G1 X129.17 Y59.595 E7.71743
G1 X131.008 Y60.5 E7.90374
G1 X132.637 Y61.742 E8.08997
G1 X133.673 Y62.866 E8.22899
G1 X134.285 Y63.708 E8.32362
G1 X134.943 Y64.851 E8.44353
G1 X135.603 Y66.569 E8.61089
G1 X135.955 Y68.375 E8.77822
G1 X136.025 Y69.52 E8.88253
G1 X136.025 Y130.48 E14.42559
G1 X135.865 Y132.314 E14.59302
G1 X135.603 Y133.431 E14.6973
G1 X135.034 Y134.959 E14.84559
G1 X134.285 Y136.293 E14.98466
G1 X133.673 Y137.134 E15.07922
G1 X132.638 Y138.257 E15.21817
G1 X131.92 Y138.865 E15.30364
G1 X130.561 Y139.766 E15.45195
G1 X129.171 Y140.405 E15.59101
G1 X128.183 Y140.726 E15.68549
G1 X126.889 Y140.999 E15.80573
G1 X125.747 Y141.096 E15.91002
G1 X74.253 Y141.096 E20.59227
G1 X72.427 Y140.872 E20.75959
G1 X70.83 Y140.406 E20.91084
G1 X69.624 Y139.866 E21.03103
G1 X68.641 Y139.272 E21.13542
G1 X67.754 Y138.601 E21.23657
G1 X66.734 Y137.611 E21.36582
G1 X65.715 Y136.293 E21.5173
G1 X65.056 Y135.147 E21.63754
G1 X64.611 Y134.091 E21.74174
G1 X64.288 Y133.026 E21.84293
G1 X64.045 Y131.626 E21.97216
G1 X63.975 Y130.48 E22.07652
G1 X63.975 Y69.52 E27.61959
G1 X64.135 Y67.687 E27.78689
G1 X64.397 Y66.569 E27.89127
G1 X64.966 Y65.041 E28.03958
G1 X65.715 Y63.707 E28.17867
G1 X66.326 Y62.866 E28.27317
G1 X67.136 Y61.989 E28.38176
G1 E26.38176 F2400
G92 E0
G1 X72.2 Y125.88 F7800
G1 E2 F2400
;TYPE:Perimeter
;WIDTH:0.7
G1 F1800
G1 X72.2 Y74.12 E6.70649
G1 X72.772 Y74.248 E6.75982
G1 X75.92 Y74.248 E7.04608
G1 X75.92 Y79.718 E7.5434
G1 X75.975 Y80.233 E7.59054
G1 X75.92 Y80.642 E7.62809
G1 X75.92 Y89.878 E8.46783
G1 X75.975 Y90.393 E8.51498
G1 X75.92 Y90.802 E8.55252
G1 X75.92 Y100.038 E9.39227
G1 X75.975 Y100.553 E9.43941
G1 X75.92 Y100.962 E9.47696
G1 X75.92 Y110.198 E10.3167
G1 X75.975 Y110.713 E10.36385
G1 X75.92 Y111.122 E10.40139
G1 X75.92 Y120.358 E11.24114
G1 X75.975 Y120.873 E11.28828
G1 X75.92 Y121.282 E11.32583
G1 X75.92 Y125.752 E11.73221
G1 X72.772 Y125.752 E12.01847
G1 X72.258 Y125.867 E12.06635
G1 X72.081 Y126.734 F7800
G1 F1800
G1 X71.96 Y126.845 E12.08131
G1 X71.575 Y127.513 E12.15141
G1 X71.575 Y72.487 E17.15486
G1 X71.96 Y73.155 E17.22496
G1 X72.372 Y73.534 E17.27586
G1 X72.772 Y73.623 E17.31312
G1 X76.428 Y73.623 E17.64555
G1 X76.545 Y73.556 E17.65785
G1 X76.545 Y79.718 E18.21814
G1 X76.554 Y79.844 E18.22963
G1 X76.659 Y80.165 E18.26036
G1 X76.578 Y80.397 E18.2827
G1 X76.545 Y80.642 E18.30523
G1 X76.545 Y89.878 E19.14497
G1 X76.554 Y90.004 E19.15646
G1 X76.659 Y90.325 E19.18719
G1 X76.578 Y90.557 E19.20954
G1 X76.545 Y90.802 E19.23206
G1 X76.545 Y100.038 E20.07181
G1 X76.554 Y100.164 E20.0833
G1 X76.659 Y100.485 E20.11403
G1 X76.578 Y100.717 E20.13637
G1 X76.545 Y100.962 E20.1589
G1 X76.545 Y110.198 E20.99864
G1 X76.554 Y110.324 E21.01013
G1 X76.659 Y110.645 E21.04086
G1 X76.578 Y110.877 E21.06321
G1 X76.545 Y111.122 E21.08573
G1 X76.545 Y120.358 E21.92548
G1 X76.554 Y120.484 E21.93697
G1 X76.659 Y120.805 E21.9677
G1 X76.578 Y121.037 E21.99004
G1 X76.545 Y121.282 E22.01257
G1 X76.545 Y126.444 E22.48193
G1 X76.428 Y126.377 E22.49423
G1 X72.772 Y126.377 E22.82666
G1 X72.372 Y126.466 E22.86392
G1 X72.126 Y126.693 E22.89439
G1 E20.89439 F2400
G92 E0
G1 X72.674 Y66.242 F7800
G1 E2 F2400
;TYPE:External perimeter
;WIDTH:0.459671
G1 F1800
G1 X72.45 Y66.53 E2.02038
;WIDTH:0.462849
G1 X71.877 Y67.517 E2.08476
;WIDTH:0.470185
G1 X71.328 Y68.496 E2.1493
;WIDTH:0.433321
G1 X70.805 Y69.44 E2.20554
G1 X70.866 Y68.921 E2.23277
G1 X71.008 Y68.338 E2.26404
;WIDTH:0.470185
G1 X71.254 Y67.798 E2.29817
G1 X71.562 Y67.294 E2.33212
;WIDTH:0.462849
G1 X71.945 Y66.848 E2.36529
G1 X72.627 Y66.281 E2.41536
G1 X72.436 Y66.518 F7800
G1 E.41536 F2400
G92 E0
G1 X84.971 Y80.411 F7800
G1 E2 F2400
;WIDTH:0.729106
G1 F1800
G1 X85.029 Y80.411 E2.0055
G1 X85.029 Y80.469 E2.011
;WIDTH:0.681218
G1 X85.029 Y80.527 E2.0161
;WIDTH:0.633331
G1 X85.029 Y80.585 E2.0208
;WIDTH:0.585443
G1 X85.029 Y80.642 E2.02509
;WIDTH:0.537556
G1 X85.029 Y89.878 E2.64654
;WIDTH:0.585443
G1 X85.029 Y89.935 E2.65083
;WIDTH:0.633331
G1 X85.029 Y89.993 E2.65552
;WIDTH:0.681218
G1 X85.029 Y90.051 E2.66062
;WIDTH:0.729106
G1 X85.029 Y90.109 E2.66612
G1 X84.971 Y90.109 E2.67162
;WIDTH:0.681218
G1 X84.913 Y90.109 E2.67672
;WIDTH:0.633331
G1 X84.855 Y90.109 E2.68142
;WIDTH:0.585443
G1 X84.798 Y90.109 E2.68571
;WIDTH:0.537556
G1 X77.482 Y90.109 E3.17796
;WIDTH:0.578167
G1 X77.414 Y90.088 E3.1832
;WIDTH:0.618778
G1 X77.345 Y90.068 E3.18887
;WIDTH:0.659389
G1 X77.277 Y90.047 E3.19496
;WIDTH:0.7
G1 X77.208 Y90.027 E3.20148
G1 X77.17 Y89.878 E3.21546
G1 X77.17 Y80.642 E4.05521
G1 X77.208 Y80.493 E4.0692
G1 X77.277 Y80.473 E4.07571
;WIDTH:0.659389
G1 X77.345 Y80.452 E4.0818
;WIDTH:0.618778
G1 X77.414 Y80.432 E4.08747
;WIDTH:0.578167
G1 X77.482 Y80.411 E4.09272
;WIDTH:0.537556
G1 X84.798 Y80.411 E4.58496
;WIDTH:0.585443
G1 X84.855 Y80.411 E4.58926
;WIDTH:0.633331
G1 X84.911 Y80.411 E4.59377
G1 X85.491 Y80.411 F7800
;WIDTH:0.729106
G1 F1800
G1 X85.549 Y80.411 E4.59927
;WIDTH:0.681218
G1 X85.607 Y80.411 E4.60437
;WIDTH:0.633331
G1 X85.665 Y80.411 E4.60907
;WIDTH:0.585443
G1 X85.722 Y80.411 E4.61336
;WIDTH:0.537556
G1 X94.958 Y80.411 E5.23481
;WIDTH:0.585443
G1 X95.015 Y80.411 E5.2391
;WIDTH:0.633331
G1 X95.073 Y80.411 E5.2438
;WIDTH:0.681218
G1 X95.131 Y80.411 E5.24889
;WIDTH:0.729106
G1 X95.189 Y80.411 E5.25439
G1 X95.189 Y80.469 E5.2599
;WIDTH:0.681218
G1 X95.189 Y80.527 E5.26499
;WIDTH:0.633331
G1 X95.189 Y80.585 E5.26969
;WIDTH:0.585443
G1 X95.189 Y80.642 E5.27398
;WIDTH:0.537556
G1 X95.189 Y89.878 E5.89543
;WIDTH:0.585443
G1 X95.189 Y89.935 E5.89972
;WIDTH:0.633331
G1 X95.189 Y89.993 E5.90442
;WIDTH:0.681218
G1 X95.189 Y90.051 E5.90952
;WIDTH:0.729106
G1 X95.189 Y90.109 E5.91502
G1 X95.131 Y90.109 E5.92052
;WIDTH:0.681218
G1 X95.073 Y90.109 E5.92562
;WIDTH:0.633331
G1 X95.015 Y90.109 E5.93031
;WIDTH:0.585443
G1 X94.958 Y90.109 E5.9346
;WIDTH:0.537556
G1 X85.722 Y90.109 E6.55605
;WIDTH:0.585443
G1 X85.665 Y90.109 E6.56034
;WIDTH:0.633331
G1 X85.607 Y90.109 E6.56504
;WIDTH:0.681218
G1 X85.549 Y90.109 E6.57014
;WIDTH:0.729106
G1 X85.491 Y90.109 E6.57564
G1 X85.491 Y90.051 E6.58114
;WIDTH:0.681218
G1 X85.491 Y89.993 E6.58624
;WIDTH:0.633331
G1 X85.491 Y89.935 E6.59093
;WIDTH:0.585443
G1 X85.491 Y89.878 E6.59523
;WIDTH:0.537556
G1 X85.491 Y80.642 E7.21667
;WIDTH:0.585443
G1 X85.491 Y80.585 E7.22097
;WIDTH:0.633331
G1 X85.491 Y80.527 E7.22566
;WIDTH:0.681218
G1 X85.491 Y80.471 E7.23057
G1 E5.23057 F2400
G92 E0
G1 X95.189 Y100.211 F7800
G1 E2 F2400
;WIDTH:0.729106
G1 F1800
G1 X95.189 Y100.269 E2.0055
G1 X95.131 Y100.269 E2.011
;WIDTH:0.681218
G1 X95.073 Y100.269 E2.0161
;WIDTH:0.633331
G1 X95.015 Y100.269 E2.0208
;WIDTH:0.585443
G1 X94.958 Y100.269 E2.02509
;WIDTH:0.537556
G1 X85.722 Y100.269 E2.64654
;WIDTH:0.585443
G1 X85.665 Y100.269 E2.65083
;WIDTH:0.633331
G1 X85.607 Y100.269 E2.65552
;WIDTH:0.681218
G1 X85.549 Y100.269 E2.66062
;WIDTH:0.729106
G1 X85.491 Y100.269 E2.66612
G1 X85.491 Y100.211 E2.67162
;WIDTH:0.681218
G1 X85.491 Y100.153 E2.67672
;WIDTH:0.633331
G1 X85.491 Y100.095 E2.68142
;WIDTH:0.585443
G1 X85.491 Y100.038 E2.68571
;WIDTH:0.537556
G1 X85.491 Y90.802 E3.30716
;WIDTH:0.585443
G1 X85.491 Y90.745 E3.31145
;WIDTH:0.633331
G1 X85.491 Y90.687 E3.31615
;WIDTH:0.681218
G1 X85.491 Y90.629 E3.32124
;WIDTH:0.729106
G1 X85.491 Y90.571 E3.32675
G1 X85.549 Y90.571 E3.33225
;WIDTH:0.681218
G1 X85.607 Y90.571 E3.33734
;WIDTH:0.633331
G1 X85.665 Y90.571 E3.34204
;WIDTH:0.585443
G1 X85.722 Y90.571 E3.34633
;WIDTH:0.537556
G1 X94.958 Y90.571 E3.96778
;WIDTH:0.585443
G1 X95.015 Y90.571 E3.97207
;WIDTH:0.633331
G1 X95.073 Y90.571 E3.97677
;WIDTH:0.681218
G1 X95.131 Y90.571 E3.98187
;WIDTH:0.729106
G1 X95.189 Y90.571 E3.98737
G1 X95.189 Y90.629 E3.99287
;WIDTH:0.681218
G1 X95.189 Y90.687 E3.99797
;WIDTH:0.633331
G1 X95.189 Y90.745 E4.00266
;WIDTH:0.585443
G1 X95.189 Y90.802 E4.00695
;WIDTH:0.537556
G1 X95.189 Y100.038 E4.6284
;WIDTH:0.585443
G1 X95.189 Y100.095 E4.63269
;WIDTH:0.633331
G1 X95.189 Y100.151 E4.63721
G1 E2.63721 F2400
G92 E0
G1 X84.913 Y100.269 F7800
G1 E2 F2400
G1 F1800
G1 X84.855 Y100.269 E2.0047
;WIDTH:0.585443
G1 X84.798 Y100.269 E2.00899
;WIDTH:0.537556
G1 X77.482 Y100.269 E2.50124
;WIDTH:0.578167
G1 X77.414 Y100.248 E2.50648
;WIDTH:0.618778
G1 X77.345 Y100.228 E2.51215
;WIDTH:0.659389
G1 X77.277 Y100.207 E2.51824
;WIDTH:0.7
G1 X77.208 Y100.187 E2.52476
G1 X77.17 Y100.038 E2.53874
G1 X77.17 Y90.802 E3.37849
G1 X77.208 Y90.653 E3.39247
G1 X77.277 Y90.633 E3.39899
;WIDTH:0.659389
G1 X77.345 Y90.612 E3.40508
;WIDTH:0.618778
G1 X77.414 Y90.592 E3.41075
;WIDTH:0.578167
G1 X77.482 Y90.571 E3.41599
;WIDTH:0.537556
G1 X84.798 Y90.571 E3.90824
;WIDTH:0.585443
G1 X84.855 Y90.571 E3.91253
;WIDTH:0.633331
G1 X84.913 Y90.571 E3.91723
;WIDTH:0.681218
G1 X84.971 Y90.571 E3.92233
;WIDTH:0.729106
G1 X85.029 Y90.571 E3.92783
G1 X85.029 Y90.629 E3.93333
;WIDTH:0.681218
G1 X85.029 Y90.687 E3.93843
;WIDTH:0.633331
G1 X85.029 Y90.745 E3.94312
;WIDTH:0.585443
G1 X85.029 Y90.802 E3.94742
;WIDTH:0.537556
G1 X85.029 Y100.038 E4.56886
;WIDTH:0.585443
G1 X85.029 Y100.095 E4.57316
;WIDTH:0.633331
G1 X85.029 Y100.153 E4.57785
;WIDTH:0.681218
G1 X85.029 Y100.211 E4.58295
;WIDTH:0.729106
G1 X85.029 Y100.269 E4.58845
G1 X84.973 Y100.269 E4.59374
G1 X84.892 Y100.323 F7800
G1 X84.913 Y100.731
;WIDTH:0.681218
G1 F1800
G1 X84.971 Y100.731 E4.59884
;WIDTH:0.729106
G1 X85.029 Y100.731 E4.60434
G1 X85.029 Y100.789 E4.60984
;WIDTH:0.681218
G1 X85.029 Y100.847 E4.61494
;WIDTH:0.633331
G1 X85.029 Y100.905 E4.61964
;WIDTH:0.585443
G1 X85.029 Y100.962 E4.62393
;WIDTH:0.537556
G1 X85.029 Y110.198 E5.24538
;WIDTH:0.585443
G1 X85.029 Y110.255 E5.24967
;WIDTH:0.633331
G1 X85.029 Y110.313 E5.25436
;WIDTH:0.681218
G1 X85.029 Y110.371 E5.25946
;WIDTH:0.729106
G1 X85.029 Y110.429 E5.26496
G1 X84.971 Y110.429 E5.27046
;WIDTH:0.681218
G1 X84.913 Y110.429 E5.27556
;WIDTH:0.633331
G1 X84.855 Y110.429 E5.28026
;WIDTH:0.585443
G1 X84.798 Y110.429 E5.28455
;WIDTH:0.537556
G1 X77.482 Y110.429 E5.7768
;WIDTH:0.578167
G1 X77.414 Y110.408 E5.78204
;WIDTH:0.618778
G1 X77.345 Y110.388 E5.78771
;WIDTH:0.659389
G1 X77.277 Y110.367 E5.7938
;WIDTH:0.7
G1 X77.208 Y110.347 E5.80032
G1 X77.17 Y110.198 E5.8143
G1 X77.17 Y100.962 E6.65405
G1 X77.208 Y100.813 E6.66804
G1 X77.277 Y100.793 E6.67455
;WIDTH:0.659389
G1 X77.345 Y100.772 E6.68064
;WIDTH:0.618778
G1 X77.414 Y100.752 E6.68631
;WIDTH:0.578167
G1 X77.482 Y100.731 E6.69156
;WIDTH:0.537556
G1 X84.798 Y100.731 E7.1838
;WIDTH:0.585443
G1 X84.853 Y100.731 E7.18793
G1 E5.18793 F2400
G92 E0
G1 X95.189 Y110.429 F7800
G1 E2 F2400
;WIDTH:0.729106
G1 F1800
G1 X95.131 Y110.429 E2.0055
;WIDTH:0.681218
G1 X95.073 Y110.429 E2.0106
;WIDTH:0.633331
G1 X95.015 Y110.429 E2.01529
;WIDTH:0.585443
G1 X94.958 Y110.429 E2.01959
;WIDTH:0.537556
G1 X85.722 Y110.429 E2.64103
;WIDTH:0.585443
G1 X85.665 Y110.429 E2.64533
;WIDTH:0.633331
G1 X85.607 Y110.429 E2.65002
;WIDTH:0.681218
G1 X85.549 Y110.429 E2.65512
;WIDTH:0.729106
G1 X85.491 Y110.429 E2.66062
G1 X85.491 Y110.371 E2.66612
;WIDTH:0.681218
G1 X85.491 Y110.313 E2.67122
;WIDTH:0.633331
G1 X85.491 Y110.255 E2.67592
;WIDTH:0.585443
G1 X85.491 Y110.198 E2.68021
;WIDTH:0.537556
G1 X85.491 Y100.962 E3.30166
;WIDTH:0.585443
G1 X85.491 Y100.905 E3.30595
;WIDTH:0.633331
G1 X85.491 Y100.847 E3.31064
;WIDTH:0.681218
G1 X85.491 Y100.789 E3.31574
;WIDTH:0.729106
G1 X85.491 Y100.731 E3.32124
G1 X85.549 Y100.731 E3.32675
;WIDTH:0.681218
G1 X85.607 Y100.731 E3.33184
;WIDTH:0.633331
G1 X85.665 Y100.731 E3.33654
;WIDTH:0.585443
G1 X85.722 Y100.731 E3.34083
;WIDTH:0.537556
G1 X94.958 Y100.731 E3.96228
;WIDTH:0.585443
G1 X95.015 Y100.731 E3.96657
;WIDTH:0.633331
G1 X95.073 Y100.731 E3.97127
;WIDTH:0.681218
G1 X95.131 Y100.731 E3.97637
;WIDTH:0.729106
G1 X95.189 Y100.731 E3.98187
G1 X95.189 Y100.789 E3.98737
;WIDTH:0.681218
G1 X95.189 Y100.847 E3.99247
;WIDTH:0.633331
G1 X95.189 Y100.905 E3.99716
;WIDTH:0.585443
G1 X95.189 Y100.962 E4.00145
;WIDTH:0.537556
G1 X95.189 Y110.198 E4.6229
;WIDTH:0.585443
G1 X95.189 Y110.255 E4.62719
;WIDTH:0.633331
G1 X95.189 Y110.313 E4.63189
;WIDTH:0.681218
G1 X95.189 Y110.369 E4.63679
G1 E2.63679 F2400
G92 E0
G1 X95.073 Y120.589 F7800
G1 E2 F2400
;WIDTH:0.633331
G1 F1800
G1 X95.015 Y120.589 E2.0047
;WIDTH:0.585443
G1 X94.958 Y120.589 E2.00899
;WIDTH:0.537556
G1 X85.722 Y120.589 E2.63044
;WIDTH:0.585443
G1 X85.665 Y120.589 E2.63473
;WIDTH:0.633331
G1 X85.607 Y120.589 E2.63942
;WIDTH:0.681218
G1 X85.549 Y120.589 E2.64452
;WIDTH:0.729106
G1 X85.491 Y120.589 E2.65002
G1 X85.491 Y120.531 E2.65552
;WIDTH:0.681218
G1 X85.491 Y120.473 E2.66062
;WIDTH:0.633331
G1 X85.491 Y120.415 E2.66532
;WIDTH:0.585443
G1 X85.491 Y120.358 E2.66961
;WIDTH:0.537556
G1 X85.491 Y111.122 E3.29106
;WIDTH:0.585443
G1 X85.491 Y111.065 E3.29535
;WIDTH:0.633331
G1 X85.491 Y111.007 E3.30005
;WIDTH:0.681218
G1 X85.491 Y110.949 E3.30514
;WIDTH:0.729106
G1 X85.491 Y110.891 E3.31064
G1 X85.549 Y110.891 E3.31615
;WIDTH:0.681218
G1 X85.607 Y110.891 E3.32124
;WIDTH:0.633331
G1 X85.665 Y110.891 E3.32594
;WIDTH:0.585443
G1 X85.722 Y110.891 E3.33023
;WIDTH:0.537556
G1 X94.958 Y110.891 E3.95168
;WIDTH:0.585443
G1 X95.015 Y110.891 E3.95597
;WIDTH:0.633331
G1 X95.073 Y110.891 E3.96067
;WIDTH:0.681218
G1 X95.131 Y110.891 E3.96577
;WIDTH:0.729106
G1 X95.189 Y110.891 E3.97127
G1 X95.189 Y110.949 E3.97677
;WIDTH:0.681218
G1 X95.189 Y111.007 E3.98187
;WIDTH:0.633331
G1 X95.189 Y111.065 E3.98656
;WIDTH:0.585443
G1 X95.189 Y111.122 E3.99085
;WIDTH:0.537556
G1 X95.189 Y120.358 E4.6123
;WIDTH:0.585443
G1 X95.189 Y120.415 E4.61659
;WIDTH:0.633331
G1 X95.189 Y120.473 E4.62129
;WIDTH:0.681218
G1 X95.189 Y120.531 E4.62639
;WIDTH:0.729106
G1 X95.189 Y120.589 E4.63189
G1 X95.133 Y120.589 E4.63718
G1 X95.052 Y120.643 F7800
G1 E2.63718 F2400
G92 E0
G1 X84.913 Y120.589 F7800
G1 E2 F2400
;WIDTH:0.633331
G1 F1800
G1 X84.855 Y120.589 E2.0047
;WIDTH:0.585443
G1 X84.798 Y120.589 E2.00899
;WIDTH:0.537556
G1 X77.482 Y120.589 E2.50124
;WIDTH:0.578167
G1 X77.414 Y120.568 E2.50648
;WIDTH:0.618778
G1 X77.345 Y120.548 E2.51215
;WIDTH:0.659389
G1 X77.277 Y120.527 E2.51824
;WIDTH:0.7
G1 X77.208 Y120.507 E2.52476
G1 X77.17 Y120.358 E2.53874
G1 X77.173 Y111.08 E3.38231
G1 X77.208 Y110.973 E3.39255
G1 X77.277 Y110.953 E3.39907
;WIDTH:0.659389
G1 X77.345 Y110.932 E3.40516
;WIDTH:0.618778
G1 X77.414 Y110.912 E3.41083
;WIDTH:0.578167
G1 X77.482 Y110.891 E3.41607
;WIDTH:0.537556
G1 X84.798 Y110.891 E3.90832
;WIDTH:0.585443
G1 X84.855 Y110.891 E3.91261
;WIDTH:0.633331
G1 X84.913 Y110.891 E3.91731
;WIDTH:0.681218
G1 X84.971 Y110.891 E3.9224
;WIDTH:0.729106
G1 X85.029 Y110.891 E3.9279
G1 X85.029 Y110.949 E3.93341
;WIDTH:0.681218
G1 X85.029 Y111.007 E3.9385
;WIDTH:0.633331
G1 X85.029 Y111.065 E3.9432
;WIDTH:0.585443
G1 X85.029 Y111.122 E3.94749
;WIDTH:0.537556
G1 X85.029 Y120.358 E4.56894
;WIDTH:0.585443
G1 X85.029 Y120.415 E4.57323
;WIDTH:0.633331
G1 X85.029 Y120.473 E4.57793
;WIDTH:0.681218
G1 X85.029 Y120.531 E4.58303
;WIDTH:0.729106
G1 X85.029 Y120.589 E4.58853
G1 X84.973 Y120.589 E4.59382
G1 X84.892 Y120.643 F7800
G1 E2.59382 F2400
G92 E0
G1 X105.349 Y120.531 F7800
G1 E2 F2400
G1 F1800
G1 X105.349 Y120.589 E2.0055
G1 X105.291 Y120.589 E2.011
