; generated by PrusaSlicer 2.5.0+linux-x64-GTK3 on 2023-01-12 at 19:39:21 UTC

; 

; external perimeters extrusion width = 0.45mm
; perimeters extrusion width = 0.45mm
; infill extrusion width = 0.45mm
; solid infill extrusion width = 0.45mm
; top infill extrusion width = 0.40mm
; first layer extrusion width = 0.70mm

M107
M104 S200 ; set temperature
;TYPE:Custom
G28 ; home all axes
G1 Z5 F5000 ; lift nozzle
M109 S200 ; set temperature and wait for it to be reached
G21 ; set units to millimeters
G90 ; use absolute coordinates
M82 ; use absolute distances for extrusion
G92 E0
; Filament gcode
M107
;LAYER_CHANGE
;Z:0.35
;HEIGHT:0.35
G1 Z.35 F7800
G1 E-2 F2400
G92 E0
G1 X71.814 Y57.309 F7800
G1 E2 F2400
;TYPE:Skirt/Brim
;WIDTH:0.7
G1 F1800
G1 X72.834 Y56.319 E2.12928
G1 X73.721 Y55.648 E2.23039
G1 X74.703 Y55.054 E2.33474
G1 X75.909 Y54.515 E2.45484
G1 X76.897 Y54.194 E2.54929
G1 X78.397 Y53.894 E2.68843
G1 X79.68 Y53.815 E2.80531
G1 X120.667 Y53.824 E6.53221
G1 X122.492 Y54.047 E6.69945
G1 X124.09 Y54.515 E6.85082
G1 X125.928 Y55.42 E7.03715
G1 X127.557 Y56.662 E7.22336
G1 X128.593 Y57.786 E7.36242
G1 X129.205 Y58.628 E7.45703
G1 X129.863 Y59.771 E7.57694
G1 X130.523 Y61.489 E7.7443
G1 X130.875 Y63.295 E7.91163
G1 X130.945 Y64.44 E8.01594
G1 X130.945 Y135.56 E14.48285
G1 X130.875 Y136.705 E14.58716
G1 X130.632 Y138.106 E14.7165
G1 X130.309 Y139.169 E14.81751
G1 X129.863 Y140.229 E14.9221
G1 X129.205 Y141.372 E15.04202
G1 X128.186 Y142.691 E15.19357
G1 X127.166 Y143.681 E15.32283
G1 X126.279 Y144.352 E15.42391
G1 X125.297 Y144.946 E15.52829
G1 X124.091 Y145.485 E15.64836
G1 X122.493 Y145.953 E15.79981
G1 X121.085 Y146.154 E15.92916
G1 X79.68 Y146.185 E19.69406
G1 X78.191 Y146.079 E19.82982
G1 X76.897 Y145.806 E19.95009
G1 X75.909 Y145.485 E20.0445
G1 X74.704 Y144.946 E20.16457
G1 X73.721 Y144.352 E20.26897
G1 X72.442 Y143.337 E20.41741
G1 X71.407 Y142.214 E20.55635
G1 X70.795 Y141.373 E20.65091
G1 X70.137 Y140.228 E20.771
G1 X69.691 Y139.17 E20.87539
G1 X69.253 Y137.599 E21.0237
G1 X69.076 Y136.08 E21.16277
G1 X69.055 Y64.44 E27.67695
G1 X69.125 Y63.294 E27.78131
G1 X69.368 Y61.894 E27.91058
G1 X69.691 Y60.83 E28.01168
G1 X70.136 Y59.772 E28.11604
G1 X70.795 Y58.627 E28.23614
G1 X71.777 Y57.357 E28.38216
G1 E26.38216 F2400
G92 E0
G1 X81 Y130.832 F7800
G1 E2 F2400
;TYPE:Perimeter
;WIDTH:0.7
G1 F1800
G1 X77.852 Y130.832 E2.28626
G1 X77.28 Y130.96 E2.33959
G1 X77.28 Y69.04 E7.96992
G1 X77.852 Y69.168 E8.02325
G1 X81 Y69.168 E8.30951
G1 X81 Y74.638 E8.80683
G1 X81.055 Y75.153 E8.85397
G1 X81 Y75.562 E8.89152
G1 X81 Y84.798 E9.73126
G1 X81.055 Y85.313 E9.77841
G1 X81 Y85.722 E9.81596
G1 X81 Y94.958 E10.6557
G1 X81.055 Y95.473 E10.70284
G1 X81 Y95.882 E10.74039
G1 X81 Y105.118 E11.58013
G1 X81.055 Y105.633 E11.62728
G1 X81 Y106.042 E11.66483
G1 X81 Y115.278 E12.50457
G1 X81.055 Y115.793 E12.55171
G1 X81 Y116.202 E12.58926
G1 X81 Y125.438 E13.429
G1 X81.055 Y125.953 E13.47615
G1 X81 Y126.362 E13.5137
G1 X81 Y130.772 E13.91462
G1 X81.625 Y131.524 F7800
G1 F1800
G1 X81.508 Y131.457 E13.92693
G1 X77.852 Y131.457 E14.25935
G1 X77.452 Y131.546 E14.29662
G1 X77.04 Y131.925 E14.34752
G1 X76.655 Y132.593 E14.41761
G1 X76.655 Y67.407 E20.34491
G1 X77.04 Y68.075 E20.415
G1 X77.452 Y68.454 E20.4659
G1 X77.852 Y68.543 E20.50317
G1 X81.508 Y68.543 E20.83559
G1 X81.625 Y68.476 E20.84789
G1 X81.625 Y74.638 E21.40818
G1 X81.634 Y74.764 E21.41967
G1 X81.739 Y75.085 E21.4504
G1 X81.658 Y75.317 E21.47275
G1 X81.625 Y75.562 E21.49527
G1 X81.625 Y84.798 E22.33502
G1 X81.634 Y84.924 E22.34651
G1 X81.739 Y85.245 E22.37724
G1 X81.658 Y85.477 E22.39958
G1 X81.625 Y85.722 E22.42211
G1 X81.625 Y94.958 E23.26185
G1 X81.634 Y95.084 E23.27334
G1 X81.739 Y95.405 E23.30407
G1 X81.658 Y95.637 E23.32642
G1 X81.625 Y95.882 E23.34894
G1 X81.625 Y105.118 E24.18869
G1 X81.634 Y105.244 E24.20018
G1 X81.739 Y105.565 E24.23091
G1 X81.658 Y105.797 E24.25325
G1 X81.625 Y106.042 E24.27578
G1 X81.625 Y115.278 E25.11552
G1 X81.634 Y115.404 E25.12701
G1 X81.739 Y115.725 E25.15774
G1 X81.658 Y115.957 E25.18009
G1 X81.625 Y116.202 E25.20261
G1 X81.625 Y125.438 E26.04236
G1 X81.634 Y125.564 E26.05385
G1 X81.739 Y125.885 E26.08458
G1 X81.658 Y126.117 E26.10692
G1 X81.625 Y126.362 E26.12945
G1 X81.625 Y131.464 E26.59335
G1 E24.59335 F2400
G92 E0
G1 X75.885 Y64.36 F7800
G1 E2 F2400
;TYPE:External perimeter
;WIDTH:0.433287
G1 F1800
G1 X75.946 Y63.84 E2.02728
G1 X76.088 Y63.259 E2.05847
;WIDTH:0.470185
G1 X76.334 Y62.718 E2.09263
G1 X76.642 Y62.214 E2.12657
;WIDTH:0.462849
G1 X77.024 Y61.768 E2.1597
G1 X77.753 Y61.162 E2.2132
;WIDTH:0.459548
G1 X77.531 Y61.449 E2.23351
;WIDTH:0.462849
G1 X76.957 Y62.437 E2.29795
;WIDTH:0.470185
G1 X76.408 Y63.417 E2.36252
;WIDTH:0.433287
G1 X75.913 Y64.307 E2.4156
G1 E.4156 F2400
G92 E0
G1 X90.109 Y84.913 F7800
G1 E2 F2400
;WIDTH:0.681218
G1 F1800
G1 X90.109 Y84.971 E2.0051
;WIDTH:0.729106
G1 X90.109 Y85.029 E2.0106
G1 X90.051 Y85.029 E2.0161
;WIDTH:0.681218
G1 X89.993 Y85.029 E2.0212
;WIDTH:0.633331
G1 X89.935 Y85.029 E2.02589
;WIDTH:0.585443
G1 X89.878 Y85.029 E2.03019
;WIDTH:0.537556
G1 X82.562 Y85.029 E2.52243
;WIDTH:0.578167
G1 X82.494 Y85.008 E2.52768
;WIDTH:0.618778
G1 X82.425 Y84.988 E2.53335
;WIDTH:0.659389
G1 X82.357 Y84.967 E2.53944
;WIDTH:0.7
G1 X82.288 Y84.947 E2.54595
G1 X82.25 Y84.798 E2.55994
G1 X82.25 Y75.562 E3.39968
G1 X82.288 Y75.413 E3.41367
G1 X82.357 Y75.393 E3.42019
;WIDTH:0.659389
G1 X82.425 Y75.372 E3.42628
;WIDTH:0.618778
G1 X82.494 Y75.352 E3.43195
;WIDTH:0.578167
G1 X82.562 Y75.331 E3.43719
;WIDTH:0.537556
G1 X89.878 Y75.331 E3.92944
;WIDTH:0.585443
G1 X89.935 Y75.331 E3.93373
;WIDTH:0.633331
G1 X89.993 Y75.331 E3.93843
;WIDTH:0.681218
G1 X90.051 Y75.331 E3.94353
;WIDTH:0.729106
G1 X90.109 Y75.331 E3.94903
G1 X90.109 Y75.389 E3.95453
;WIDTH:0.681218
G1 X90.109 Y75.447 E3.95963
;WIDTH:0.633331
G1 X90.109 Y75.505 E3.96432
;WIDTH:0.585443
G1 X90.109 Y75.562 E3.96861
;WIDTH:0.537556
G1 X90.109 Y84.798 E4.59006
;WIDTH:0.585443
G1 X90.109 Y84.853 E4.59419
G1 E2.59419 F2400
G92 E0
G1 X100.153 Y75.331 F7800
G1 E2 F2400
;WIDTH:0.681218
G1 F1800
G1 X100.211 Y75.331 E2.0051
;WIDTH:0.729106
G1 X100.269 Y75.331 E2.0106
G1 X100.269 Y75.389 E2.0161
;WIDTH:0.681218
G1 X100.269 Y75.447 E2.0212
;WIDTH:0.633331
G1 X100.269 Y75.505 E2.02589
;WIDTH:0.585443
G1 X100.269 Y75.562 E2.03019
;WIDTH:0.537556
G1 X100.269 Y84.798 E2.65163
;WIDTH:0.585443
G1 X100.269 Y84.855 E2.65593
;WIDTH:0.633331
G1 X100.269 Y84.913 E2.66062
;WIDTH:0.681218
G1 X100.269 Y84.971 E2.66572
;WIDTH:0.729106
G1 X100.269 Y85.029 E2.67122
G1 X100.211 Y85.029 E2.67672
;WIDTH:0.681218
G1 X100.153 Y85.029 E2.68182
;WIDTH:0.633331
G1 X100.095 Y85.029 E2.68652
;WIDTH:0.585443
G1 X100.038 Y85.029 E2.69081
;WIDTH:0.537556
G1 X90.802 Y85.029 E3.31226
;WIDTH:0.585443
G1 X90.745 Y85.029 E3.31655
;WIDTH:0.633331
G1 X90.687 Y85.029 E3.32124
;WIDTH:0.681218
G1 X90.629 Y85.029 E3.32634
;WIDTH:0.729106
G1 X90.571 Y85.029 E3.33184
G1 X90.571 Y84.971 E3.33734
;WIDTH:0.681218
G1 X90.571 Y84.913 E3.34244
;WIDTH:0.633331
G1 X90.571 Y84.855 E3.34714
;WIDTH:0.585443
G1 X90.571 Y84.798 E3.35143
;WIDTH:0.537556
G1 X90.571 Y75.562 E3.97288
;WIDTH:0.585443
G1 X90.571 Y75.505 E3.97717
;WIDTH:0.633331
G1 X90.571 Y75.447 E3.98187
;WIDTH:0.681218
G1 X90.571 Y75.389 E3.98696
;WIDTH:0.729106
G1 X90.571 Y75.331 E3.99247
G1 X90.629 Y75.331 E3.99797
;WIDTH:0.681218
G1 X90.687 Y75.331 E4.00307
;WIDTH:0.633331
G1 X90.745 Y75.331 E4.00776
;WIDTH:0.585443
G1 X90.802 Y75.331 E4.01205
;WIDTH:0.537556
G1 X100.038 Y75.331 E4.6335
;WIDTH:0.585443
G1 X100.093 Y75.331 E4.63763
G1 E2.63763 F2400
G92 E0
G1 X110.313 Y75.331 F7800
G1 E2 F2400
;WIDTH:0.681218
G1 F1800
G1 X110.371 Y75.331 E2.0051
;WIDTH:0.729106
G1 X110.429 Y75.331 E2.0106
G1 X110.429 Y75.389 E2.0161
;WIDTH:0.681218
G1 X110.429 Y75.447 E2.0212
;WIDTH:0.633331
G1 X110.429 Y75.505 E2.02589
;WIDTH:0.585443
G1 X110.429 Y75.562 E2.03019
;WIDTH:0.537556
G1 X110.429 Y84.798 E2.65163
;WIDTH:0.585443
G1 X110.429 Y84.855 E2.65593
;WIDTH:0.633331
G1 X110.429 Y84.913 E2.66062
;WIDTH:0.681218
G1 X110.429 Y84.971 E2.66572
;WIDTH:0.729106
G1 X110.429 Y85.029 E2.67122
G1 X110.371 Y85.029 E2.67672
;WIDTH:0.681218
G1 X110.313 Y85.029 E2.68182
;WIDTH:0.633331
G1 X110.255 Y85.029 E2.68652
;WIDTH:0.585443
G1 X110.198 Y85.029 E2.69081
;WIDTH:0.537556
G1 X100.962 Y85.029 E3.31226
;WIDTH:0.585443
G1 X100.905 Y85.029 E3.31655
;WIDTH:0.633331
G1 X100.847 Y85.029 E3.32124
;WIDTH:0.681218
G1 X100.789 Y85.029 E3.32634
;WIDTH:0.729106
G1 X100.731 Y85.029 E3.33184
G1 X100.731 Y84.971 E3.33734
;WIDTH:0.681218
G1 X100.731 Y84.913 E3.34244
;WIDTH:0.633331
G1 X100.731 Y84.855 E3.34714
;WIDTH:0.585443
G1 X100.731 Y84.798 E3.35143
;WIDTH:0.537556
G1 X100.731 Y75.562 E3.97288
;WIDTH:0.585443
G1 X100.731 Y75.505 E3.97717
;WIDTH:0.633331
G1 X100.731 Y75.447 E3.98187
;WIDTH:0.681218
G1 X100.731 Y75.389 E3.98696
;WIDTH:0.729106
G1 X100.731 Y75.331 E3.99247
G1 X100.789 Y75.331 E3.99797
;WIDTH:0.681218
G1 X100.847 Y75.331 E4.00307
;WIDTH:0.633331
G1 X100.905 Y75.331 E4.00776
;WIDTH:0.585443
G1 X100.962 Y75.331 E4.01205
;WIDTH:0.537556
G1 X110.198 Y75.331 E4.6335
;WIDTH:0.585443
G1 X110.253 Y75.331 E4.63763
G1 E2.63763 F2400
G92 E0
G1 X110.313 Y85.491 F7800
G1 E2 F2400
;WIDTH:0.681218
G1 F1800
G1 X110.371 Y85.491 E2.0051
;WIDTH:0.729106
G1 X110.429 Y85.491 E2.0106
G1 X110.429 Y85.549 E2.0161
;WIDTH:0.681218
G1 X110.429 Y85.607 E2.0212
;WIDTH:0.633331
G1 X110.429 Y85.665 E2.02589
;WIDTH:0.585443
G1 X110.429 Y85.722 E2.03019
;WIDTH:0.537556
G1 X110.429 Y94.958 E2.65163
;WIDTH:0.585443
G1 X110.429 Y95.015 E2.65593
;WIDTH:0.633331
G1 X110.429 Y95.073 E2.66062
;WIDTH:0.681218
G1 X110.429 Y95.131 E2.66572
;WIDTH:0.729106
G1 X110.429 Y95.189 E2.67122
G1 X110.371 Y95.189 E2.67672
;WIDTH:0.681218
G1 X110.313 Y95.189 E2.68182
;WIDTH:0.633331
G1 X110.255 Y95.189 E2.68652
;WIDTH:0.585443
G1 X110.198 Y95.189 E2.69081
;WIDTH:0.537556
G1 X100.962 Y95.189 E3.31226
;WIDTH:0.585443
G1 X100.905 Y95.189 E3.31655
;WIDTH:0.633331
G1 X100.847 Y95.189 E3.32124
;WIDTH:0.681218
G1 X100.789 Y95.189 E3.32634
;WIDTH:0.729106
G1 X100.731 Y95.189 E3.33184
G1 X100.731 Y95.131 E3.33734
;WIDTH:0.681218
G1 X100.731 Y95.073 E3.34244
;WIDTH:0.633331
G1 X100.731 Y95.015 E3.34714
;WIDTH:0.585443
G1 X100.731 Y94.958 E3.35143
;WIDTH:0.537556
G1 X100.731 Y85.722 E3.97288
;WIDTH:0.585443
G1 X100.731 Y85.665 E3.97717
;WIDTH:0.633331
G1 X100.731 Y85.607 E3.98187
;WIDTH:0.681218
G1 X100.731 Y85.549 E3.98697
;WIDTH:0.729106
G1 X100.731 Y85.491 E3.99247
G1 X100.789 Y85.491 E3.99797
;WIDTH:0.681218
G1 X100.847 Y85.491 E4.00307
;WIDTH:0.633331
G1 X100.905 Y85.491 E4.00776
;WIDTH:0.585443
G1 X100.962 Y85.491 E4.01205
;WIDTH:0.537556
G1 X110.198 Y85.491 E4.6335
;WIDTH:0.585443
G1 X110.253 Y85.491 E4.63763
G1 E2.63763 F2400
G92 E0
G1 X100.269 Y95.073 F7800
G1 E2 F2400
;WIDTH:0.681218
G1 F1800
G1 X100.269 Y95.131 E2.0051
;WIDTH:0.729106
G1 X100.269 Y95.189 E2.0106
G1 X100.211 Y95.189 E2.0161
;WIDTH:0.681218
G1 X100.153 Y95.189 E2.0212
;WIDTH:0.633331
G1 X100.095 Y95.189 E2.02589
;WIDTH:0.585443
G1 X100.038 Y95.189 E2.03019
;WIDTH:0.537556
G1 X90.802 Y95.189 E2.65163
;WIDTH:0.585443
G1 X90.745 Y95.189 E2.65593
;WIDTH:0.633331
G1 X90.687 Y95.189 E2.66062
;WIDTH:0.681218
G1 X90.629 Y95.189 E2.66572
;WIDTH:0.729106
G1 X90.571 Y95.189 E2.67122
G1 X90.571 Y95.131 E2.67672
;WIDTH:0.681218
G1 X90.571 Y95.073 E2.68182
;WIDTH:0.633331
G1 X90.571 Y95.015 E2.68652
;WIDTH:0.585443
G1 X90.571 Y94.958 E2.69081
;WIDTH:0.537556
G1 X90.571 Y85.722 E3.31226
;WIDTH:0.585443
G1 X90.571 Y85.665 E3.31655
;WIDTH:0.633331
G1 X90.571 Y85.607 E3.32124
;WIDTH:0.681218
G1 X90.571 Y85.549 E3.32634
;WIDTH:0.729106
G1 X90.571 Y85.491 E3.33184
G1 X90.629 Y85.491 E3.33734
;WIDTH:0.681218
G1 X90.687 Y85.491 E3.34244
;WIDTH:0.633331
G1 X90.745 Y85.491 E3.34714
;WIDTH:0.585443
G1 X90.802 Y85.491 E3.35143
;WIDTH:0.537556
G1 X100.038 Y85.491 E3.97288
;WIDTH:0.585443
G1 X100.095 Y85.491 E3.97717
;WIDTH:0.633331
G1 X100.153 Y85.491 E3.98187
;WIDTH:0.681218
G1 X100.211 Y85.491 E3.98696
;WIDTH:0.729106
G1 X100.269 Y85.491 E3.99247
G1 X100.269 Y85.549 E3.99797
;WIDTH:0.681218
G1 X100.269 Y85.607 E4.00307
;WIDTH:0.633331
G1 X100.269 Y85.665 E4.00776
;WIDTH:0.585443
G1 X100.269 Y85.722 E4.01205
;WIDTH:0.537556
G1 X100.269 Y94.958 E4.6335
;WIDTH:0.585443
G1 X100.269 Y95.013 E4.63763
G1 E2.63763 F2400
G92 E0
G1 X90.051 Y95.189 F7800
G1 E2 F2400
;WIDTH:0.681218
G1 F1800
G1 X89.993 Y95.189 E2.0051
;WIDTH:0.633331
G1 X89.935 Y95.189 E2.00979
;WIDTH:0.585443
G1 X89.878 Y95.189 E2.01409
;WIDTH:0.537556
G1 X82.562 Y95.189 E2.50633
;WIDTH:0.578167
G1 X82.494 Y95.168 E2.51158
;WIDTH:0.618778
G1 X82.425 Y95.148 E2.51725
;WIDTH:0.659389
G1 X82.357 Y95.127 E2.52334
;WIDTH:0.7
G1 X82.288 Y95.107 E2.52985
G1 X82.25 Y94.958 E2.54384
G1 X82.25 Y85.722 E3.38358
G1 X82.288 Y85.573 E3.39757
G1 X82.357 Y85.553 E3.40409
;WIDTH:0.659389
G1 X82.425 Y85.532 E3.41018
;WIDTH:0.618778
G1 X82.494 Y85.512 E3.41585
;WIDTH:0.578167
G1 X82.562 Y85.491 E3.42109
;WIDTH:0.537556
G1 X89.878 Y85.491 E3.91334
;WIDTH:0.585443
G1 X89.935 Y85.491 E3.91763
;WIDTH:0.633331
G1 X89.993 Y85.491 E3.92233
;WIDTH:0.681218
G1 X90.051 Y85.491 E3.92743
;WIDTH:0.729106
G1 X90.109 Y85.491 E3.93293
G1 X90.109 Y85.549 E3.93843
;WIDTH:0.681218
G1 X90.109 Y85.607 E3.94353
;WIDTH:0.633331
G1 X90.109 Y85.665 E3.94822
;WIDTH:0.585443
G1 X90.109 Y85.722 E3.95251
;WIDTH:0.537556
G1 X90.109 Y94.958 E4.57396
;WIDTH:0.585443
G1 X90.109 Y95.015 E4.57825
;WIDTH:0.633331
G1 X90.109 Y95.073 E4.58295
;WIDTH:0.681218
G1 X90.109 Y95.131 E4.58805
;WIDTH:0.729106
G1 X90.109 Y95.187 E4.59334
G1 X90.109 Y95.651 F7800
G1 F1800
G1 X90.109 Y95.709 E4.59884
;WIDTH:0.681218
G1 X90.109 Y95.767 E4.60394
;WIDTH:0.633331
G1 X90.109 Y95.825 E4.60863
;WIDTH:0.585443
G1 X90.109 Y95.882 E4.61293
;WIDTH:0.537556
G1 X90.109 Y105.118 E5.23437
;WIDTH:0.585443
G1 X90.109 Y105.175 E5.23867
;WIDTH:0.633331
G1 X90.109 Y105.233 E5.24336
;WIDTH:0.681218
G1 X90.109 Y105.291 E5.24846
;WIDTH:0.729106
G1 X90.109 Y105.349 E5.25396
G1 X90.051 Y105.349 E5.25946
;WIDTH:0.681218
G1 X89.993 Y105.349 E5.26456
;WIDTH:0.633331
G1 X89.935 Y105.349 E5.26926
;WIDTH:0.585443
G1 X89.878 Y105.349 E5.27355
;WIDTH:0.537556
G1 X82.562 Y105.349 E5.7658
;WIDTH:0.578167
G1 X82.494 Y105.328 E5.77104
;WIDTH:0.618778
G1 X82.425 Y105.308 E5.77671
;WIDTH:0.659389
G1 X82.357 Y105.287 E5.7828
;WIDTH:0.7
G1 X82.288 Y105.267 E5.78932
G1 X82.25 Y105.118 E5.8033
G1 X82.25 Y95.882 E6.64305
G1 X82.288 Y95.733 E6.65703
G1 X82.357 Y95.713 E6.66355
;WIDTH:0.659389
G1 X82.425 Y95.692 E6.66964
;WIDTH:0.618778
G1 X82.494 Y95.672 E6.67531
;WIDTH:0.578167
G1 X82.562 Y95.651 E6.68055
;WIDTH:0.537556
G1 X89.878 Y95.651 E7.1728
;WIDTH:0.585443
G1 X89.935 Y95.651 E7.17709
;WIDTH:0.633331
G1 X89.993 Y95.651 E7.18179
;WIDTH:0.681218
G1 X90.049 Y95.651 E7.18669
G1 X90.571 Y95.651 F7800
;WIDTH:0.729106
G1 F1800
G1 X90.629 Y95.651 E7.19219
;WIDTH:0.681218
G1 X90.687 Y95.651 E7.19729
;WIDTH:0.633331
G1 X90.745 Y95.651 E7.20199
;WIDTH:0.585443
G1 X90.802 Y95.651 E7.20628
;WIDTH:0.537556
G1 X100.038 Y95.651 E7.82773
;WIDTH:0.585443
G1 X100.095 Y95.651 E7.83202
;WIDTH:0.633331
G1 X100.153 Y95.651 E7.83672
;WIDTH:0.681218
G1 X100.211 Y95.651 E7.84181
;WIDTH:0.729106
G1 X100.269 Y95.651 E7.84732
G1 X100.269 Y95.709 E7.85282
;WIDTH:0.681218
G1 X100.269 Y95.767 E7.85792
;WIDTH:0.633331
G1 X100.269 Y95.825 E7.86261
;WIDTH:0.585443
G1 X100.269 Y95.882 E7.8669
;WIDTH:0.537556
G1 X100.269 Y105.118 E8.48835
;WIDTH:0.585443
G1 X100.269 Y105.175 E8.49264
;WIDTH:0.633331
G1 X100.269 Y105.233 E8.49734
;WIDTH:0.681218
G1 X100.269 Y105.291 E8.50244
;WIDTH:0.729106
G1 X100.269 Y105.349 E8.50794
G1 X100.211 Y105.349 E8.51344
;WIDTH:0.681218
G1 X100.153 Y105.349 E8.51854
;WIDTH:0.633331
G1 X100.095 Y105.349 E8.52323
;WIDTH:0.585443
G1 X100.038 Y105.349 E8.52753
;WIDTH:0.537556
G1 X90.802 Y105.349 E9.14897
;WIDTH:0.585443
G1 X90.745 Y105.349 E9.15327
;WIDTH:0.633331
G1 X90.687 Y105.349 E9.15796
;WIDTH:0.681218
G1 X90.629 Y105.349 E9.16306
;WIDTH:0.729106
G1 X90.571 Y105.349 E9.16856
G1 X90.571 Y105.291 E9.17406
;WIDTH:0.681218
