; generated by PrusaSlicer 2.5.0+linux-x64-GTK3 on 2023-01-12 at 19:39:22 UTC

; 

; external perimeters extrusion width = 0.45mm
; perimeters extrusion width = 0.45mm
; infill extrusion width = 0.45mm
; solid infill extrusion width = 0.45mm
; top infill extrusion width = 0.40mm
; first layer extrusion width = 0.70mm

M107
M104 S200 ; set temperature
;TYPE:Custom
G28 ; home all axes
G1 Z5 F5000 ; lift nozzle
M109 S200 ; set temperature and wait for it to be reached
G21 ; set units to millimeters
G90 ; use absolute coordinates
M82 ; use absolute distances for extrusion
G92 E0
; Filament gcode
M107
;LAYER_CHANGE
;Z:0.35
;HEIGHT:0.35
G1 Z.35 F7800
G1 E-2 F2400
G92 E0
G1 X34.486 Y19.321 F7800
G1 E2 F2400
;TYPE:Skirt/Brim
;WIDTH:0.7
G1 F1800
G1 X35.235 Y17.987 E2.1391
G1 X35.846 Y17.146 E2.2336
G1 X36.883 Y16.022 E2.3727
G1 X37.6 Y15.415 E2.45805
G1 X38.959 Y14.514 E2.60635
G1 X40.349 Y13.875 E2.74544
G1 X41.337 Y13.554 E2.83989
G1 X42.629 Y13.281 E2.96005
G1 X43.773 Y13.184 E3.06443
G1 X156.227 Y13.184 E13.28978
G1 X158.053 Y13.408 E13.45709
G1 X160.231 Y14.115 E13.6653
G1 X161.84 Y15.009 E13.83267
G1 X163.283 Y16.18 E14.00161
G1 X164.152 Y17.144 E14.11967
G1 X164.764 Y17.987 E14.21442
G1 X165.515 Y19.325 E14.35391
G1 X166.19 Y21.244 E14.53891
G1 X166.346 Y21.972 E14.60659
G1 X166.485 Y23.283 E14.72645
G1 X166.505 Y176.2 E28.63114
G1 X166.346 Y178.028 E28.79797
G1 X166.08 Y179.162 E28.90387
G1 X165.515 Y180.675 E29.05076
G1 X164.764 Y182.014 E29.19035
G1 X164.151 Y182.857 E29.28517
G1 X163.146 Y183.951 E29.42025
G1 X161.84 Y184.992 E29.57209
G1 X160.86 Y185.585 E29.67623
G1 X159.649 Y186.126 E29.79682
G1 X158.668 Y186.445 E29.8906
G1 X157.359 Y186.721 E30.0123
G1 X155.88 Y186.825 E30.14708
G1 X44.12 Y186.825 E40.30936
G1 X42.64 Y186.721 E40.44426
G1 X41.333 Y186.445 E40.56577
G1 X39.771 Y185.885 E40.71663
G1 X38.161 Y184.992 E40.884
G1 X37.279 Y184.325 E40.98457
G1 X36.255 Y183.332 E41.11429
G1 X35.236 Y182.014 E41.2658
G1 X34.576 Y180.868 E41.38602
G1 X34.131 Y179.81 E41.49042
G1 X33.809 Y178.748 E41.59129
G1 X33.565 Y177.346 E41.72074
G1 X33.495 Y176.2 E41.8251
G1 X33.495 Y23.8 E55.68277
G1 X33.655 Y21.967 E55.85007
G1 X33.917 Y20.849 E55.95444
G1 X34.465 Y19.377 E56.09729
G1 E54.09729 F2400
G92 E0
G1 X106.4 Y90.192 F7800
G1 E2 F2400
;TYPE:Perimeter
;WIDTH:0.7
G1 F1800
G1 X103.252 Y90.192 E2.28626
G1 X102.68 Y90.32 E2.33959
G1 X102.68 Y28.4 E7.96992
G1 X103.252 Y28.528 E8.02325
G1 X106.4 Y28.528 E8.30951
G1 X106.4 Y33.998 E8.80683
G1 X106.455 Y34.513 E8.85397
G1 X106.4 Y34.922 E8.89152
G1 X106.4 Y44.158 E9.73126
G1 X106.455 Y44.673 E9.77841
G1 X106.4 Y45.082 E9.81596
G1 X106.4 Y54.318 E10.6557
G1 X106.455 Y54.833 E10.70284
G1 X106.4 Y55.242 E10.74039
G1 X106.4 Y64.478 E11.58013
G1 X106.455 Y64.993 E11.62728
G1 X106.4 Y65.402 E11.66483
G1 X106.4 Y74.638 E12.50457
G1 X106.455 Y75.153 E12.55171
G1 X106.4 Y75.562 E12.58926
G1 X106.4 Y84.798 E13.429
G1 X106.455 Y85.313 E13.47615
G1 X106.4 Y85.722 E13.5137
G1 X106.4 Y90.132 E13.91462
G1 X107.025 Y90.884 F7800
G1 F1800
G1 X106.908 Y90.817 E13.92693
G1 X103.252 Y90.817 E14.25936
G1 X102.852 Y90.906 E14.29662
G1 X102.44 Y91.285 E14.34752
G1 X102.055 Y91.953 E14.41761
G1 X102.055 Y26.767 E20.34491
G1 X102.44 Y27.435 E20.415
G1 X102.852 Y27.814 E20.4659
G1 X103.252 Y27.903 E20.50316
G1 X106.908 Y27.903 E20.83558
G1 X107.025 Y27.836 E20.84789
G1 X107.025 Y33.998 E21.40818
G1 X107.034 Y34.124 E21.41967
G1 X107.139 Y34.445 E21.4504
G1 X107.058 Y34.677 E21.47275
G1 X107.025 Y34.922 E21.49528
G1 X107.025 Y44.158 E22.33502
G1 X107.034 Y44.284 E22.34651
G1 X107.139 Y44.605 E22.37724
G1 X107.058 Y44.837 E22.39958
G1 X107.025 Y45.082 E22.42211
G1 X107.025 Y54.318 E23.26185
G1 X107.034 Y54.444 E23.27334
G1 X107.139 Y54.765 E23.30407
G1 X107.058 Y54.997 E23.32642
G1 X107.025 Y55.242 E23.34895
G1 X107.025 Y64.478 E24.18869
G1 X107.034 Y64.604 E24.20018
G1 X107.139 Y64.925 E24.23091
G1 X107.058 Y65.157 E24.25325
G1 X107.025 Y65.402 E24.27578
G1 X107.025 Y74.638 E25.11552
G1 X107.034 Y74.764 E25.12701
G1 X107.139 Y75.085 E25.15774
G1 X107.058 Y75.317 E25.18009
G1 X107.025 Y75.562 E25.20261
G1 X107.025 Y84.798 E26.04236
G1 X107.034 Y84.924 E26.05385
G1 X107.139 Y85.245 E26.08458
G1 X107.058 Y85.477 E26.10692
G1 X107.025 Y85.722 E26.12945
G1 X107.025 Y90.824 E26.59335
G1 E24.59335 F2400
G92 E0
G1 X101.285 Y23.72 F7800
G1 E2 F2400
;TYPE:External perimeter
;WIDTH:0.433301
G1 F1800
G1 X101.346 Y23.201 E2.02723
G1 X101.488 Y22.618 E2.05849
;WIDTH:0.47017
G1 X101.734 Y22.078 E2.09263
G1 X102.042 Y21.574 E2.12657
;WIDTH:0.462856
G1 X102.425 Y21.128 E2.15975
G1 X103.154 Y20.522 E2.2132
;WIDTH:0.459673
G1 X102.93 Y20.81 E2.23357
;WIDTH:0.462856
G1 X102.357 Y21.797 E2.29795
;WIDTH:0.47017
G1 X101.808 Y22.776 E2.3625
;WIDTH:0.433301
G1 X101.313 Y23.667 E2.41561
G1 E.41561 F2400
G92 E0
G1 X115.509 Y44.389 F7800
G1 E2 F2400
;WIDTH:0.729106
G1 F1800
G1 X115.451 Y44.389 E2.0055
;WIDTH:0.681218
G1 X115.393 Y44.389 E2.0106
;WIDTH:0.633331
G1 X115.335 Y44.389 E2.01529
;WIDTH:0.585443
G1 X115.278 Y44.389 E2.01959
;WIDTH:0.537556
G1 X107.962 Y44.389 E2.51183
;WIDTH:0.578167
G1 X107.894 Y44.368 E2.51708
;WIDTH:0.618778
G1 X107.825 Y44.348 E2.52275
;WIDTH:0.659389
G1 X107.757 Y44.327 E2.52884
;WIDTH:0.7
G1 X107.688 Y44.307 E2.53535
G1 X107.65 Y44.158 E2.54934
G1 X107.65 Y34.922 E3.38909
G1 X107.688 Y34.773 E3.40307
G1 X107.757 Y34.753 E3.40959
;WIDTH:0.659389
G1 X107.825 Y34.732 E3.41568
;WIDTH:0.618778
G1 X107.894 Y34.712 E3.42135
;WIDTH:0.578167
G1 X107.962 Y34.691 E3.42659
;WIDTH:0.537556
G1 X115.278 Y34.691 E3.91884
;WIDTH:0.585443
G1 X115.335 Y34.691 E3.92313
;WIDTH:0.633331
G1 X115.393 Y34.691 E3.92783
;WIDTH:0.681218
G1 X115.451 Y34.691 E3.93293
;WIDTH:0.729106
G1 X115.509 Y34.691 E3.93843
G1 X115.509 Y34.749 E3.94393
;WIDTH:0.681218
G1 X115.509 Y34.807 E3.94903
;WIDTH:0.633331
G1 X115.509 Y34.865 E3.95372
;WIDTH:0.585443
G1 X115.509 Y34.922 E3.95801
;WIDTH:0.537556
G1 X115.509 Y44.158 E4.57946
;WIDTH:0.585443
G1 X115.509 Y44.215 E4.58375
;WIDTH:0.633331
G1 X115.509 Y44.273 E4.58845
;WIDTH:0.681218
G1 X115.509 Y44.329 E4.59335
G1 X115.971 Y44.389 F7800
;WIDTH:0.729106
G1 F1800
G1 X115.971 Y44.331 E4.59886
;WIDTH:0.681218
G1 X115.971 Y44.273 E4.60395
;WIDTH:0.633331
G1 X115.971 Y44.215 E4.60865
;WIDTH:0.585443
G1 X115.971 Y44.158 E4.61294
;WIDTH:0.537556
G1 X115.971 Y34.922 E5.23439
;WIDTH:0.585443
G1 X115.971 Y34.865 E5.23868
;WIDTH:0.633331
G1 X115.971 Y34.807 E5.24338
;WIDTH:0.681218
G1 X115.971 Y34.749 E5.24848
;WIDTH:0.729106
G1 X115.971 Y34.691 E5.25398
G1 X116.029 Y34.691 E5.25948
;WIDTH:0.681218
G1 X116.087 Y34.691 E5.26458
;WIDTH:0.633331
G1 X116.145 Y34.691 E5.26927
;WIDTH:0.585443
G1 X116.202 Y34.691 E5.27356
;WIDTH:0.537556
G1 X125.438 Y34.691 E5.89501
;WIDTH:0.585443
G1 X125.495 Y34.691 E5.8993
;WIDTH:0.633331
G1 X125.553 Y34.691 E5.904
;WIDTH:0.681218
G1 X125.611 Y34.691 E5.9091
;WIDTH:0.729106
G1 X125.669 Y34.691 E5.9146
G1 X125.669 Y34.749 E5.9201
;WIDTH:0.681218
G1 X125.669 Y34.807 E5.9252
;WIDTH:0.633331
G1 X125.669 Y34.865 E5.92989
;WIDTH:0.585443
G1 X125.669 Y34.922 E5.93419
;WIDTH:0.537556
G1 X125.669 Y44.158 E6.55563
;WIDTH:0.585443
G1 X125.669 Y44.215 E6.55993
;WIDTH:0.633331
G1 X125.669 Y44.273 E6.56462
;WIDTH:0.681218
G1 X125.669 Y44.331 E6.56972
;WIDTH:0.729106
G1 X125.669 Y44.389 E6.57522
G1 X125.611 Y44.389 E6.58072
;WIDTH:0.681218
G1 X125.553 Y44.389 E6.58582
;WIDTH:0.633331
G1 X125.495 Y44.389 E6.59052
;WIDTH:0.585443
G1 X125.438 Y44.389 E6.59481
;WIDTH:0.537556
G1 X116.202 Y44.389 E7.21626
;WIDTH:0.585443
G1 X116.145 Y44.389 E7.22055
;WIDTH:0.633331
G1 X116.087 Y44.389 E7.22524
;WIDTH:0.681218
G1 X116.031 Y44.389 E7.23015
G1 E5.23015 F2400
G92 E0
G1 X135.713 Y34.691 F7800
G1 E2 F2400
G1 F1800
G1 X135.771 Y34.691 E2.0051
;WIDTH:0.729106
G1 X135.829 Y34.691 E2.0106
G1 X135.829 Y34.749 E2.0161
;WIDTH:0.681218
G1 X135.829 Y34.807 E2.0212
;WIDTH:0.633331
G1 X135.829 Y34.865 E2.02589
;WIDTH:0.585443
G1 X135.829 Y34.922 E2.03019
;WIDTH:0.537556
G1 X135.829 Y44.158 E2.65163
;WIDTH:0.585443
G1 X135.829 Y44.215 E2.65593
;WIDTH:0.633331
G1 X135.829 Y44.273 E2.66062
;WIDTH:0.681218
G1 X135.829 Y44.331 E2.66572
;WIDTH:0.729106
G1 X135.829 Y44.389 E2.67122
G1 X135.771 Y44.389 E2.67672
;WIDTH:0.681218
G1 X135.713 Y44.389 E2.68182
;WIDTH:0.633331
G1 X135.655 Y44.389 E2.68652
;WIDTH:0.585443
G1 X135.598 Y44.389 E2.69081
;WIDTH:0.537556
G1 X126.362 Y44.389 E3.31226
;WIDTH:0.585443
G1 X126.305 Y44.389 E3.31655
;WIDTH:0.633331
G1 X126.247 Y44.389 E3.32124
;WIDTH:0.681218
G1 X126.189 Y44.389 E3.32634
;WIDTH:0.729106
G1 X126.131 Y44.389 E3.33184
G1 X126.131 Y44.331 E3.33734
;WIDTH:0.681218
G1 X126.131 Y44.273 E3.34244
;WIDTH:0.633331
G1 X126.131 Y44.215 E3.34714
;WIDTH:0.585443
G1 X126.131 Y44.158 E3.35143
;WIDTH:0.537556
G1 X126.131 Y34.922 E3.97288
;WIDTH:0.585443
G1 X126.131 Y34.865 E3.97717
;WIDTH:0.633331
G1 X126.131 Y34.807 E3.98187
;WIDTH:0.681218
G1 X126.131 Y34.749 E3.98696
;WIDTH:0.729106
G1 X126.131 Y34.691 E3.99247
G1 X126.189 Y34.691 E3.99797
;WIDTH:0.681218
G1 X126.247 Y34.691 E4.00307
;WIDTH:0.633331
G1 X126.305 Y34.691 E4.00776
;WIDTH:0.585443
G1 X126.362 Y34.691 E4.01205
;WIDTH:0.537556
G1 X135.598 Y34.691 E4.6335
;WIDTH:0.585443
G1 X135.653 Y34.691 E4.63763
G1 E2.63763 F2400
G92 E0
G1 X145.989 Y34.691 F7800
G1 E2 F2400
;WIDTH:0.729106
G1 F1800
G1 X145.989 Y34.749 E2.0055
;WIDTH:0.681218
G1 X145.989 Y34.807 E2.0106
;WIDTH:0.633331
G1 X145.989 Y34.865 E2.01529
;WIDTH:0.585443
G1 X145.989 Y34.922 E2.01959
;WIDTH:0.537556
G1 X145.989 Y44.158 E2.64103
;WIDTH:0.585443
G1 X145.989 Y44.215 E2.64533
;WIDTH:0.633331
G1 X145.989 Y44.273 E2.65002
;WIDTH:0.681218
G1 X145.989 Y44.331 E2.65512
;WIDTH:0.729106
G1 X145.989 Y44.389 E2.66062
G1 X145.931 Y44.389 E2.66612
;WIDTH:0.681218
G1 X145.873 Y44.389 E2.67122
;WIDTH:0.633331
G1 X145.815 Y44.389 E2.67592
;WIDTH:0.585443
G1 X145.758 Y44.389 E2.68021
;WIDTH:0.537556
G1 X136.522 Y44.389 E3.30166
;WIDTH:0.585443
G1 X136.465 Y44.389 E3.30595
;WIDTH:0.633331
G1 X136.407 Y44.389 E3.31065
;WIDTH:0.681218
G1 X136.349 Y44.389 E3.31574
;WIDTH:0.729106
G1 X136.291 Y44.389 E3.32124
G1 X136.291 Y44.331 E3.32675
;WIDTH:0.681218
G1 X136.291 Y44.273 E3.33184
;WIDTH:0.633331
G1 X136.291 Y44.215 E3.33654
;WIDTH:0.585443
G1 X136.291 Y44.158 E3.34083
;WIDTH:0.537556
G1 X136.291 Y34.922 E3.96228
;WIDTH:0.585443
G1 X136.291 Y34.865 E3.96657
;WIDTH:0.633331
G1 X136.291 Y34.807 E3.97127
;WIDTH:0.681218
G1 X136.291 Y34.749 E3.97637
;WIDTH:0.729106
G1 X136.291 Y34.691 E3.98187
G1 X136.349 Y34.691 E3.98737
;WIDTH:0.681218
G1 X136.407 Y34.691 E3.99247
;WIDTH:0.633331
G1 X136.465 Y34.691 E3.99716
;WIDTH:0.585443
G1 X136.522 Y34.691 E4.00145
;WIDTH:0.537556
G1 X145.758 Y34.691 E4.6229
;WIDTH:0.585443
G1 X145.815 Y34.691 E4.62719
;WIDTH:0.633331
G1 X145.873 Y34.691 E4.63189
;WIDTH:0.681218
G1 X145.929 Y34.691 E4.63679
G1 E2.63679 F2400
G92 E0
G1 X145.873 Y54.549 F7800
G1 E2 F2400
;WIDTH:0.633331
G1 F1800
G1 X145.815 Y54.549 E2.0047
;WIDTH:0.585443
G1 X145.758 Y54.549 E2.00899
;WIDTH:0.537556
G1 X136.522 Y54.549 E2.63044
;WIDTH:0.585443
G1 X136.465 Y54.549 E2.63473
;WIDTH:0.633331
G1 X136.407 Y54.549 E2.63942
;WIDTH:0.681218
G1 X136.349 Y54.549 E2.64452
;WIDTH:0.729106
G1 X136.291 Y54.549 E2.65002
G1 X136.291 Y54.491 E2.65552
;WIDTH:0.681218
G1 X136.291 Y54.433 E2.66062
;WIDTH:0.633331
G1 X136.291 Y54.375 E2.66532
;WIDTH:0.585443
G1 X136.291 Y54.318 E2.66961
;WIDTH:0.537556
G1 X136.291 Y45.082 E3.29106
;WIDTH:0.585443
G1 X136.291 Y45.025 E3.29535
;WIDTH:0.633331
G1 X136.291 Y44.967 E3.30005
;WIDTH:0.681218
G1 X136.291 Y44.909 E3.30514
;WIDTH:0.729106
G1 X136.291 Y44.851 E3.31065
G1 X136.349 Y44.851 E3.31615
;WIDTH:0.681218
G1 X136.407 Y44.851 E3.32124
;WIDTH:0.633331
G1 X136.465 Y44.851 E3.32594
;WIDTH:0.585443
G1 X136.522 Y44.851 E3.33023
;WIDTH:0.537556
G1 X145.758 Y44.851 E3.95168
;WIDTH:0.585443
G1 X145.815 Y44.851 E3.95597
;WIDTH:0.633331
G1 X145.873 Y44.851 E3.96067
;WIDTH:0.681218
G1 X145.931 Y44.851 E3.96577
;WIDTH:0.729106
G1 X145.989 Y44.851 E3.97127
G1 X145.989 Y44.909 E3.97677
;WIDTH:0.681218
G1 X145.989 Y44.967 E3.98187
;WIDTH:0.633331
G1 X145.989 Y45.025 E3.98656
;WIDTH:0.585443
G1 X145.989 Y45.082 E3.99085
;WIDTH:0.537556
G1 X145.989 Y54.318 E4.6123
;WIDTH:0.585443
G1 X145.989 Y54.375 E4.61659
;WIDTH:0.633331
G1 X145.989 Y54.433 E4.62129
;WIDTH:0.681218
G1 X145.989 Y54.491 E4.62639
;WIDTH:0.729106
G1 X145.989 Y54.549 E4.63189
G1 X145.933 Y54.549 E4.63718
G1 X145.852 Y54.603 F7800
G1 E2.63718 F2400
G92 E0
G1 X126.131 Y54.549 F7800
G1 E2 F2400
G1 F1800
G1 X126.131 Y54.491 E2.0055
;WIDTH:0.681218
G1 X126.131 Y54.433 E2.0106
;WIDTH:0.633331
G1 X126.131 Y54.375 E2.01529
;WIDTH:0.585443
G1 X126.131 Y54.318 E2.01959
;WIDTH:0.537556
G1 X126.131 Y45.082 E2.64103
;WIDTH:0.585443
G1 X126.131 Y45.025 E2.64533
;WIDTH:0.633331
G1 X126.131 Y44.967 E2.65002
;WIDTH:0.681218
G1 X126.131 Y44.909 E2.65512
;WIDTH:0.729106
G1 X126.131 Y44.851 E2.66062
G1 X126.189 Y44.851 E2.66612
;WIDTH:0.681218
G1 X126.247 Y44.851 E2.67122
;WIDTH:0.633331
G1 X126.305 Y44.851 E2.67592
;WIDTH:0.585443
G1 X126.362 Y44.851 E2.68021
;WIDTH:0.537556
G1 X135.598 Y44.851 E3.30166
;WIDTH:0.585443
G1 X135.655 Y44.851 E3.30595
;WIDTH:0.633331
G1 X135.713 Y44.851 E3.31064
;WIDTH:0.681218
G1 X135.771 Y44.851 E3.31574
;WIDTH:0.729106
G1 X135.829 Y44.851 E3.32124
G1 X135.829 Y44.909 E3.32674
;WIDTH:0.681218
G1 X135.829 Y44.967 E3.33184
;WIDTH:0.633331
G1 X135.829 Y45.025 E3.33654
;WIDTH:0.585443
G1 X135.829 Y45.082 E3.34083
;WIDTH:0.537556
G1 X135.829 Y54.318 E3.96228
;WIDTH:0.585443
G1 X135.829 Y54.375 E3.96657
;WIDTH:0.633331
G1 X135.829 Y54.433 E3.97127
;WIDTH:0.681218
G1 X135.829 Y54.491 E3.97636
;WIDTH:0.729106
G1 X135.829 Y54.549 E3.98187
G1 X135.771 Y54.549 E3.98737
;WIDTH:0.681218
G1 X135.713 Y54.549 E3.99247
;WIDTH:0.633331
G1 X135.655 Y54.549 E3.99716
;WIDTH:0.585443
G1 X135.598 Y54.549 E4.00145
;WIDTH:0.537556
G1 X126.362 Y54.549 E4.6229
;WIDTH:0.585443
G1 X126.305 Y54.549 E4.62719
;WIDTH:0.633331
G1 X126.247 Y54.549 E4.63189
;WIDTH:0.681218
G1 X126.191 Y54.549 E4.63679
G1 E2.63679 F2400
G92 E0
G1 X126.189 Y64.709 F7800
G1 E2 F2400
;WIDTH:0.729106
G1 F1800
G1 X126.131 Y64.709 E2.0055
G1 X126.131 Y64.651 E2.011
;WIDTH:0.681218
G1 X126.131 Y64.593 E2.0161
;WIDTH:0.633331
G1 X126.131 Y64.535 E2.0208
;WIDTH:0.585443
G1 X126.131 Y64.478 E2.02509
;WIDTH:0.537556
G1 X126.131 Y55.242 E2.64654
;WIDTH:0.585443
G1 X126.131 Y55.185 E2.65083
;WIDTH:0.633331
G1 X126.131 Y55.127 E2.65552
;WIDTH:0.681218
G1 X126.131 Y55.069 E2.66062
;WIDTH:0.729106
G1 X126.131 Y55.011 E2.66612
G1 X126.189 Y55.011 E2.67162
;WIDTH:0.681218
G1 X126.247 Y55.011 E2.67672
;WIDTH:0.633331
G1 X126.305 Y55.011 E2.68142
;WIDTH:0.585443
G1 X126.362 Y55.011 E2.68571
;WIDTH:0.537556
G1 X135.598 Y55.011 E3.30716
;WIDTH:0.585443
G1 X135.655 Y55.011 E3.31145
;WIDTH:0.633331
G1 X135.713 Y55.011 E3.31615
;WIDTH:0.681218
G1 X135.771 Y55.011 E3.32124
;WIDTH:0.729106
G1 X135.829 Y55.011 E3.32674
G1 X135.829 Y55.069 E3.33225
;WIDTH:0.681218
G1 X135.829 Y55.127 E3.33734
;WIDTH:0.633331
G1 X135.829 Y55.185 E3.34204
;WIDTH:0.585443
G1 X135.829 Y55.242 E3.34633
;WIDTH:0.537556
G1 X135.829 Y64.478 E3.96778
;WIDTH:0.585443
G1 X135.829 Y64.535 E3.97207
;WIDTH:0.633331
G1 X135.829 Y64.593 E3.97677
;WIDTH:0.681218
G1 X135.829 Y64.651 E3.98187
;WIDTH:0.729106
G1 X135.829 Y64.709 E3.98737
G1 X135.771 Y64.709 E3.99287
;WIDTH:0.681218
G1 X135.713 Y64.709 E3.99797
;WIDTH:0.633331
G1 X135.655 Y64.709 E4.00266
;WIDTH:0.585443
G1 X135.598 Y64.709 E4.00695
;WIDTH:0.537556
G1 X126.362 Y64.709 E4.6284
;WIDTH:0.585443
G1 X126.305 Y64.709 E4.63269
;WIDTH:0.633331
G1 X126.249 Y64.709 E4.63721
G1 E2.63721 F2400
G92 E0
G1 X145.989 Y55.011 F7800
G1 E2 F2400
;WIDTH:0.729106
G1 F1800
G1 X145.989 Y55.069 E2.0055
;WIDTH:0.681218
G1 X145.989 Y55.127 E2.0106
;WIDTH:0.633331
G1 X145.989 Y55.185 E2.01529
;WIDTH:0.585443
G1 X145.989 Y55.242 E2.01959
;WIDTH:0.537556
G1 X145.989 Y64.478 E2.64103
;WIDTH:0.585443
G1 X145.989 Y64.535 E2.64533
;WIDTH:0.633331
G1 X145.989 Y64.593 E2.65002
;WIDTH:0.681218
G1 X145.989 Y64.651 E2.65512
;WIDTH:0.729106
