; generated by PrusaSlicer 2.4.0-beta3 on 2022-01-09 at 23:46:39 UTC


;
;

;
;
; 

; external perimeters extrusion width = 0.45mm
; perimeters extrusion width = 0.45mm
; infill extrusion width = 0.45mm
; solid infill extrusion width = 0.45mm
; top infill extrusion width = 0.40mm
; first layer extrusion width = 0.42mm

M73 P0 R122
M201 X2500 Y2500 Z400 E5000 ; sets maximum accelerations, mm/sec^2
M203 X180 Y180 Z12 E80 ; sets maximum feedrates, mm/sec
M204 P1250 R1250 T2500 ; sets acceleration (P, T) and retract acceleration (R), mm/sec^2
M205 X8.00 Y8.00 Z2.00 E10.00 ; sets the jerk limits, mm/sec
M205 S0 T0 ; sets the minimum extruding and travel feed rate, mm/sec
M107
;TYPE:Custom
G90 ; use absolute coordinates
M83 ; extruder relative mode
M104 S170 ; set extruder temp for bed leveling
M140 S60 ; set bed temp
M109 R170 ; wait for bed leveling temp
M190 S60 ; wait for bed temp
M204 T1250 ; set travel acceleration
G28 ; home all without mesh bed level
G29 ; mesh bed leveling 
M204 T2500 ; restore travel acceleration
M104 S215 ; set extruder temp
G92 E0
G1 Y-2 X179 F2400
G1 Z3 F720
M109 S215 ; wait for extruder temp

; intro line
G1 X170 F1000
G1 Z0.2 F720
G1 X110 E8 F900
G1 X40 E10 F700
G92 E0

M221 S95 ; set flow
G21 ; set units to millimeters
G90 ; use absolute coordinates
M83 ; use relative distances for extrusion
M900 K0.2 ; Filament gcode LA 1.5
; ; Filament gcode LA 1.0
M107
;LAYER_CHANGE
;Z:0.2
;HEIGHT:0.2
;BEFORE_LAYER_CHANGE
G92 E0.0
;0.2


G1 E-3.2 F4200
G1 Z.2 F720
;AFTER_LAYER_CHANGE
;0.2
G1 Z.4
G1 X28.316 Y11.199 F9000
G1 Z.2 F720
G1 E3.2 F2400
M204 P800
;TYPE:Skirt/Brim
;WIDTH:0.42
G1 F1200
G1 X28.41 Y10.961 E.00803
G1 X28.857 Y10.207 E.02748
G1 X29.807 Y9.103 E.04566
G1 X30.474 Y8.57 E.02677
G1 X31.17 Y8.147 E.02553
G1 X32.329 Y7.684 E.03912
G1 X33.184 Y7.493 E.02749
G1 X34.12 Y7.423 E.02943
G1 X146.004 Y7.426 E3.50806
G1 X147.061 Y7.538 E.03332
M73 P0 R121
G1 X148.606 Y8.04 E.05092
G1 X149.526 Y8.571 E.03332
G1 X150.349 Y9.252 E.03351
G1 X151.143 Y10.207 E.03892
G1 X151.753 Y11.321 E.03985
G1 X152.131 Y12.537 E.03991
G1 X152.257 Y13.8 E.0398
G1 X152.257 Y166.2 E4.7784
G1 X152.169 Y167.257 E.03326
G1 X151.979 Y168.055 E.02572
G1 X151.59 Y169.038 E.03314
G1 X151.142 Y169.793 E.02754
G1 X150.203 Y170.888 E.04521
G1 X149.526 Y171.429 E.02721
G1 X148.831 Y171.853 E.0255
G1 X147.673 Y172.315 E.0391
G1 X146.812 Y172.508 E.02767
G1 X145.88 Y172.577 E.0293
G1 X34.12 Y172.577 E3.50416
G1 X33.188 Y172.508 E.02931
G1 X32.327 Y172.315 E.02765
G1 X31.169 Y171.853 E.0391
G1 X30.474 Y171.43 E.0255
G1 X29.484 Y170.572 E.04106
G1 X28.857 Y169.793 E.03135
G1 X28.41 Y169.039 E.02749
G1 X27.911 Y167.648 E.04635
G1 X27.743 Y166.2 E.0457
G1 X27.743 Y13.8 E4.77839
G1 X27.832 Y12.741 E.03332
G1 X28.02 Y11.949 E.02553
G1 X28.294 Y11.255 E.0234
M204 P1000
; printing object MLAB_frame_6x8_multi.stl id:0 copy 0
G1 E-2.24 F4200
;WIPE_START
G1 F7200
G1 X28.41 Y10.961 E-.17518
G1 X28.857 Y10.207 E-.48562
G1 X29.153 Y9.863 E-.2512
;WIPE_END
G1 E-.048 F4200
G1 Z.4 F720
G1 X87.004 Y91.927 F9000
G1 Z.2 F720
G1 E3.2 F2400
M204 P800
;TYPE:External perimeter
G1 F1200
G1 X87.15 Y92.016 E.00534
G1 X87.595 Y92.396 E.01837
G1 X87.982 Y92.854 E.01879
G1 X88.291 Y93.363 E.01868
G1 X88.524 Y93.91 E.01864
G1 X88.663 Y94.487 E.01861
G1 X88.691 Y94.848 E.01135
G1 X87.034 Y91.979 E.10389
M204 P1000
G1 X87.135 Y92.036 F9000
G1 E-2.24 F4200
;WIPE_START
G1 F7200
G1 X87.15 Y92.016 E-.06707
G1 X87.595 Y92.396 E-.32462
G1 X87.982 Y92.854 E-.33214
G1 X88.158 Y93.144 E-.18817
;WIPE_END
G1 E-.048 F4200
G1 Z.4 F720
G1 X83.159 Y103.84 F9000
G1 Z.2 F720
G1 E3.2 F2400
M204 P800
;TYPE:Perimeter
G1 F1200
G1 X83.157 Y99.36 E.14046
G1 X83.985 Y99.413 E.026
G1 X87.425 Y99.417 E.10786
G1 X87.756 Y98.839 E.02086
G1 X87.756 Y162.441 E1.9942
G1 X87.425 Y161.864 E.02086
G1 X84.913 Y161.864 E.07879
G1 X83.49 Y161.886 E.04459
G1 X83.158 Y161.92 E.01049
G1 X83.159 Y157.972 E.12377
G1 X83.128 Y157.438 E.01677
G1 X83.027 Y156.541 E.02833
G1 X83.128 Y155.639 E.02844
G1 X83.159 Y155.106 E.01676
G1 X83.159 Y147.816 E.22855
G1 X83.128 Y147.281 E.01683
G1 X83.027 Y146.38 E.02842
G1 X83.128 Y145.479 E.02842
G1 X83.159 Y144.946 E.01676
G1 X83.159 Y137.656 E.22855
G1 X83.128 Y137.121 E.01683
G1 X83.027 Y136.22 E.02842
G1 X83.128 Y135.319 E.02842
G1 X83.159 Y134.786 E.01676
G1 X83.159 Y127.496 E.22855
G1 X83.128 Y126.961 E.01683
G1 X83.027 Y126.06 E.02842
G1 X83.128 Y125.159 E.02842
G1 X83.159 Y124.626 E.01676
G1 X83.159 Y117.336 E.22855
G1 X83.128 Y116.801 E.01683
G1 X83.027 Y115.9 E.02842
G1 X83.128 Y114.999 E.02842
G1 X83.159 Y114.466 E.01676
G1 X83.159 Y107.176 E.22855
G1 X83.128 Y106.641 E.01683
G1 X83.027 Y105.74 E.02841
G1 X83.128 Y104.839 E.02844
G1 X83.159 Y104.302 E.01685
G1 X83.159 Y103.9 E.01261
M204 P1000
G1 X82.782 Y104.283 F9000
M204 P800
G1 F1200
G1 X82.783 Y99.435 E.15201
G1 X82.761 Y98.941 E.0155
G1 X83.505 Y99.017 E.02347
G1 X83.992 Y99.036 E.01529
G1 X87.207 Y99.039 E.10078
G1 X88.145 Y97.397 E.0593
G1 X88.133 Y163.224 E2.06397
G1 X88.153 Y163.898 E.02113
G1 X87.207 Y162.241 E.05981
G1 X84.915 Y162.241 E.07184
G1 X83.512 Y162.263 E.044
G1 X82.761 Y162.339 E.02369
G1 X82.783 Y161.853 E.01524
G1 X82.782 Y157.983 E.12135
G1 X82.752 Y157.47 E.01611
G1 X82.647 Y156.541 E.02933
G1 X82.753 Y155.607 E.02944
G1 X82.782 Y155.094 E.01612
G1 X82.782 Y147.827 E.22784
G1 X82.753 Y147.313 E.01617
G1 X82.647 Y146.38 E.02942
G1 X82.753 Y145.447 E.02942
G1 X82.782 Y144.934 E.01612
G1 X82.782 Y137.667 E.22784
G1 X82.753 Y137.153 E.01617
G1 X82.647 Y136.22 E.02942
G1 X82.753 Y135.287 E.02942
G1 X82.782 Y134.774 E.01612
G1 X82.782 Y127.507 E.22784
G1 X82.753 Y126.993 E.01617
G1 X82.647 Y126.06 E.02942
G1 X82.753 Y125.127 E.02942
G1 X82.782 Y124.614 E.01612
G1 X82.782 Y117.347 E.22784
G1 X82.753 Y116.833 E.01617
G1 X82.647 Y115.9 E.02942
G1 X82.753 Y114.967 E.02942
G1 X82.782 Y114.454 E.01612
G1 X82.782 Y107.187 E.22784
G1 X82.753 Y106.673 E.01617
G1 X82.647 Y105.74 E.02942
G1 X82.753 Y104.807 E.02945
G1 X82.779 Y104.343 E.01458
M204 P1000
G1 E-2.24 F4200
;WIPE_START
G1 F7200
G1 X82.78 Y102.697 E-.912
;WIPE_END
G1 E-.048 F4200
G1 Z.4 F720
G1 X80.138 Y96.843 F9000
G1 Z.2 F720
G1 E3.2 F2400
M204 P800
G1 F1200
G1 X76.69 Y96.841 E.10812
G1 X76.158 Y96.872 E.0167
G1 X75.261 Y96.973 E.02833
G1 X74.359 Y96.872 E.02844
G1 X73.824 Y96.841 E.01683
G1 X66.534 Y96.841 E.22855
G1 X66.001 Y96.872 E.01676
G1 X65.1 Y96.973 E.02842
G1 X64.199 Y96.872 E.02842
G1 X63.664 Y96.841 E.01683
G1 X56.374 Y96.841 E.22855
G1 X55.841 Y96.872 E.01676
G1 X54.94 Y96.973 E.02842
G1 X54.039 Y96.872 E.02842
G1 X53.504 Y96.841 E.01683
G1 X46.214 Y96.841 E.22855
G1 X45.681 Y96.872 E.01676
G1 X44.78 Y96.973 E.02841
G1 X43.879 Y96.872 E.02844
G1 X43.343 Y96.841 E.01684
G1 X38.102 Y96.845 E.16431
G1 X39.128 Y95.082 E.06396
G1 X37.472 Y92.228 E.10344
G1 X38.092 Y92.244 E.01945
G1 X81.564 Y92.236 E1.36302
G1 X79.912 Y95.082 E.10317
G1 X80.938 Y96.846 E.06399
G1 X80.198 Y96.844 E.0232
M204 P1000
G1 X81.331 Y97.252 F9000
M204 P800
G1 F1200
G1 X81.073 Y97.223 E.00813
G1 X76.702 Y97.218 E.13706
G1 X76.19 Y97.248 E.01606
G1 X75.261 Y97.353 E.02933
G1 X74.327 Y97.247 E.02944
G1 X73.813 Y97.218 E.01617
G1 X66.546 Y97.218 E.22784
G1 X66.033 Y97.247 E.01612
G1 X65.1 Y97.353 E.02942
G1 X64.167 Y97.247 E.02942
G1 X63.653 Y97.218 E.01617
G1 X57.367 Y97.213 E.19708
G1 X56.386 Y97.218 E.03076
G1 X55.873 Y97.247 E.01612
G1 X54.94 Y97.353 E.02942
G1 X54.007 Y97.247 E.02942
G1 X53.493 Y97.218 E.01617
G1 X47.207 Y97.213 E.19708
G1 X46.226 Y97.218 E.03076
G1 X45.713 Y97.247 E.01612
G1 X44.78 Y97.353 E.02942
G1 X43.847 Y97.247 E.02945
G1 X43.332 Y97.218 E.01618
G1 X38.968 Y97.213 E.13682
G1 X37.97 Y97.224 E.03128
G1 X37.417 Y97.284 E.01745
G1 X37.314 Y97.311 E.00335
G1 X37.488 Y97.099 E.00859
G1 X37.765 Y96.675 E.01587
G1 X38.692 Y95.081 E.05783
G1 X37.062 Y92.279 E.10163
G1 X36.691 Y91.795 E.01912
G1 X37.065 Y91.841 E.01183
G1 X38.097 Y91.867 E.03235
G1 X80.439 Y91.867 E1.3276
G1 X81.447 Y91.863 E.03163
G1 X81.98 Y91.84 E.01671
G1 X82.349 Y91.795 E.01166
G1 X81.978 Y92.279 E.01912
G1 X80.348 Y95.081 E.10163
G1 X81.275 Y96.675 E.05783
G1 X81.552 Y97.099 E.01587
G1 X81.726 Y97.31 E.00856
G1 X81.39 Y97.258 E.01064
M204 P1000
G1 X82.19 Y97.82 F9000
M204 P800
;TYPE:External perimeter
G1 F1200
G1 X82.317 Y98.448 E.0201
G1 X82.383 Y98.947 E.01577
G1 X82.406 Y99.443 E.01559
G1 X82.405 Y104.281 E.15167
G1 X82.377 Y104.775 E.01553
G1 X82.289 Y105.551 E.0245
G1 X75.449 Y105.551 E.21448
G1 X75.449 Y97.711 E.24583
G1 X76.222 Y97.623 E.02441
G1 X76.713 Y97.595 E.01543
G1 X81.052 Y97.6 E.13603
G1 X81.558 Y97.656 E.01597
G1 X82.132 Y97.805 E.01858
M204 P1000
G1 X82.589 Y97.792 F9000
G1 E-2.24 F4200
;WIPE_START
G1 F7200
G1 X82.317 Y98.448 E-.371
G1 X82.383 Y98.947 E-.27881
G1 X82.405 Y99.419 E-.26218
;WIPE_END
G1 E-.048 F4200
G1 Z.4 F720
G1 X82.132 Y105.929 F9000
G1 Z.2 F720
G1 E3.2 F2400
M204 P800
G1 F1200
G1 X82.289 Y105.929 E.00494
G1 X82.377 Y106.704 E.02448
G1 X82.405 Y107.198 E.01551
G1 X82.405 Y114.442 E.22714
G1 X82.377 Y114.936 E.01549
G1 X82.289 Y115.711 E.02448
G1 X75.449 Y115.711 E.21448
G1 X75.449 Y105.929 E.30674
M73 P1 R121
G1 X82.072 Y105.929 E.20766
M204 P1000
G1 X82.163 Y105.774 F9000
G1 E-2.24 F4200
;WIPE_START
G1 F7200
G1 X82.289 Y105.929 E-.12054
G1 X82.377 Y106.704 E-.43266
G1 X82.405 Y107.198 E-.27409
G1 X82.405 Y107.351 E-.08471
;WIPE_END
G1 E-.048 F4200
G1 Z.4 F720
G1 X75.071 Y105.929 F9000
G1 Z.2 F720
G1 E3.2 F2400
M204 P800
G1 F1200
G1 X75.071 Y115.711 E.30674
G1 X65.289 Y115.711 E.30674
G1 X65.289 Y105.929 E.30674
G1 X75.011 Y105.929 E.30486
M204 P1000
G1 X75.458 Y105.825 F9000
G1 X75.071 Y105.551
M204 P800
G1 F1200
G1 X65.289 Y105.551 E.30674
G1 X65.289 Y97.711 E.24584
G1 X66.064 Y97.623 E.02448
M73 P1 R120
G1 X66.558 Y97.595 E.01549
G1 X67.528 Y97.59 E.03042
G1 X73.802 Y97.595 E.19671
G1 X74.296 Y97.623 E.01551
G1 X75.071 Y97.711 E.02448
G1 X75.071 Y105.491 E.24395
M204 P1000
G1 X75.084 Y105.951 F9000
G1 E-2.24 F4200
;WIPE_START
G1 F7200
G1 X73.426 Y105.502 E-.912
;WIPE_END
G1 E-.048 F4200
G1 Z.4 F720
G1 X64.911 Y105.491 F9000
G1 Z.2 F720
G1 E3.2 F2400
M204 P800
G1 F1200
G1 X64.911 Y105.551 E.00188
G1 X55.129 Y105.551 E.30674
G1 X55.129 Y97.711 E.24584
G1 X55.904 Y97.623 E.02448
G1 X56.398 Y97.595 E.01549
G1 X57.368 Y97.59 E.03042
G1 X63.642 Y97.595 E.19671
G1 X64.136 Y97.623 E.01551
G1 X64.911 Y97.711 E.02448
G1 X64.911 Y105.431 E.24207
M204 P1000
G1 X64.964 Y105.52 F9000
G1 X64.911 Y105.929
M204 P800
G1 F1200
G1 X64.911 Y115.711 E.30674
G1 X55.129 Y115.711 E.30674
G1 X55.129 Y105.929 E.30674
G1 X64.851 Y105.929 E.30486
M204 P1000
G1 X65.298 Y105.825 F9000
G1 E-2.24 F4200
;WIPE_START
G1 F7200
G1 X64.862 Y107.574 E-.912
;WIPE_END
G1 E-.048 F4200
G1 Z.4 F720
G1 X31.284 Y154.175 F9000
G1 Z.2 F720
G1 E3.2 F2400
M204 P800
;TYPE:Perimeter
G1 F1200
G1 X31.284 Y98.839 E1.73504
G1 X31.615 Y99.417 E.02087
G1 X35.055 Y99.413 E.10786
G1 X35.883 Y99.36 E.026
G1 X35.881 Y104.302 E.15495
G1 X35.912 Y104.839 E.01685
G1 X36.013 Y105.74 E.02844
G1 X35.912 Y106.641 E.02841
G1 X35.881 Y107.174 E.01676
G1 X35.881 Y114.464 E.22855
G1 X35.912 Y114.999 E.01683
G1 X36.013 Y115.9 E.02842
G1 X35.912 Y116.801 E.02842
G1 X35.881 Y117.334 E.01676
G1 X35.881 Y124.624 E.22855
G1 X35.912 Y125.159 E.01683
G1 X36.013 Y126.06 E.02842
G1 X35.912 Y126.961 E.02842
G1 X35.881 Y127.494 E.01676
G1 X35.881 Y134.784 E.22855
G1 X35.912 Y135.319 E.01683
G1 X36.013 Y136.22 E.02842
G1 X35.912 Y137.121 E.02842
G1 X35.881 Y137.654 E.01676
G1 X35.881 Y144.944 E.22855
G1 X35.912 Y145.479 E.01683
G1 X36.013 Y146.38 E.02842
G1 X35.912 Y147.281 E.02842
G1 X35.881 Y147.814 E.01676
G1 X35.881 Y155.104 E.22855
G1 X35.912 Y155.639 E.01683
G1 X36.013 Y156.541 E.02844
G1 X35.912 Y157.438 E.02833
G1 X35.881 Y157.972 E.01677
G1 X35.882 Y161.92 E.12377
G1 X35.055 Y161.867 E.026
G1 X31.615 Y161.864 E.10786
G1 X31.284 Y162.441 E.02086
G1 X31.284 Y154.235 E.25727
M204 P1000
G1 E-2.24 F4200
;WIPE_START
G1 F7200
G1 X31.284 Y152.59 E-.912
;WIPE_END
G1 E-.048 F4200
G1 Z.4 F720
G1 X30.907 Y157.36 F9000
G1 Z.2 F720
G1 E3.2 F2400
M204 P800
G1 F1200
G1 X30.907 Y98.056 E1.85944
G1 X30.887 Y97.382 E.02112
G1 X31.833 Y99.039 E.05982
G1 X35.047 Y99.036 E.10078
G1 X35.535 Y99.017 E.01529
G1 X36.279 Y98.941 E.02347
G1 X36.257 Y99.435 E.0155
G1 X36.258 Y104.291 E.15228
G1 X36.287 Y104.807 E.01619
G1 X36.393 Y105.74 E.02945
G1 X36.287 Y106.673 E.02942
G1 X36.258 Y107.186 E.01612
G1 X36.258 Y114.453 E.22784
G1 X36.287 Y114.967 E.01617
G1 X36.393 Y115.9 E.02942
G1 X36.287 Y116.833 E.02942
G1 X36.258 Y117.346 E.01612
G1 X36.258 Y124.613 E.22784
G1 X36.287 Y125.127 E.01617
G1 X36.393 Y126.06 E.02942
G1 X36.287 Y126.993 E.02942
G1 X36.258 Y127.506 E.01612
G1 X36.258 Y134.773 E.22784
G1 X36.287 Y135.287 E.01617
G1 X36.393 Y136.22 E.02942
G1 X36.287 Y137.153 E.02942
G1 X36.258 Y137.666 E.01612
G1 X36.258 Y144.933 E.22784
G1 X36.287 Y145.447 E.01617
G1 X36.393 Y146.38 E.02942
G1 X36.287 Y147.313 E.02942
G1 X36.258 Y147.826 E.01612
G1 X36.258 Y155.093 E.22784
G1 X36.287 Y155.607 E.01617
G1 X36.393 Y156.541 E.02944
G1 X36.288 Y157.47 E.02933
G1 X36.258 Y157.983 E.01611
G1 X36.257 Y161.853 E.12135
G1 X36.279 Y162.339 E.01524
G1 X35.535 Y162.264 E.02347
G1 X35.047 Y162.245 E.01528
G1 X31.833 Y162.241 E.10077
G1 X30.895 Y163.884 E.05933
G1 X30.907 Y157.42 E.20269
M204 P1000
G1 E-2.24 F4200
;WIPE_START
G1 F7200
G1 X30.907 Y155.774 E-.912
;WIPE_END
G1 E-.048 F4200
G1 Z.4 F720
G1 X36.751 Y105.551 F9000
G1 Z.2 F720
G1 E3.2 F2400
M204 P800
;TYPE:External perimeter
G1 F1200
G1 X36.663 Y104.775 E.0245
G1 X36.635 Y104.281 E.01553
G1 X36.634 Y99.443 E.15167
G1 X36.657 Y98.947 E.01559
G1 X36.723 Y98.448 E.01577
G1 X36.85 Y97.82 E.0201
G1 X37.485 Y97.656 E.02054
G1 X37.993 Y97.6 E.01602
G1 X43.321 Y97.595 E.16706
G1 X43.815 Y97.623 E.01552
G1 X44.591 Y97.711 E.0245
G1 X44.591 Y105.551 E.24584
G1 X36.811 Y105.551 E.24395
M204 P1000
G1 X36.373 Y105.684 F9000
G1 E-2.24 F4200
;WIPE_START
G1 F7200
G1 X36.663 Y104.775 E-.43795
G1 X36.635 Y104.281 E-.27442
G1 X36.635 Y103.92 E-.19962
;WIPE_END
G1 E-.048 F4200
G1 Z.4 F720
G1 X44.969 Y105.551 F9000
G1 Z.2 F720
G1 E3.2 F2400
M204 P800
G1 F1200
G1 X44.969 Y97.711 E.24584
G1 X45.744 Y97.623 E.02448
G1 X46.238 Y97.595 E.01549
G1 X47.208 Y97.59 E.03042
G1 X53.482 Y97.595 E.19671
G1 X53.976 Y97.623 E.01551
G1 X54.751 Y97.711 E.02448
G1 X54.751 Y105.551 E.24584
G1 X45.029 Y105.551 E.30486
M204 P1000
G1 X44.579 Y105.641 F9000
G1 X44.969 Y105.929
M204 P800
G1 F1200
G1 X54.751 Y105.929 E.30674
G1 X54.751 Y115.711 E.30674
G1 X44.969 Y115.711 E.30674
G1 X44.969 Y105.989 E.30486
M204 P1000
G1 X44.865 Y105.542 F9000
G1 X44.591 Y105.929
M204 P800
G1 F1200
G1 X44.591 Y115.711 E.30674
G1 X36.751 Y115.711 E.24584
G1 X36.663 Y114.936 E.02448
G1 X36.635 Y114.442 E.01551
G1 X36.63 Y108.168 E.19671
G1 X36.635 Y107.198 E.03042
G1 X36.663 Y106.704 E.01549
G1 X36.751 Y105.929 E.02448
G1 X44.531 Y105.929 E.24395
M204 P1000
G1 X44.991 Y105.916 F9000
G1 E-2.24 F4200
;WIPE_START
G1 F7200
G1 X44.542 Y107.574 E-.912
;WIPE_END
G1 E-.048 F4200
G1 Z.4 F720
G1 X44.531 Y116.089 F9000
G1 Z.2 F720
G1 E3.2 F2400
M204 P800
G1 F1200
G1 X44.591 Y116.089 E.00188
G1 X44.591 Y125.871 E.30674
G1 X36.751 Y125.871 E.24584
G1 X36.663 Y125.096 E.02448
G1 X36.635 Y124.602 E.01551
G1 X36.63 Y118.328 E.19671
G1 X36.635 Y117.358 E.03042
G1 X36.663 Y116.864 E.01549
G1 X36.751 Y116.089 E.02448
G1 X44.471 Y116.089 E.24207
M204 P1000
G1 X44.56 Y116.036 F9000
G1 X44.969 Y116.089
M204 P800
G1 F1200
G1 X54.751 Y116.089 E.30674
G1 X54.751 Y125.871 E.30674
G1 X44.969 Y125.871 E.30674
G1 X44.969 Y116.149 E.30486
M204 P1000
G1 X44.865 Y115.702 F9000
G1 E-2.24 F4200
;WIPE_START
G1 F7200
G1 X46.614 Y116.138 E-.912
;WIPE_END
G1 E-.048 F4200
G1 Z.4 F720
G1 X44.969 Y126.249 F9000
G1 Z.2 F720
G1 E3.2 F2400
M204 P800
G1 F1200
G1 X54.751 Y126.249 E.30674
G1 X54.751 Y136.031 E.30674
G1 X44.969 Y136.031 E.30674
G1 X44.969 Y126.309 E.30486
M204 P1000
G1 X44.865 Y125.862 F9000
G1 X44.591 Y126.249
M204 P800
G1 F1200
G1 X44.591 Y136.031 E.30674
G1 X36.751 Y136.031 E.24584
G1 X36.663 Y135.256 E.02448
G1 X36.635 Y134.762 E.01551
