; generated by PrusaSlicer 2.5.0+linux-x64-GTK3 on 2023-01-12 at 19:39:12 UTC

; 

; external perimeters extrusion width = 0.45mm
; perimeters extrusion width = 0.45mm
; infill extrusion width = 0.45mm
; solid infill extrusion width = 0.45mm
; top infill extrusion width = 0.40mm
; first layer extrusion width = 0.70mm

M107
M104 S200 ; set temperature
;TYPE:Custom
G28 ; home all axes
G1 Z5 F5000 ; lift nozzle
M109 S200 ; set temperature and wait for it to be reached
G21 ; set units to millimeters
G90 ; use absolute coordinates
M82 ; use absolute distances for extrusion
G92 E0
; Filament gcode
M107
;LAYER_CHANGE
;Z:0.35
;HEIGHT:0.35
G1 Z.35 F7800
G1 E-2 F2400
G92 E0
G1 X76.486 Y67.947 F7800
G1 E2 F2400
;TYPE:Skirt/Brim
;WIDTH:0.7
G1 F1800
G1 X77.371 Y66.966 E2.12012
G1 X78.24 Y66.215 E2.22448
G1 X79.152 Y65.58 E2.32557
G1 X80.409 Y64.915 E2.45485
G1 X81.977 Y64.354 E2.60629
G1 X83.269 Y64.081 E2.72641
G1 X84.76 Y63.975 E2.8623
G1 X115.587 Y63.984 E5.66536
G1 X117.412 Y64.207 E5.83259
G1 X119.01 Y64.675 E5.98394
G1 X120.402 Y65.314 E6.12323
G1 X122.086 Y66.479 E6.30939
G1 X123.513 Y67.946 E6.49556
G1 X124.453 Y69.323 E6.64713
G1 X125.229 Y70.99 E6.81438
G1 X125.705 Y72.766 E6.9815
G1 X125.865 Y74.6 E7.14892
G1 X125.865 Y125.4 E11.76814
G1 X125.795 Y126.545 E11.87245
G1 X125.552 Y127.946 E12.00179
G1 X125.229 Y129.01 E12.10285
G1 X124.783 Y130.068 E12.20726
G1 X124.125 Y131.213 E12.32732
G1 X123.106 Y132.531 E12.47885
G1 X122.086 Y133.521 E12.60811
G1 X121.199 Y134.192 E12.7092
G1 X120.217 Y134.786 E12.81358
G1 X119.011 Y135.325 E12.93365
G1 X118.023 Y135.646 E13.02812
G1 X116.522 Y135.946 E13.16734
G1 X115.24 Y136.025 E13.28413
G1 X84.413 Y136.016 E16.08717
G1 X83.271 Y135.919 E16.19146
G1 X81.977 Y135.646 E16.31172
G1 X80.99 Y135.325 E16.40601
G1 X79.784 Y134.786 E16.52619
G1 X78.801 Y134.192 E16.6306
G1 X77.523 Y133.177 E16.77903
G1 X76.487 Y132.054 E16.91798
G1 X75.875 Y131.213 E17.01254
G1 X75.126 Y129.878 E17.15175
G1 X74.557 Y128.35 E17.29997
G1 X74.295 Y127.233 E17.40432
G1 X74.156 Y125.92 E17.52439
G1 X74.135 Y74.6 E22.19088
G1 X74.205 Y73.454 E22.29525
G1 X74.448 Y72.054 E22.42452
G1 X74.771 Y70.99 E22.52562
G1 X75.216 Y69.932 E22.62998
G1 X75.875 Y68.787 E22.75008
G1 X76.451 Y67.995 E22.83913
G1 E20.83913 F2400
G92 E0
G1 X86.08 Y103.652 F7800
G1 E2 F2400
;TYPE:Perimeter
;WIDTH:0.7
G1 F1800
G1 X86.08 Y105.118 E2.13324
G1 X86.135 Y105.633 E2.18038
G1 X86.08 Y106.042 E2.21793
G1 X86.08 Y115.278 E3.05767
G1 X86.135 Y115.793 E3.10482
G1 X86.08 Y116.202 E3.14236
G1 X86.08 Y120.672 E3.54875
G1 X82.932 Y120.672 E3.83501
G1 X82.36 Y120.8 E3.88834
G1 X82.36 Y79.2 E7.67099
G1 X82.932 Y79.328 E7.72431
G1 X86.08 Y79.328 E8.01057
G1 X86.08 Y84.798 E8.50789
G1 X86.135 Y85.313 E8.55504
G1 X86.08 Y85.722 E8.59258
G1 X86.08 Y94.958 E9.43233
G1 X86.135 Y95.473 E9.47947
G1 X86.08 Y95.882 E9.51702
G1 X86.08 Y103.592 E10.21807
G1 E8.21807 F2400
G92 E0
G1 X86.819 Y105.565 F7800
G1 E2 F2400
G1 F1800
G1 X86.738 Y105.797 E2.02234
G1 X86.705 Y106.042 E2.04487
G1 X86.705 Y115.278 E2.88462
G1 X86.714 Y115.404 E2.89611
G1 X86.819 Y115.725 E2.92683
G1 X86.738 Y115.957 E2.94918
G1 X86.705 Y116.202 E2.97171
G1 X86.705 Y121.364 E3.44106
G1 X86.588 Y121.297 E3.45337
G1 X82.932 Y121.297 E3.78579
G1 X82.532 Y121.386 E3.82306
G1 X82.12 Y121.765 E3.87396
G1 X81.735 Y122.433 E3.94405
G1 X81.735 Y77.567 E8.02366
G1 X82.12 Y78.235 E8.09375
G1 X82.532 Y78.614 E8.14466
G1 X82.932 Y78.703 E8.18192
G1 X86.588 Y78.703 E8.51434
G1 X86.705 Y78.636 E8.52665
G1 X86.705 Y84.798 E9.08694
G1 X86.714 Y84.924 E9.09843
G1 X86.819 Y85.245 E9.12915
G1 X86.738 Y85.477 E9.1515
G1 X86.705 Y85.722 E9.17403
G1 X86.705 Y94.958 E10.01377
G1 X86.714 Y95.084 E10.02526
G1 X86.819 Y95.405 E10.05599
G1 X86.738 Y95.637 E10.07833
G1 X86.705 Y95.882 E10.10086
G1 X86.705 Y105.118 E10.94061
G1 X86.714 Y105.244 E10.9521
G1 X86.8 Y105.508 E10.97737
G1 E8.97737 F2400
G92 E0
G1 X80.965 Y74.52 F7800
G1 E2 F2400
;TYPE:External perimeter
;WIDTH:0.433285
G1 F1800
G1 X81.026 Y74 E2.02728
G1 X81.168 Y73.419 E2.05846
;WIDTH:0.470185
G1 X81.414 Y72.878 E2.09263
G1 X81.722 Y72.374 E2.12657
;WIDTH:0.462849
G1 X82.104 Y71.928 E2.1597
G1 X82.834 Y71.322 E2.2132
;WIDTH:0.459612
G1 X82.61 Y71.61 E2.23355
;WIDTH:0.462849
G1 X82.037 Y72.597 E2.29795
;WIDTH:0.470185
G1 X81.488 Y73.577 E2.36253
;WIDTH:0.433285
G1 X80.993 Y74.467 E2.41561
G1 E.41561 F2400
G92 E0
G1 X95.073 Y95.189 F7800
G1 E2 F2400
;WIDTH:0.633331
G1 F1800
G1 X95.015 Y95.189 E2.0047
;WIDTH:0.585443
G1 X94.958 Y95.189 E2.00899
;WIDTH:0.537556
G1 X87.642 Y95.189 E2.50124
;WIDTH:0.578167
G1 X87.574 Y95.168 E2.50648
;WIDTH:0.618778
G1 X87.505 Y95.148 E2.51215
;WIDTH:0.659389
G1 X87.437 Y95.127 E2.51824
;WIDTH:0.7
G1 X87.368 Y95.107 E2.52476
G1 X87.33 Y94.958 E2.53874
G1 X87.33 Y85.722 E3.37849
G1 X87.368 Y85.573 E3.39247
G1 X87.437 Y85.553 E3.39899
;WIDTH:0.659389
G1 X87.505 Y85.532 E3.40508
;WIDTH:0.618778
G1 X87.574 Y85.512 E3.41075
;WIDTH:0.578167
G1 X87.642 Y85.491 E3.41599
;WIDTH:0.537556
G1 X94.958 Y85.491 E3.90824
;WIDTH:0.585443
G1 X95.015 Y85.491 E3.91253
;WIDTH:0.633331
G1 X95.073 Y85.491 E3.91723
;WIDTH:0.681218
G1 X95.131 Y85.491 E3.92233
;WIDTH:0.729106
G1 X95.189 Y85.491 E3.92783
G1 X95.189 Y85.549 E3.93333
;WIDTH:0.681218
G1 X95.189 Y85.607 E3.93843
;WIDTH:0.633331
G1 X95.189 Y85.665 E3.94312
;WIDTH:0.585443
G1 X95.189 Y85.722 E3.94741
;WIDTH:0.537556
G1 X95.189 Y94.958 E4.56886
;WIDTH:0.585443
G1 X95.189 Y95.015 E4.57315
;WIDTH:0.633331
G1 X95.189 Y95.073 E4.57785
;WIDTH:0.681218
G1 X95.189 Y95.131 E4.58295
;WIDTH:0.729106
G1 X95.189 Y95.189 E4.58845
G1 X95.133 Y95.189 E4.59374
G1 X95.052 Y95.243 F7800
G1 E2.59374 F2400
G92 E0
G1 X105.233 Y95.189 F7800
G1 E2 F2400
;WIDTH:0.633331
G1 F1800
G1 X105.175 Y95.189 E2.0047
;WIDTH:0.585443
G1 X105.118 Y95.189 E2.00899
;WIDTH:0.537556
G1 X95.882 Y95.189 E2.63044
;WIDTH:0.585443
G1 X95.825 Y95.189 E2.63473
;WIDTH:0.633331
G1 X95.767 Y95.189 E2.63942
;WIDTH:0.681218
G1 X95.709 Y95.189 E2.64452
;WIDTH:0.729106
G1 X95.651 Y95.189 E2.65002
G1 X95.651 Y95.131 E2.65552
;WIDTH:0.681218
G1 X95.651 Y95.073 E2.66062
;WIDTH:0.633331
G1 X95.651 Y95.015 E2.66532
;WIDTH:0.585443
G1 X95.651 Y94.958 E2.66961
;WIDTH:0.537556
G1 X95.651 Y85.722 E3.29106
;WIDTH:0.585443
G1 X95.651 Y85.665 E3.29535
;WIDTH:0.633331
G1 X95.651 Y85.607 E3.30005
;WIDTH:0.681218
G1 X95.651 Y85.549 E3.30514
;WIDTH:0.729106
G1 X95.651 Y85.491 E3.31064
G1 X95.709 Y85.491 E3.31615
;WIDTH:0.681218
G1 X95.767 Y85.491 E3.32124
;WIDTH:0.633331
G1 X95.825 Y85.491 E3.32594
;WIDTH:0.585443
G1 X95.882 Y85.491 E3.33023
;WIDTH:0.537556
G1 X105.118 Y85.491 E3.95168
;WIDTH:0.585443
G1 X105.175 Y85.491 E3.95597
;WIDTH:0.633331
G1 X105.233 Y85.491 E3.96067
;WIDTH:0.681218
G1 X105.291 Y85.491 E3.96577
;WIDTH:0.729106
G1 X105.349 Y85.491 E3.97127
G1 X105.349 Y85.549 E3.97677
;WIDTH:0.681218
G1 X105.349 Y85.607 E3.98187
;WIDTH:0.633331
G1 X105.349 Y85.665 E3.98656
;WIDTH:0.585443
G1 X105.349 Y85.722 E3.99085
;WIDTH:0.537556
G1 X105.349 Y94.958 E4.6123
;WIDTH:0.585443
G1 X105.349 Y95.015 E4.61659
;WIDTH:0.633331
G1 X105.349 Y95.073 E4.62129
;WIDTH:0.681218
G1 X105.349 Y95.131 E4.62639
;WIDTH:0.729106
G1 X105.349 Y95.189 E4.63189
G1 X105.293 Y95.189 E4.63718
G1 X105.212 Y95.243 F7800
G1 E2.63718 F2400
G92 E0
G1 X95.651 Y105.349 F7800
G1 E2 F2400
G1 F1800
G1 X95.651 Y105.291 E2.0055
;WIDTH:0.681218
G1 X95.651 Y105.233 E2.0106
;WIDTH:0.633331
G1 X95.651 Y105.175 E2.01529
;WIDTH:0.585443
G1 X95.651 Y105.118 E2.01959
;WIDTH:0.537556
G1 X95.651 Y95.882 E2.64103
;WIDTH:0.585443
G1 X95.651 Y95.825 E2.64533
;WIDTH:0.633331
G1 X95.651 Y95.767 E2.65002
;WIDTH:0.681218
G1 X95.651 Y95.709 E2.65512
;WIDTH:0.729106
G1 X95.651 Y95.651 E2.66062
G1 X95.709 Y95.651 E2.66612
;WIDTH:0.681218
G1 X95.767 Y95.651 E2.67122
;WIDTH:0.633331
G1 X95.825 Y95.651 E2.67592
;WIDTH:0.585443
G1 X95.882 Y95.651 E2.68021
;WIDTH:0.537556
G1 X105.118 Y95.651 E3.30166
;WIDTH:0.585443
G1 X105.175 Y95.651 E3.30595
;WIDTH:0.633331
G1 X105.233 Y95.651 E3.31064
;WIDTH:0.681218
G1 X105.291 Y95.651 E3.31574
;WIDTH:0.729106
G1 X105.349 Y95.651 E3.32124
G1 X105.349 Y95.709 E3.32675
;WIDTH:0.681218
G1 X105.349 Y95.767 E3.33184
;WIDTH:0.633331
G1 X105.349 Y95.825 E3.33654
;WIDTH:0.585443
G1 X105.349 Y95.882 E3.34083
;WIDTH:0.537556
G1 X105.349 Y105.118 E3.96228
;WIDTH:0.585443
G1 X105.349 Y105.175 E3.96657
;WIDTH:0.633331
G1 X105.349 Y105.233 E3.97127
;WIDTH:0.681218
G1 X105.349 Y105.291 E3.97637
;WIDTH:0.729106
G1 X105.349 Y105.349 E3.98187
G1 X105.291 Y105.349 E3.98737
;WIDTH:0.681218
G1 X105.233 Y105.349 E3.99247
;WIDTH:0.633331
G1 X105.175 Y105.349 E3.99716
;WIDTH:0.585443
G1 X105.118 Y105.349 E4.00145
;WIDTH:0.537556
G1 X95.882 Y105.349 E4.6229
;WIDTH:0.585443
G1 X95.825 Y105.349 E4.62719
;WIDTH:0.633331
G1 X95.767 Y105.349 E4.63189
;WIDTH:0.681218
G1 X95.711 Y105.349 E4.63679
G1 X95.189 Y105.233 F7800
G1 F1800
G1 X95.189 Y105.291 E4.64189
;WIDTH:0.729106
G1 X95.189 Y105.349 E4.64739
G1 X95.131 Y105.349 E4.65289
;WIDTH:0.681218
G1 X95.073 Y105.349 E4.65799
;WIDTH:0.633331
G1 X95.015 Y105.349 E4.66269
;WIDTH:0.585443
G1 X94.958 Y105.349 E4.66698
;WIDTH:0.537556
G1 X87.642 Y105.349 E5.15923
;WIDTH:0.578167
G1 X87.574 Y105.328 E5.16447
;WIDTH:0.618778
G1 X87.505 Y105.308 E5.17014
;WIDTH:0.659389
G1 X87.437 Y105.287 E5.17623
;WIDTH:0.7
G1 X87.368 Y105.267 E5.18275
G1 X87.33 Y105.118 E5.19673
G1 X87.33 Y95.882 E6.03648
G1 X87.368 Y95.733 E6.05047
G1 X87.437 Y95.713 E6.05698
;WIDTH:0.659389
G1 X87.505 Y95.692 E6.06307
;WIDTH:0.618778
G1 X87.574 Y95.672 E6.06874
;WIDTH:0.578167
G1 X87.642 Y95.651 E6.07399
;WIDTH:0.537556
G1 X94.958 Y95.651 E6.56623
;WIDTH:0.585443
G1 X95.015 Y95.651 E6.57053
;WIDTH:0.633331
G1 X95.073 Y95.651 E6.57522
;WIDTH:0.681218
G1 X95.131 Y95.651 E6.58032
;WIDTH:0.729106
G1 X95.189 Y95.651 E6.58582
G1 X95.189 Y95.709 E6.59132
;WIDTH:0.681218
G1 X95.189 Y95.767 E6.59642
;WIDTH:0.633331
G1 X95.189 Y95.825 E6.60112
;WIDTH:0.585443
G1 X95.189 Y95.882 E6.60541
;WIDTH:0.537556
G1 X95.189 Y105.118 E7.22686
;WIDTH:0.585443
G1 X95.189 Y105.173 E7.23098
G1 E5.23098 F2400
G92 E0
G1 X87.574 Y115.488 F7800
G1 E2 F2400
;WIDTH:0.618778
G1 F1800
G1 X87.505 Y115.468 E2.00567
;WIDTH:0.659389
G1 X87.437 Y115.447 E2.01176
;WIDTH:0.7
G1 X87.368 Y115.427 E2.01828
G1 X87.33 Y115.278 E2.03226
G1 X87.33 Y106.042 E2.87201
G1 X87.368 Y105.893 E2.88599
G1 X87.431 Y105.873 E2.89207
;WIDTH:0.65983
G1 X87.495 Y105.852 E2.89775
;WIDTH:0.619661
G1 X87.559 Y105.832 E2.90305
;WIDTH:0.579491
G1 X87.622 Y105.811 E2.90795
;WIDTH:0.539322
G1 X87.642 Y105.811 E2.90932
;WIDTH:0.537556
G1 X94.958 Y105.811 E3.40157
;WIDTH:0.585443
G1 X95.015 Y105.811 E3.40586
;WIDTH:0.633331
G1 X95.073 Y105.811 E3.41056
;WIDTH:0.681218
G1 X95.131 Y105.811 E3.41565
;WIDTH:0.729106
G1 X95.189 Y105.811 E3.42115
G1 X95.189 Y105.869 E3.42666
;WIDTH:0.681218
G1 X95.189 Y105.927 E3.43175
;WIDTH:0.633331
G1 X95.189 Y105.985 E3.43645
;WIDTH:0.585443
G1 X95.189 Y106.042 E3.44074
;WIDTH:0.537556
G1 X95.189 Y115.278 E4.06219
;WIDTH:0.585443
G1 X95.189 Y115.335 E4.06648
;WIDTH:0.633331
G1 X95.189 Y115.393 E4.07118
;WIDTH:0.681218
G1 X95.189 Y115.451 E4.07628
;WIDTH:0.729106
G1 X95.189 Y115.509 E4.08178
G1 X95.131 Y115.509 E4.08728
;WIDTH:0.681218
G1 X95.073 Y115.509 E4.09238
;WIDTH:0.633331
G1 X95.015 Y115.509 E4.09707
;WIDTH:0.585443
G1 X94.958 Y115.509 E4.10136
;WIDTH:0.537556
G1 X87.642 Y115.509 E4.59361
;WIDTH:0.578167
G1 X87.631 Y115.505 E4.59446
G1 E2.59446 F2400
G92 E0
G1 X105.233 Y115.509 F7800
G1 E2 F2400
;WIDTH:0.633331
G1 F1800
G1 X105.175 Y115.509 E2.0047
;WIDTH:0.585443
G1 X105.118 Y115.509 E2.00899
;WIDTH:0.537556
G1 X95.882 Y115.509 E2.63044
;WIDTH:0.585443
G1 X95.825 Y115.509 E2.63473
;WIDTH:0.633331
G1 X95.767 Y115.509 E2.63942
;WIDTH:0.681218
G1 X95.709 Y115.509 E2.64452
;WIDTH:0.729106
G1 X95.651 Y115.509 E2.65002
G1 X95.651 Y115.451 E2.65552
;WIDTH:0.681218
G1 X95.651 Y115.393 E2.66062
;WIDTH:0.633331
G1 X95.651 Y115.335 E2.66532
;WIDTH:0.585443
G1 X95.651 Y115.278 E2.66961
;WIDTH:0.537556
G1 X95.651 Y106.042 E3.29106
;WIDTH:0.585443
G1 X95.651 Y105.985 E3.29535
;WIDTH:0.633331
G1 X95.651 Y105.927 E3.30005
;WIDTH:0.681218
G1 X95.651 Y105.869 E3.30514
;WIDTH:0.729106
G1 X95.651 Y105.811 E3.31064
G1 X95.709 Y105.811 E3.31615
;WIDTH:0.681218
G1 X95.767 Y105.811 E3.32124
;WIDTH:0.633331
G1 X95.825 Y105.811 E3.32594
;WIDTH:0.585443
G1 X95.882 Y105.811 E3.33023
;WIDTH:0.537556
G1 X105.118 Y105.811 E3.95168
;WIDTH:0.585443
G1 X105.175 Y105.811 E3.95597
;WIDTH:0.633331
G1 X105.233 Y105.811 E3.96067
;WIDTH:0.681218
G1 X105.291 Y105.811 E3.96577
;WIDTH:0.729106
G1 X105.349 Y105.811 E3.97127
G1 X105.349 Y105.869 E3.97677
;WIDTH:0.681218
G1 X105.349 Y105.927 E3.98187
;WIDTH:0.633331
G1 X105.349 Y105.985 E3.98656
;WIDTH:0.585443
G1 X105.349 Y106.042 E3.99085
;WIDTH:0.537556
G1 X105.349 Y115.278 E4.6123
;WIDTH:0.585443
G1 X105.349 Y115.335 E4.61659
;WIDTH:0.633331
G1 X105.349 Y115.393 E4.62129
;WIDTH:0.681218
G1 X105.349 Y115.451 E4.62639
;WIDTH:0.729106
G1 X105.349 Y115.509 E4.63189
G1 X105.293 Y115.509 E4.63718
G1 X105.212 Y115.563 F7800
G1 E2.63718 F2400
G92 E0
G1 X110.542 Y124.08 F7800
G1 E2 F2400
;TYPE:Perimeter
;WIDTH:0.7
G1 F1800
G1 X110.231 Y124.619 E2.05661
G1 X110.036 Y125.192 E2.11171
G1 X110.041 Y125.646 E2.15299
G1 X110.231 Y126.181 E2.20457
G1 X111.166 Y127.8 E2.37457
G1 X88.834 Y127.8 E4.40521
G1 X89.769 Y126.181 E4.57521
G1 X89.959 Y125.646 E4.62679
G1 X89.964 Y125.192 E4.66808
G1 X89.769 Y124.619 E4.72318
G1 X89.458 Y124.08 E4.77979
G1 X94.958 Y124.08 E5.2799
G1 X95.473 Y124.025 E5.32704
G1 X95.882 Y124.08 E5.36459
G1 X105.118 Y124.08 E6.20433
G1 X105.633 Y124.025 E6.25148
G1 X106.042 Y124.08 E6.28903
G1 X110.482 Y124.08 E6.69275
G1 X111.625 Y123.455 F7800
G1 F1800
G1 X110.772 Y124.931 E6.84778
G1 X110.655 Y125.275 E6.88083
G1 X110.659 Y125.548 E6.90561
G1 X110.772 Y125.869 E6.93655
G1 X112.248 Y128.425 E7.20497
G1 X87.752 Y128.425 E9.43244
G1 X89.228 Y125.869 E9.70085
G1 X89.341 Y125.548 E9.7318
G1 X89.345 Y125.275 E9.75658
G1 X89.228 Y124.931 E9.78964
G1 X88.375 Y123.455 E9.94466
G1 X94.958 Y123.455 E10.54319
G1 X95.084 Y123.446 E10.55468
G1 X95.405 Y123.341 E10.58541
G1 X95.637 Y123.422 E10.60775
G1 X95.882 Y123.455 E10.63028
G1 X105.118 Y123.455 E11.47002
G1 X105.244 Y123.446 E11.48151
G1 X105.565 Y123.341 E11.51224
G1 X105.797 Y123.422 E11.53458
G1 X106.042 Y123.455 E11.55711
G1 X111.565 Y123.455 E12.05926
G1 E10.05926 F2400
G92 E0
G1 X82.796 Y128.645 F7800
G1 E2 F2400
;TYPE:External perimeter
;WIDTH:0.46261
G1 F1800
G1 X82.543 Y128.447 E2.01811
;WIDTH:0.462854
G1 X82.088 Y128.056 E2.05194
G1 X81.704 Y127.602 E2.08551
;WIDTH:0.47019
G1 X81.4 Y127.095 E2.11949
G1 X81.159 Y126.555 E2.15348
;WIDTH:0.433291
G1 X81.023 Y125.985 E2.184
G1 X80.955 Y125.438 E2.21272
;WIDTH:0.417067
G1 X80.965 Y125.48 E2.21486
;WIDTH:0.433291
G1 X81.488 Y126.423 E2.27107
;WIDTH:0.47019
G1 X82.037 Y127.403 E2.33565
;WIDTH:0.462854
G1 X82.319 Y127.893 E2.36751
G1 X82.764 Y128.594 E2.41436
G1 X82.568 Y128.418 F7800
G1 E.41436 F2400
G92 E0
G1 X87.382 Y122.468 F7800
G1 E2 F2400
;WIDTH:0.623676
G1 F1800
G1 X87.368 Y122.329 E2.01113
;WIDTH:0.661838
G1 X87.349 Y122.14 E2.02733
;WIDTH:0.7
G1 X87.33 Y121.951 E2.04458
G1 X87.33 Y116.202 E2.56732
G1 X87.368 Y116.053 E2.58131
G1 X87.437 Y116.033 E2.58782
;WIDTH:0.659389
G1 X87.505 Y116.012 E2.59392
;WIDTH:0.618778
G1 X87.574 Y115.992 E2.59958
;WIDTH:0.578167
G1 X87.642 Y115.971 E2.60483
;WIDTH:0.537556
G1 X94.958 Y115.971 E3.09708
;WIDTH:0.585443
G1 X95.015 Y115.971 E3.10137
;WIDTH:0.633331
G1 X95.073 Y115.971 E3.10606
;WIDTH:0.681218
G1 X95.131 Y115.971 E3.11116
;WIDTH:0.729106
G1 X95.189 Y115.971 E3.11666
G1 X95.189 Y116.029 E3.12216
;WIDTH:0.681218
G1 X95.189 Y116.087 E3.12726
;WIDTH:0.633331
G1 X95.189 Y116.145 E3.13196
;WIDTH:0.585443
G1 X95.189 Y116.202 E3.13625
;WIDTH:0.537556
G1 X95.189 Y122.518 E3.56121
;WIDTH:0.578167
G1 X95.168 Y122.586 E3.56645
;WIDTH:0.618778
G1 X95.148 Y122.655 E3.57212
;WIDTH:0.659389
G1 X95.127 Y122.723 E3.57821
;WIDTH:0.7
G1 X95.107 Y122.792 E3.58473
G1 X94.958 Y122.83 E3.59871
G1 X87.642 Y122.83 E4.26387
;WIDTH:0.699144
G1 X87.557 Y122.726 E4.27607
