; generated by PrusaSlicer 2.5.0+linux-x64-GTK3 on 2023-01-12 at 19:37:53 UTC

; 

; external perimeters extrusion width = 0.45mm
; perimeters extrusion width = 0.45mm
; infill extrusion width = 0.45mm
; solid infill extrusion width = 0.45mm
; top infill extrusion width = 0.40mm
; first layer extrusion width = 0.70mm

M107
M104 S200 ; set temperature
;TYPE:Custom
G28 ; home all axes
G1 Z5 F5000 ; lift nozzle
M109 S200 ; set temperature and wait for it to be reached
G21 ; set units to millimeters
G90 ; use absolute coordinates
M82 ; use absolute distances for extrusion
G92 E0
; Filament gcode
M107
;LAYER_CHANGE
;Z:0.35
;HEIGHT:0.35
G1 Z.35 F7800
G1 E-2 F2400
G92 E0
G1 X88.074 Y86.799 F7800
G1 E2 F2400
;TYPE:Skirt/Brim
;WIDTH:0.7
G1 F1800
G1 X88.961 Y86.128 E2.1011
G1 X89.943 Y85.534 E2.20545
G1 X91.149 Y84.995 E2.32555
G1 X92.137 Y84.674 E2.42002
G1 X93.429 Y84.401 E2.54015
G1 X94.573 Y84.304 E2.64454
G1 X105.427 Y84.304 E3.63143
G1 X107.252 Y84.527 E3.79867
G1 X108.85 Y84.995 E3.95001
G1 X110.242 Y85.634 E4.08931
G1 X111.6 Y86.535 E4.23753
G1 X112.946 Y87.789 E4.40474
G1 X113.965 Y89.108 E4.55633
G1 X114.623 Y90.251 E4.67624
G1 X115.069 Y91.31 E4.7808
G1 X115.506 Y92.88 E4.92894
G1 X115.685 Y94.401 E5.06817
G1 X115.705 Y105.08 E6.03924
G1 X115.635 Y106.225 E6.14355
G1 X115.392 Y107.626 E6.27289
G1 X115.069 Y108.69 E6.37395
G1 X114.623 Y109.748 E6.47835
G1 X113.965 Y110.893 E6.59841
G1 X113.353 Y111.734 E6.69299
G1 X112.47 Y112.713 E6.81292
G1 X111.6 Y113.465 E6.91742
G1 X110.688 Y114.1 E7.01851
G1 X109.431 Y114.765 E7.14778
G1 X107.253 Y115.473 E7.35606
G1 X106.362 Y115.626 E7.43828
G1 X105.08 Y115.705 E7.55505
G1 X94.155 Y115.674 E8.54843
G1 X92.137 Y115.326 E8.7347
G1 X91.149 Y115.005 E8.82911
G1 X89.944 Y114.466 E8.94918
G1 X88.961 Y113.872 E9.05357
G1 X88.074 Y113.201 E9.15472
G1 X86.647 Y111.734 E9.34085
G1 X86.035 Y110.893 E9.43541
G1 X85.286 Y109.558 E9.57462
G1 X84.717 Y108.03 E9.72284
G1 X84.493 Y107.119 E9.80817
G1 X84.295 Y105.08 E9.99444
G1 X84.316 Y94.4 E10.96555
G1 X84.608 Y92.374 E11.15172
G1 X84.931 Y91.31 E11.25283
G1 X85.376 Y90.252 E11.35718
G1 X86.035 Y89.107 E11.47729
G1 X86.646 Y88.267 E11.57179
G1 X88.032 Y86.842 E11.75254
G1 E9.75254 F2400
G92 E0
G1 X100.462 Y96.286 F7800
G1 E2 F2400
;TYPE:Perimeter
;WIDTH:0.60837
G1 F1800
G1 X99.538 Y96.286 E2.07167
G1 X99.889 Y95.678 E2.12613
G1 X99.917 Y95.52 E2.13861
;WIDTH:0.564953
G1 X99.945 Y95.361 E2.15007
;WIDTH:0.521536
G1 X99.972 Y95.203 E2.16052
;WIDTH:0.478119
G1 X100 Y95.045 E2.16995
G1 X100.028 Y95.203 E2.17938
;WIDTH:0.521536
G1 X100.055 Y95.361 E2.18983
;WIDTH:0.564953
G1 X100.083 Y95.52 E2.20129
;WIDTH:0.60837
G1 X100.111 Y95.678 E2.21377
G1 X100.432 Y96.234 E2.26357
G1 E.26357 F2400
G92 E0
G1 X100 Y93.994 F7800
G1 E2 F2400
;WIDTH:0.96779
G1 F1800
G1 X99.227 Y92.655 E2.20088
G1 X100.773 Y92.656 E2.40172
G1 X100.03 Y93.942 E2.59473
G1 E.59473 F2400
G92 E0
G1 X101.465 Y96.865 F7800
G1 E2 F2400
;WIDTH:0.7
G1 F1800
G1 X98.535 Y96.865 E2.26639
G1 X99.388 Y95.389 E2.42141
G1 X99.513 Y94.92 E2.46553
G1 X99.388 Y94.451 E2.50964
G1 X97.912 Y91.896 E2.77796
G1 X102.087 Y91.897 E3.15755
G1 X100.612 Y94.451 E3.42571
G1 X100.487 Y94.92 E3.46983
G1 X100.612 Y95.389 E3.51395
G1 X101.435 Y96.813 E3.66352
G1 E1.66352 F2400
G92 E0
G1 X100 Y95.045 F7800
G1 E2 F2400
;WIDTH:0.434703
G1 F1800
G1 X100 Y94.795 E2.01304
G1 E.01304 F2400
G92 E0
G1 X92.993 Y91.642 F7800
G1 E2 F2400
;TYPE:External perimeter
;WIDTH:0.459606
G1 F1800
G1 X92.77 Y91.929 E2.02034
;WIDTH:0.462849
G1 X92.197 Y92.917 E2.08475
;WIDTH:0.470185
G1 X91.648 Y93.896 E2.1493
;WIDTH:0.433321
G1 X91.125 Y94.84 E2.20554
G1 X91.186 Y94.321 E2.23276
G1 X91.328 Y93.738 E2.26403
;WIDTH:0.470185
G1 X91.574 Y93.198 E2.29817
G1 X91.882 Y92.694 E2.33211
;WIDTH:0.462849
G1 X92.265 Y92.248 E2.36529
G1 X92.947 Y91.681 E2.41535
G1 X92.756 Y91.918 F7800
G1 E.41535 F2400
G92 E0
G1 X96.221 Y100.332 F7800
G1 E2 F2400
;TYPE:Perimeter
;WIDTH:0.739245
G1 F1800
G1 X93.092 Y100.332 E2.30234
;WIDTH:0.750644
G1 X92.92 Y100.336 E2.3193
G1 X92.545 Y100.457 E2.35799
G1 X92.545 Y99.543 E2.44779
G1 X92.92 Y99.664 E2.48647
G1 X93.092 Y99.668 E2.50343
;WIDTH:0.739245
G1 X96.221 Y99.668 E2.80577
G1 X96.221 Y100.272 E2.86416
G1 X96.865 Y101.044 F7800
;WIDTH:0.7
G1 F1800
G1 X96.748 Y100.977 E2.87646
G1 X93.092 Y100.977 E3.20888
G1 X92.629 Y101.099 E3.25239
G1 X92.28 Y101.445 E3.29712
G1 X91.895 Y102.113 E3.36722
G1 X91.895 Y97.887 E3.75145
G1 X92.28 Y98.555 E3.82154
G1 X92.629 Y98.901 E3.86627
G1 X93.092 Y99.023 E3.90978
G1 X96.748 Y99.023 E4.24221
G1 X96.865 Y98.956 E4.25451
G1 X96.865 Y100.984 E4.43896
G1 E2.43896 F2400
G92 E0
G1 X92.956 Y108.325 F7800
G1 E2 F2400
;TYPE:External perimeter
;WIDTH:0.462673
G1 F1800
G1 X92.703 Y108.126 E2.01815
;WIDTH:0.462853
G1 X92.248 Y107.736 E2.05194
G1 X91.864 Y107.282 E2.08552
;WIDTH:0.47019
G1 X91.56 Y106.775 E2.1195
G1 X91.319 Y106.235 E2.15349
;WIDTH:0.433292
G1 X91.183 Y105.665 E2.18401
G1 X91.115 Y105.118 E2.21272
;WIDTH:0.417067
G1 X91.125 Y105.16 E2.21486
;WIDTH:0.433292
G1 X91.648 Y106.103 E2.27108
;WIDTH:0.47019
G1 X92.197 Y107.083 E2.33565
;WIDTH:0.462853
G1 X92.479 Y107.573 E2.36752
G1 X92.924 Y108.274 E2.41437
G1 X92.728 Y108.098 F7800
G1 E.41437 F2400
G92 E0
G1 X100 Y106.006 F7800
G1 E2 F2400
;TYPE:Perimeter
;WIDTH:0.968366
G1 F1800
G1 X100.774 Y107.346 E2.2011
G1 X99.226 Y107.346 E2.4022
G1 X99.97 Y106.058 E2.5955
G1 X99.99 Y104.895 F7800
;WIDTH:0.478119
G1 F1800
G1 X99.972 Y104.797 E2.60137
;WIDTH:0.521536
G1 X99.945 Y104.639 E2.61181
;WIDTH:0.564953
G1 X99.917 Y104.48 E2.62327
;WIDTH:0.60837
G1 X99.889 Y104.322 E2.63575
G1 X99.538 Y103.714 E2.69022
G1 X100.462 Y103.714 E2.76188
G1 X100.111 Y104.322 E2.81635
G1 X100.083 Y104.48 E2.82883
;WIDTH:0.564953
G1 X100.055 Y104.639 E2.84029
;WIDTH:0.521536
G1 X100.028 Y104.797 E2.85073
;WIDTH:0.478119
G1 X100 Y104.955 E2.86012
G1 X99.477 Y104.943 F7800
;WIDTH:0.7
G1 F1800
G1 X99.388 Y104.611 E2.89135
G1 X98.535 Y103.135 E3.04637
G1 X101.465 Y103.135 E3.31276
G1 X100.612 Y104.611 E3.46777
G1 X100.487 Y105.08 E3.51189
G1 X100.612 Y105.549 E3.55601
G1 X102.088 Y108.105 E3.82443
G1 X97.912 Y108.105 E4.20421
G1 X99.388 Y105.549 E4.47262
G1 X99.513 Y105.08 E4.51674
G1 X99.492 Y105.001 E4.52417
G1 X100 Y105.205 F7800
;WIDTH:0.434703
G1 F1800
G1 X100 Y104.955 E4.53721
G1 E2.53721 F2400
G92 E0
G1 X107.007 Y108.358 F7800
G1 E2 F2400
;TYPE:External perimeter
;WIDTH:0.459605
G1 F1800
G1 X107.23 Y108.071 E2.02034
;WIDTH:0.462851
G1 X107.803 Y107.083 E2.08476
;WIDTH:0.47018
G1 X108.352 Y106.104 E2.1493
;WIDTH:0.433311
G1 X108.875 Y105.16 E2.20554
G1 X108.814 Y105.679 E2.23276
G1 X108.672 Y106.262 E2.26403
;WIDTH:0.47018
G1 X108.426 Y106.802 E2.29817
G1 X108.118 Y107.306 E2.33211
;WIDTH:0.462851
G1 X107.735 Y107.752 E2.36529
G1 X107.053 Y108.319 E2.41535
G1 X107.244 Y108.082 F7800
G1 E.41535 F2400
G92 E0
G1 X103.779 Y100.332 F7800
G1 E2 F2400
;TYPE:Perimeter
;WIDTH:0.739245
G1 F1800
G1 X103.779 Y99.668 E2.06418
G1 X106.908 Y99.668 E2.36652
;WIDTH:0.750645
G1 X107.08 Y99.664 E2.38348
G1 X107.455 Y99.543 E2.42217
G1 X107.455 Y100.457 E2.51197
G1 X107.08 Y100.336 E2.55065
G1 X106.908 Y100.332 E2.56761
;WIDTH:0.739245
G1 X103.839 Y100.332 E2.86416
G1 X103.135 Y101.044 F7800
;WIDTH:0.7
G1 F1800
G1 X103.135 Y98.956 E3.05405
G1 X103.252 Y99.023 E3.06635
G1 X106.908 Y99.023 E3.39878
G1 X107.371 Y98.901 E3.44229
G1 X107.72 Y98.555 E3.48702
G1 X108.105 Y97.887 E3.55711
G1 X108.105 Y102.113 E3.94135
G1 X107.72 Y101.445 E4.01145
G1 X107.371 Y101.099 E4.05618
G1 X106.908 Y100.977 E4.09968
G1 X103.252 Y100.977 E4.43211
G1 X103.187 Y101.014 E4.43896
G1 E2.43896 F2400
G92 E0
G1 X107.044 Y91.675 F7800
G1 E2 F2400
;TYPE:External perimeter
;WIDTH:0.462677
G1 F1800
G1 X107.297 Y91.874 E2.01814
;WIDTH:0.462867
G1 X107.751 Y92.263 E2.05188
G1 X108.136 Y92.718 E2.08552
;WIDTH:0.470174
G1 X108.44 Y93.225 E2.1195
G1 X108.681 Y93.765 E2.15348
;WIDTH:0.433271
G1 X108.817 Y94.335 E2.184
G1 X108.888 Y94.908 E2.2141
;WIDTH:0.41827
G1 X108.875 Y94.84 E2.21758
;WIDTH:0.433271
G1 X108.352 Y93.897 E2.27379
;WIDTH:0.470174
G1 X107.803 Y92.917 E2.33836
;WIDTH:0.462867
G1 X107.52 Y92.427 E2.37028
G1 X107.076 Y91.726 E2.41708
G1 X107.272 Y91.902 F7800
G1 E.41708 F2400
G92 E0
G1 X97.566 Y97.802 F7800
G1 E2 F2400
;WIDTH:0.585594
G1 F1800
G1 X97.625 Y97.724 E2.00727
;WIDTH:0.623729
G1 X97.684 Y97.646 E2.01509
;WIDTH:0.661864
G1 X97.743 Y97.568 E2.02345
;WIDTH:0.7
G1 X97.802 Y97.49 E2.03235
G1 X102.198 Y97.49 E2.432
;WIDTH:0.69914
G1 X102.283 Y97.594 E2.4442
;WIDTH:0.661262
G1 X102.368 Y97.698 E2.45566
;WIDTH:0.623384
G1 X102.453 Y97.802 E2.46638
;WIDTH:0.62367
G1 X102.472 Y97.991 E2.48152
;WIDTH:0.661835
G1 X102.491 Y98.18 E2.49771
;WIDTH:0.7
G1 X102.51 Y98.369 E2.51496
G1 X102.51 Y101.631 E2.81164
G1 X102.491 Y101.773 E2.82463
;WIDTH:0.661858
G1 X102.472 Y101.914 E2.83682
;WIDTH:0.623717
G1 X102.453 Y102.056 E2.84823
;WIDTH:0.585575
G1 X102.434 Y102.198 E2.85884
G1 X102.375 Y102.276 E2.86611
;WIDTH:0.623717
G1 X102.316 Y102.354 E2.87392
;WIDTH:0.661858
G1 X102.257 Y102.432 E2.88228
;WIDTH:0.7
G1 X102.198 Y102.51 E2.89119
G1 X97.802 Y102.51 E3.29083
;WIDTH:0.699144
G1 X97.717 Y102.406 E3.30303
;WIDTH:0.661267
G1 X97.632 Y102.302 E3.31449
;WIDTH:0.623391
G1 X97.547 Y102.198 E3.32521
;WIDTH:0.623676
G1 X97.528 Y102.009 E3.34036
;WIDTH:0.661838
G1 X97.509 Y101.82 E3.35655
;WIDTH:0.7
G1 X97.49 Y101.631 E3.3738
G1 X97.49 Y98.369 E3.67048
G1 X97.509 Y98.227 E3.68347
;WIDTH:0.661864
G1 X97.528 Y98.086 E3.69566
;WIDTH:0.623729
G1 X97.547 Y97.944 E3.70706
;WIDTH:0.585594
G1 X97.558 Y97.862 E3.71321
G1 E1.71321 F2400
G92 E0
G1 X98.887 Y105.053 F7800
G1 E2 F2400
;WIDTH:0.7
G1 F1800
G1 X98.726 Y104.716 E2.03394
G1 X97.627 Y102.813 E2.23376
;WIDTH:0.699144
G1 X97.569 Y102.759 E2.24096
;WIDTH:0.652062
G1 X97.511 Y102.705 E2.24761
;WIDTH:0.604981
G1 X97.453 Y102.652 E2.25372
;WIDTH:0.5579
G1 X97.394 Y102.598 E2.25928
;WIDTH:0.510819
G1 X97.336 Y102.544 E2.2643
;WIDTH:0.50433
G1 X97.308 Y102.455 E2.27014
;WIDTH:0.544922
G1 X97.28 Y102.366 E2.27654
;WIDTH:0.585515
G1 X97.252 Y102.277 E2.28348
;WIDTH:0.623676
G1 X97.174 Y102.104 E2.29862
;WIDTH:0.661838
G1 X97.096 Y101.931 E2.31482
;WIDTH:0.7
G1 X97.019 Y101.758 E2.33207
G1 X96.748 Y101.601 E2.36048
G1 X93.092 Y101.601 E2.69291
G1 X92.938 Y101.642 E2.70741
G1 X92.821 Y101.758 E2.72232
G1 X91.27 Y104.445 E3.00447
G1 X91.27 Y95.555 E3.81283
G1 X92.821 Y98.242 E4.09498
G1 X92.938 Y98.358 E4.10989
G1 X93.092 Y98.399 E4.12439
G1 X96.748 Y98.399 E4.45682
G1 X97.019 Y98.242 E4.48523
G1 X97.069 Y98.108 E4.49824
;WIDTH:0.652749
G1 X97.119 Y97.974 E4.51027
;WIDTH:0.605498
G1 X97.169 Y97.84 E4.52131
;WIDTH:0.558247
G1 X97.219 Y97.706 E4.53137
;WIDTH:0.510996
G1 X97.269 Y97.572 E4.54045
G1 X97.341 Y97.495 E4.54712
;WIDTH:0.558247
G1 X97.413 Y97.418 E4.55452
;WIDTH:0.605498
G1 X97.484 Y97.341 E4.56264
;WIDTH:0.652749
G1 X97.556 Y97.264 E4.57148
;WIDTH:0.7
G1 X97.628 Y97.187 E4.58104
G1 X98.726 Y95.284 E4.78087
G1 X98.887 Y94.947 E4.81481
G1 X98.846 Y94.764 E4.83189
G1 X97.019 Y91.598 E5.16432
G1 X96.964 Y91.589 E5.1693
;WIDTH:0.654597
G1 X96.91 Y91.581 E5.17392
;WIDTH:0.609194
G1 X96.856 Y91.572 E5.17817
;WIDTH:0.563792
G1 X96.802 Y91.564 E5.18207
;WIDTH:0.518389
G1 X96.748 Y91.555 E5.1856
;WIDTH:0.473295
G1 X94.36 Y91.566 E5.32397
;WIDTH:0.450695
G1 X93.791 Y91.566 E5.35506
G1 X93.092 Y91.594 E5.39329
;WIDTH:0.433298
G1 X93.199 Y91.54 E5.39954
;WIDTH:0.450695
G1 X93.763 Y91.329 E5.43247
G1 X94.345 Y91.191 E5.46517
;WIDTH:0.473295
G1 X94.929 Y91.157 E5.49903
G1 X96.748 Y91.157 E5.60444
;WIDTH:0.518388
G1 X96.84 Y91.18 E5.61055
;WIDTH:0.563791
G1 X96.932 Y91.203 E5.61727
;WIDTH:0.609194
G1 X97.024 Y91.225 E5.62463
;WIDTH:0.654597
G1 X97.115 Y91.248 E5.63261
;WIDTH:0.7
G1 X97.207 Y91.271 E5.64122
G1 X102.794 Y91.273 E6.14919
G1 X102.885 Y91.25 E6.15778
;WIDTH:0.654375
G1 X102.977 Y91.227 E6.16574
;WIDTH:0.60875
G1 X103.069 Y91.204 E6.17307
;WIDTH:0.563125
G1 X103.16 Y91.182 E6.17978
;WIDTH:0.5175
G1 X103.252 Y91.159 E6.18586
;WIDTH:0.471875
G1 X105.107 Y91.159 E6.29297
;WIDTH:0.471557
G1 X105.685 Y91.196 E6.32635
;WIDTH:0.450585
G1 X106.255 Y91.334 E6.35841
G1 X106.908 Y91.594 E6.39681
;WIDTH:0.430971
G1 X106.792 Y91.588 E6.40281
;WIDTH:0.450585
G1 X105.641 Y91.566 E6.46572
;WIDTH:0.471557
G1 X105.107 Y91.556 E6.49652
;WIDTH:0.471875
G1 X103.252 Y91.556 E6.60363
;WIDTH:0.5175
G1 X103.198 Y91.564 E6.60715
;WIDTH:0.563125
G1 X103.144 Y91.572 E6.61104
;WIDTH:0.60875
G1 X103.09 Y91.581 E6.61529
;WIDTH:0.654375
G1 X103.036 Y91.589 E6.61991
;WIDTH:0.7
G1 X102.981 Y91.598 E6.62489
G1 X101.154 Y94.764 E6.95731
G1 X101.113 Y94.947 E6.9744
G1 X101.274 Y95.284 E7.00834
G1 X102.373 Y97.187 E7.20816
;WIDTH:0.69914
G1 X102.431 Y97.241 E7.21536
;WIDTH:0.652057
G1 X102.489 Y97.295 E7.22201
;WIDTH:0.604975
G1 X102.547 Y97.348 E7.22812
;WIDTH:0.557892
G1 X102.606 Y97.402 E7.23368
;WIDTH:0.51081
G1 X102.664 Y97.456 E7.2387
;WIDTH:0.50432
G1 X102.692 Y97.545 E7.24454
;WIDTH:0.544913
G1 X102.72 Y97.634 E7.25094
;WIDTH:0.585506
G1 X102.748 Y97.723 E7.25788
;WIDTH:0.62367
G1 X102.826 Y97.896 E7.27302
;WIDTH:0.661835
G1 X102.904 Y98.069 E7.28922
;WIDTH:0.7
G1 X102.981 Y98.242 E7.30646
G1 X103.252 Y98.399 E7.33488
G1 X106.908 Y98.399 E7.66731
G1 X107.062 Y98.358 E7.68181
G1 X107.179 Y98.242 E7.69672
G1 X108.73 Y95.555 E7.97887
G1 X108.73 Y104.445 E8.78722
G1 X107.179 Y101.758 E9.06938
G1 X107.062 Y101.642 E9.08429
G1 X106.908 Y101.601 E9.09879
G1 X103.252 Y101.601 E9.43122
G1 X102.981 Y101.758 E9.45963
G1 X102.931 Y101.892 E9.47264
;WIDTH:0.652744
G1 X102.881 Y102.026 E9.48467
;WIDTH:0.605488
G1 X102.831 Y102.16 E9.49572
;WIDTH:0.558232
G1 X102.781 Y102.294 E9.50578
;WIDTH:0.510976
G1 X102.731 Y102.428 E9.51486
G1 X102.659 Y102.505 E9.52153
;WIDTH:0.558232
G1 X102.587 Y102.582 E9.52892
;WIDTH:0.605488
G1 X102.516 Y102.659 E9.53704
;WIDTH:0.652744
G1 X102.444 Y102.736 E9.54588
;WIDTH:0.7
G1 X102.372 Y102.813 E9.55545
G1 X101.274 Y104.716 E9.75527
G1 X101.113 Y105.053 E9.78921
G1 X101.154 Y105.236 E9.8063
G1 X102.981 Y108.402 E10.13872
G1 X103.036 Y108.411 E10.1437
;WIDTH:0.654656
G1 X103.09 Y108.419 E10.14832
;WIDTH:0.609312
G1 X103.144 Y108.428 E10.15258
;WIDTH:0.563968
G1 X103.198 Y108.437 E10.15648
;WIDTH:0.518624
G1 X103.252 Y108.445 E10.16002
;WIDTH:0.47328
G1 X105.64 Y108.434 E10.29837
;WIDTH:0.450703
G1 X106.209 Y108.434 E10.32947
G1 X106.908 Y108.406 E10.3677
;WIDTH:0.433295
G1 X106.801 Y108.46 E10.37394
;WIDTH:0.450703
G1 X106.237 Y108.671 E10.40688
G1 X105.655 Y108.809 E10.43958
;WIDTH:0.473281
G1 X105.071 Y108.843 E10.47344
G1 X103.252 Y108.843 E10.57885
;WIDTH:0.518624
G1 X103.16 Y108.821 E10.58496
;WIDTH:0.563968
G1 X103.068 Y108.798 E10.59169
;WIDTH:0.609312
G1 X102.976 Y108.775 E10.59906
;WIDTH:0.654656
G1 X102.884 Y108.753 E10.60704
;WIDTH:0.7
G1 X102.792 Y108.73 E10.61566
G1 X97.208 Y108.73 E11.12346
G1 X97.116 Y108.753 E11.13207
;WIDTH:0.654656
G1 X97.024 Y108.775 E11.14005
;WIDTH:0.609312
G1 X96.932 Y108.798 E11.14742
;WIDTH:0.563968
G1 X96.84 Y108.821 E11.15415
;WIDTH:0.518624
G1 X96.748 Y108.843 E11.16026
;WIDTH:0.473281
G1 X94.937 Y108.843 E11.26521
G1 X94.316 Y108.804 E11.30123
;WIDTH:0.450703
G1 X93.745 Y108.666 E11.33335
G1 X93.092 Y108.406 E11.37176
;WIDTH:0.431109
G1 X93.209 Y108.412 E11.37782
;WIDTH:0.450703
G1 X94.36 Y108.434 E11.44075
;WIDTH:0.473281
G1 X96.748 Y108.445 E11.57911
;WIDTH:0.518624
G1 X96.802 Y108.437 E11.58264
;WIDTH:0.563968
G1 X96.856 Y108.428 E11.58654
;WIDTH:0.609312
G1 X96.91 Y108.419 E11.5908
;WIDTH:0.654656
G1 X96.964 Y108.411 E11.59542
;WIDTH:0.7
G1 X97.019 Y108.402 E11.6004
G1 X98.846 Y105.236 E11.93283
G1 X98.874 Y105.111 E11.94446
G1 X99.184 Y104.827 F7800
;LAYER_CHANGE
;Z:0.65
;HEIGHT:0.3
G1 Z.65 F7800
G1 E9.94446 F2400
G92 E0
G1 X96.844 Y101.272 F7800
G1 E2 F2400
;TYPE:Perimeter
;WIDTH:0.45
G1 F900
G1 X96.632 Y101.15 E2.01174
G1 X93.208 Y101.15 E2.17646
G1 X92.757 Y101.262 E2.19877
G1 X92.373 Y101.632 E2.22445
G1 X91.916 Y102.423 E2.26837
G1 X91.916 Y97.577 E2.50143
G1 X92.373 Y98.368 E2.54535
G1 X92.757 Y98.738 E2.57102
G1 X93.208 Y98.85 E2.59334
G1 X96.632 Y98.85 E2.75805
G1 X96.844 Y98.728 E2.7698
