; generated by PrusaSlicer 2.5.0+linux-x64-GTK3 on 2023-01-12 at 19:39:10 UTC

; 

; external perimeters extrusion width = 0.45mm
; perimeters extrusion width = 0.45mm
; infill extrusion width = 0.45mm
; solid infill extrusion width = 0.45mm
; top infill extrusion width = 0.40mm
; first layer extrusion width = 0.70mm

M107
M104 S200 ; set temperature
;TYPE:Custom
G28 ; home all axes
G1 Z5 F5000 ; lift nozzle
M109 S200 ; set temperature and wait for it to be reached
G21 ; set units to millimeters
G90 ; use absolute coordinates
M82 ; use absolute distances for extrusion
G92 E0
; Filament gcode
M107
;LAYER_CHANGE
;Z:0.35
;HEIGHT:0.35
G1 Z.35 F7800
G1 E-2 F2400
G92 E0
G1 X77.914 Y76.639 F7800
G1 E2 F2400
;TYPE:Skirt/Brim
;WIDTH:0.7
G1 F1800
G1 X79.599 Y75.474 E2.18623
G1 X80.989 Y74.835 E2.32532
G1 X81.977 Y74.514 E2.4198
G1 X83.477 Y74.214 E2.55892
G1 X84.76 Y74.135 E2.6758
G1 X115.587 Y74.144 E5.47886
G1 X117.412 Y74.367 E5.64609
G1 X119.01 Y74.835 E5.79744
G1 X120.402 Y75.474 E5.93673
G1 X122.086 Y76.639 E6.12289
G1 X123.513 Y78.106 E6.30906
G1 X124.453 Y79.483 E6.46063
G1 X125.229 Y81.15 E6.62788
G1 X125.705 Y82.926 E6.795
G1 X125.865 Y84.76 E6.96242
G1 X125.845 Y115.759 E9.78118
G1 X125.666 Y117.28 E9.9204
G1 X125.229 Y118.85 E10.06859
G1 X124.453 Y120.517 E10.23583
G1 X123.513 Y121.894 E10.38736
G1 X122.086 Y123.361 E10.57352
G1 X121.199 Y124.032 E10.67462
G1 X120.217 Y124.626 E10.77899
G1 X119.011 Y125.165 E10.89906
G1 X118.023 Y125.486 E10.99354
G1 X116.729 Y125.759 E11.11377
G1 X115.587 Y125.856 E11.21807
G1 X83.995 Y125.834 E14.09064
G1 X82.587 Y125.632 E14.22001
G1 X80.989 Y125.165 E14.37139
G1 X79.6 Y124.527 E14.51044
G1 X78.24 Y123.625 E14.65883
G1 X77.371 Y122.873 E14.76328
G1 X76.487 Y121.894 E14.88324
G1 X75.875 Y121.053 E14.9778
G1 X75.216 Y119.907 E15.09801
G1 X74.771 Y118.851 E15.20222
G1 X74.448 Y117.786 E15.3034
G1 X74.205 Y116.386 E15.43264
G1 X74.135 Y115.24 E15.537
G1 X74.156 Y84.24 E18.3558
G1 X74.333 Y82.721 E18.49487
G1 X74.771 Y81.15 E18.64319
G1 X75.547 Y79.482 E18.81042
G1 X76.486 Y78.107 E18.96189
G1 X77.872 Y76.682 E19.14263
G1 E17.14263 F2400
G92 E0
G1 X86.08 Y110.512 F7800
G1 E2 F2400
;TYPE:Perimeter
;WIDTH:0.7
G1 F1800
G1 X82.932 Y110.512 E2.28626
G1 X82.36 Y110.64 E2.33959
G1 X82.36 Y89.36 E4.27455
G1 X82.932 Y89.488 E4.32788
G1 X86.08 Y89.488 E4.61414
G1 X86.08 Y110.452 E6.52033
G1 X86.705 Y111.204 F7800
G1 F1800
G1 X86.588 Y111.137 E6.53263
G1 X82.932 Y111.137 E6.86506
G1 X82.532 Y111.226 E6.90232
G1 X82.12 Y111.605 E6.95322
G1 X81.735 Y112.273 E7.02331
G1 X81.735 Y87.727 E9.25524
G1 X82.12 Y88.395 E9.32533
G1 X82.532 Y88.774 E9.37623
G1 X82.932 Y88.863 E9.41349
G1 X86.588 Y88.863 E9.74592
G1 X86.705 Y88.796 E9.75822
G1 X86.705 Y111.144 E11.79036
G1 E9.79036 F2400
G92 E0
G1 X82.834 Y81.482 F7800
G1 E2 F2400
;TYPE:External perimeter
;WIDTH:0.459612
G1 F1800
G1 X82.61 Y81.77 E2.02035
;WIDTH:0.462849
G1 X82.037 Y82.757 E2.08475
;WIDTH:0.470197
G1 X81.488 Y83.736 E2.1493
;WIDTH:0.433354
G1 X80.965 Y84.68 E2.20555
G1 X81.026 Y84.16 E2.23283
G1 X81.168 Y83.578 E2.26405
;WIDTH:0.470197
G1 X81.414 Y83.039 E2.29813
G1 X81.722 Y82.534 E2.33213
;WIDTH:0.462849
G1 X82.104 Y82.088 E2.36525
G1 X82.787 Y81.521 E2.41537
G1 X82.596 Y81.758 F7800
G1 E.41537 F2400
G92 E0
G1 X96.15 Y86.08 F7800
G1 E2 F2400
;TYPE:Perimeter
;WIDTH:0.7
G1 F1800
G1 X89.458 Y86.08 E2.60852
G1 X89.769 Y85.541 E2.66513
G1 X89.964 Y84.968 E2.72022
G1 X89.959 Y84.514 E2.7615
G1 X89.769 Y83.979 E2.8131
G1 X88.834 Y82.36 E2.98305
G1 X111.164 Y82.363 E5.0135
G1 X110.231 Y83.979 E5.18319
G1 X110.041 Y84.514 E5.23481
G1 X110.036 Y84.968 E5.27609
G1 X110.231 Y85.541 E5.33115
G1 X110.542 Y86.08 E5.38776
G1 X96.21 Y86.08 E6.69103
G1 X95.986 Y86.705 F7800
G1 F1800
G1 X88.375 Y86.705 E7.38311
G1 X89.228 Y85.229 E7.53813
G1 X89.345 Y84.885 E7.57118
G1 X89.341 Y84.612 E7.59595
G1 X89.228 Y84.291 E7.62691
G1 X87.752 Y81.735 E7.89529
G1 X112.246 Y81.738 E10.12258
G1 X110.772 Y84.291 E10.39067
G1 X110.658 Y84.612 E10.42164
G1 X110.655 Y84.885 E10.44641
G1 X110.772 Y85.229 E10.47945
G1 X111.625 Y86.705 E10.63447
G1 X96.046 Y86.705 E12.051
G1 E10.051 F2400
G92 E0
G1 X117.457 Y81.714 F7800
G1 E2 F2400
;TYPE:External perimeter
;WIDTH:0.462863
G1 F1800
G1 X117.912 Y82.104 E2.03379
G1 X118.296 Y82.558 E2.06738
;WIDTH:0.470185
G1 X118.6 Y83.066 E2.10141
G1 X118.841 Y83.605 E2.13531
;WIDTH:0.433338
G1 X118.977 Y84.175 E2.16586
G1 X119.048 Y84.748 E2.19597
;WIDTH:0.418281
G1 X119.035 Y84.68 E2.19945
;WIDTH:0.433338
G1 X118.512 Y83.736 E2.25569
;WIDTH:0.470185
G1 X117.963 Y82.757 E2.32023
;WIDTH:0.462863
G1 X117.681 Y82.267 E2.3521
G1 X117.204 Y81.515 E2.40234
;WIDTH:0.462676
G1 X117.41 Y81.677 E2.4171
G1 E.4171 F2400
G92 E0
G1 X113.92 Y110.512 F7800
G1 E2 F2400
;TYPE:Perimeter
;WIDTH:0.7
G1 F1800
G1 X113.92 Y89.488 E3.91165
G1 X117.068 Y89.488 E4.19791
G1 X117.64 Y89.36 E4.25123
G1 X117.64 Y110.64 E6.18619
G1 X117.068 Y110.512 E6.23952
G1 X113.98 Y110.512 E6.52033
G1 X113.295 Y111.204 F7800
G1 F1800
G1 X113.295 Y88.796 E8.55791
G1 X113.412 Y88.863 E8.57021
G1 X117.068 Y88.863 E8.90264
G1 X117.468 Y88.774 E8.9399
G1 X117.88 Y88.395 E8.9908
G1 X118.265 Y87.727 E9.0609
G1 X118.265 Y112.273 E11.29282
G1 X117.88 Y111.605 E11.36291
G1 X117.468 Y111.226 E11.41381
G1 X117.068 Y111.137 E11.45107
G1 X113.412 Y111.137 E11.78351
G1 X113.347 Y111.174 E11.79035
G1 E9.79035 F2400
G92 E0
G1 X119.035 Y115.32 F7800
G1 E2 F2400
;TYPE:External perimeter
;WIDTH:0.433343
G1 F1800
G1 X118.974 Y115.84 E2.02728
G1 X118.832 Y116.422 E2.0585
;WIDTH:0.470189
G1 X118.586 Y116.961 E2.09258
G1 X118.278 Y117.466 E2.12658
;WIDTH:0.462849
G1 X117.896 Y117.912 E2.1597
G1 X117.166 Y118.518 E2.21321
;WIDTH:0.459605
G1 X117.39 Y118.231 E2.23355
;WIDTH:0.462849
G1 X117.963 Y117.243 E2.29796
;WIDTH:0.470189
G1 X118.512 Y116.264 E2.3625
;WIDTH:0.433343
G1 X119.007 Y115.373 E2.41562
G1 E.41562 F2400
G92 E0
G1 X89.844 Y114.68 F7800
G1 E2 F2400
;TYPE:Perimeter
;WIDTH:0.7
G1 F1800
G1 X89.769 Y114.459 E2.02128
G1 X89.458 Y113.92 E2.07789
G1 X110.542 Y113.92 E3.99513
G1 X110.231 Y114.459 E4.05174
G1 X110.036 Y115.032 E4.10684
G1 X110.041 Y115.486 E4.14812
G1 X110.231 Y116.021 E4.1997
G1 X111.166 Y117.64 E4.36971
G1 X88.834 Y117.64 E6.40034
G1 X89.769 Y116.021 E6.57034
G1 X89.959 Y115.486 E6.62192
G1 X89.964 Y115.032 E6.66321
G1 X89.864 Y114.737 E6.69157
G1 X89.265 Y114.882 F7800
G1 F1800
G1 X89.228 Y114.771 E6.70221
G1 X88.375 Y113.295 E6.85723
G1 X111.625 Y113.295 E8.97131
G1 X110.772 Y114.771 E9.12633
G1 X110.655 Y115.115 E9.15939
G1 X110.659 Y115.388 E9.18416
G1 X110.772 Y115.709 E9.21511
G1 X112.248 Y118.265 E9.48353
G1 X87.752 Y118.265 E11.71099
G1 X89.228 Y115.709 E11.97941
G1 X89.341 Y115.388 E12.01036
G1 X89.345 Y115.115 E12.03513
G1 X89.285 Y114.939 E12.05209
G1 E10.05209 F2400
G92 E0
G1 X82.543 Y118.286 F7800
G1 E2 F2400
;TYPE:External perimeter
;WIDTH:0.462854
G1 F1800
G1 X82.089 Y117.897 E2.03374
G1 X81.704 Y117.442 E2.06737
;WIDTH:0.470204
G1 X81.4 Y116.934 E2.10141
G1 X81.159 Y116.395 E2.13531
;WIDTH:0.43336
G1 X81.023 Y115.825 E2.16587
G1 X80.955 Y115.278 E2.19459
;WIDTH:0.417075
G1 X80.965 Y115.32 E2.19673
;WIDTH:0.43336
G1 X81.488 Y116.264 E2.25298
;WIDTH:0.470204
G1 X82.037 Y117.243 E2.31753
;WIDTH:0.462854
G1 X82.32 Y117.733 E2.34945
G1 X82.796 Y118.485 E2.39963
;WIDTH:0.462674
G1 X82.59 Y118.323 E2.41439
G1 E.41439 F2400
G92 E0
G1 X112.535 Y112.436 F7800
G1 E2 F2400
;WIDTH:0.623716
G1 F1800
G1 X112.476 Y112.514 E2.00782
;WIDTH:0.661858
G1 X112.417 Y112.592 E2.01618
;WIDTH:0.7
G1 X112.358 Y112.67 E2.02508
G1 X87.642 Y112.67 E4.27241
;WIDTH:0.699144
G1 X87.557 Y112.566 E4.28461
;WIDTH:0.661267
G1 X87.472 Y112.462 E4.29607
;WIDTH:0.623391
G1 X87.387 Y112.358 E4.30679
;WIDTH:0.623676
G1 X87.368 Y112.169 E4.32194
;WIDTH:0.661838
G1 X87.349 Y111.98 E4.33813
;WIDTH:0.7
G1 X87.33 Y111.791 E4.35538
G1 X87.33 Y88.209 E6.49975
G1 X87.349 Y88.067 E6.51273
;WIDTH:0.661864
G1 X87.368 Y87.926 E6.52493
;WIDTH:0.623729
G1 X87.387 Y87.784 E6.53633
;WIDTH:0.585593
G1 X87.406 Y87.642 E6.54694
G1 X87.465 Y87.564 E6.55421
;WIDTH:0.623729
G1 X87.524 Y87.486 E6.56203
;WIDTH:0.661864
G1 X87.583 Y87.408 E6.57039
;WIDTH:0.7
G1 X87.642 Y87.33 E6.57929
G1 X112.358 Y87.33 E8.82663
;WIDTH:0.699139
G1 X112.443 Y87.434 E8.83883
;WIDTH:0.661261
G1 X112.528 Y87.538 E8.85029
;WIDTH:0.623383
G1 X112.613 Y87.642 E8.86101
;WIDTH:0.62367
G1 X112.632 Y87.831 E8.87615
;WIDTH:0.661835
G1 X112.651 Y88.02 E8.89234
;WIDTH:0.7
G1 X112.67 Y88.209 E8.90959
G1 X112.67 Y111.791 E11.05396
G1 X112.651 Y111.933 E11.06694
;WIDTH:0.661858
G1 X112.632 Y112.074 E11.07914
;WIDTH:0.623716
G1 X112.613 Y112.216 E11.09054
;WIDTH:0.585574
G1 X112.594 Y112.358 E11.10115
G1 X112.571 Y112.388 E11.10397
G1 X112.582 Y112.522 F7800
G1 E9.10397 F2400
G92 E0
G1 X88.686 Y115.084 F7800
G1 E2 F2400
;WIDTH:0.7
G1 F1800
G1 X87.467 Y112.973 E2.22165
;WIDTH:0.699144
G1 X87.409 Y112.919 E2.22884
;WIDTH:0.652062
G1 X87.351 Y112.865 E2.2355
;WIDTH:0.604981
G1 X87.293 Y112.812 E2.2416
;WIDTH:0.5579
G1 X87.234 Y112.758 E2.24717
;WIDTH:0.510819
G1 X87.176 Y112.704 E2.25219
;WIDTH:0.50433
G1 X87.148 Y112.615 E2.25803
;WIDTH:0.544922
G1 X87.12 Y112.526 E2.26443
;WIDTH:0.585515
G1 X87.092 Y112.437 E2.27137
;WIDTH:0.623676
G1 X87.014 Y112.264 E2.28651
;WIDTH:0.661838
G1 X86.936 Y112.091 E2.30271
;WIDTH:0.7
G1 X86.859 Y111.918 E2.31996
G1 X86.588 Y111.761 E2.34837
G1 X82.932 Y111.761 E2.6808
G1 X82.799 Y111.791 E2.69322
G1 X82.661 Y111.918 E2.71018
G1 X81.11 Y114.605 E2.99234
G1 X81.11 Y85.395 E5.64838
G1 X82.661 Y88.082 E5.93053
G1 X82.799 Y88.209 E5.9475
G1 X82.932 Y88.239 E5.95992
G1 X86.588 Y88.239 E6.29234
G1 X86.859 Y88.082 E6.32075
G1 X86.909 Y87.948 E6.33377
;WIDTH:0.652748
G1 X86.959 Y87.814 E6.3458
;WIDTH:0.605497
G1 X87.009 Y87.68 E6.35684
;WIDTH:0.558246
G1 X87.059 Y87.546 E6.3669
;WIDTH:0.510995
G1 X87.109 Y87.412 E6.37598
G1 X87.181 Y87.335 E6.38265
;WIDTH:0.558246
G1 X87.253 Y87.258 E6.39005
;WIDTH:0.605497
G1 X87.324 Y87.181 E6.39817
;WIDTH:0.652748
G1 X87.396 Y87.104 E6.40701
;WIDTH:0.7
G1 X87.468 Y87.027 E6.41657
G1 X88.686 Y84.916 E6.63822
G1 X88.726 Y84.802 E6.64924
G1 X88.686 Y84.604 E6.66757
G1 X86.859 Y81.438 E7
G1 X86.804 Y81.429 E7.00498
;WIDTH:0.654639
G1 X86.75 Y81.421 E7.0096
;WIDTH:0.609278
G1 X86.696 Y81.412 E7.01386
;WIDTH:0.563917
G1 X86.642 Y81.403 E7.01775
;WIDTH:0.518556
G1 X86.588 Y81.395 E7.02129
;WIDTH:0.473297
G1 X84.199 Y81.406 E7.1597
;WIDTH:0.450584
G1 X83.631 Y81.406 E7.19074
G1 X82.932 Y81.434 E7.22896
;WIDTH:0.433327
G1 X83.04 Y81.379 E7.23526
;WIDTH:0.450584
G1 X83.603 Y81.169 E7.26812
G1 X84.184 Y81.031 E7.30076
;WIDTH:0.473297
G1 X84.769 Y80.997 E7.33471
G1 X86.588 Y80.997 E7.44009
;WIDTH:0.518555
G1 X86.68 Y81.019 E7.4462
;WIDTH:0.563916
G1 X86.772 Y81.042 E7.45293
;WIDTH:0.609277
G1 X86.864 Y81.065 E7.46029
;WIDTH:0.654638
G1 X86.956 Y81.088 E7.46828
;WIDTH:0.7
G1 X87.048 Y81.11 E7.47689
G1 X112.954 Y81.113 E9.83255
G1 X113.046 Y81.09 E9.84114
;WIDTH:0.654332
G1 X113.137 Y81.068 E9.84909
;WIDTH:0.608664
G1 X113.229 Y81.045 E9.85642
;WIDTH:0.562997
G1 X113.32 Y81.022 E9.86312
;WIDTH:0.517329
G1 X113.412 Y80.999 E9.86919
;WIDTH:0.471662
G1 X115.267 Y80.999 E9.97625
;WIDTH:0.471555
G1 X115.845 Y81.036 E10.00963
;WIDTH:0.450586
G1 X116.415 Y81.174 E10.04169
G1 X117.068 Y81.434 E10.08009
;WIDTH:0.431059
G1 X116.951 Y81.428 E10.08614
;WIDTH:0.450586
G1 X115.801 Y81.406 E10.14901
;WIDTH:0.471555
G1 X115.267 Y81.396 E10.1798
;WIDTH:0.471662
G1 X113.412 Y81.396 E10.28685
;WIDTH:0.517329
G1 X113.358 Y81.404 E10.29037
;WIDTH:0.562997
G1 X113.304 Y81.412 E10.29426
;WIDTH:0.608664
G1 X113.25 Y81.421 E10.29851
;WIDTH:0.654332
G1 X113.196 Y81.429 E10.30313
;WIDTH:0.7
G1 X113.141 Y81.438 E10.30811
G1 X111.314 Y84.604 E10.64053
G1 X111.276 Y84.711 E10.65086
G1 X111.314 Y84.916 E10.66985
G1 X112.533 Y87.027 E10.89151
;WIDTH:0.699139
G1 X112.591 Y87.081 E10.8987
;WIDTH:0.652056
G1 X112.649 Y87.135 E10.90535
;WIDTH:0.604974
G1 X112.707 Y87.188 E10.91146
;WIDTH:0.557891
G1 X112.766 Y87.242 E10.91702
;WIDTH:0.510809
G1 X112.824 Y87.296 E10.92205
;WIDTH:0.504319
G1 X112.852 Y87.385 E10.92789
;WIDTH:0.544912
G1 X112.88 Y87.474 E10.93428
;WIDTH:0.585505
G1 X112.908 Y87.563 E10.94122
;WIDTH:0.62367
G1 X112.986 Y87.736 E10.95637
;WIDTH:0.661835
G1 X113.064 Y87.909 E10.97256
;WIDTH:0.7
G1 X113.141 Y88.082 E10.98981
G1 X113.412 Y88.239 E11.01822
G1 X117.068 Y88.239 E11.35065
G1 X117.201 Y88.209 E11.36307
G1 X117.339 Y88.082 E11.38004
G1 X118.89 Y85.395 E11.66219
G1 X118.89 Y114.605 E14.31823
G1 X117.339 Y111.918 E14.60038
G1 X117.201 Y111.791 E14.61735
G1 X117.068 Y111.761 E14.62977
G1 X113.412 Y111.761 E14.9622
G1 X113.141 Y111.918 E14.99061
G1 X113.091 Y112.052 E15.00363
;WIDTH:0.652744
G1 X113.041 Y112.186 E15.01566
;WIDTH:0.605488
G1 X112.991 Y112.32 E15.0267
;WIDTH:0.558232
G1 X112.941 Y112.454 E15.03676
;WIDTH:0.510976
G1 X112.891 Y112.588 E15.04584
G1 X112.819 Y112.665 E15.05251
;WIDTH:0.558232
G1 X112.747 Y112.742 E15.0599
;WIDTH:0.605488
G1 X112.676 Y112.819 E15.06802
;WIDTH:0.652744
G1 X112.604 Y112.896 E15.07686
;WIDTH:0.7
G1 X112.532 Y112.973 E15.08643
G1 X111.314 Y115.084 E15.30808
G1 X111.274 Y115.198 E15.3191
G1 X111.314 Y115.396 E15.33743
G1 X113.141 Y118.562 E15.66985
G1 X113.196 Y118.571 E15.67484
;WIDTH:0.654656
G1 X113.25 Y118.579 E15.67946
;WIDTH:0.609313
G1 X113.304 Y118.588 E15.68372
;WIDTH:0.563969
G1 X113.358 Y118.597 E15.68761
;WIDTH:0.518626
G1 X113.412 Y118.605 E15.69115
;WIDTH:0.473282
G1 X115.801 Y118.594 E15.82956
;WIDTH:0.450591
G1 X116.369 Y118.594 E15.8606
G1 X117.068 Y118.566 E15.89882
;WIDTH:0.433325
G1 X116.961 Y118.621 E15.90511
;WIDTH:0.450591
G1 X116.397 Y118.831 E15.93798
G1 X115.816 Y118.969 E15.97063
;WIDTH:0.473283
G1 X115.231 Y119.003 E16.00457
G1 X113.412 Y119.003 E16.10995
;WIDTH:0.518626
G1 X113.32 Y118.981 E16.11606
;WIDTH:0.563969
G1 X113.228 Y118.958 E16.1228
;WIDTH:0.609313
G1 X113.136 Y118.935 E16.13016
;WIDTH:0.654656
G1 X113.044 Y118.913 E16.13815
;WIDTH:0.7
G1 X112.952 Y118.89 E16.14676
G1 X87.048 Y118.89 E18.50224
G1 X86.956 Y118.913 E18.51086
;WIDTH:0.654656
G1 X86.864 Y118.935 E18.51884
;WIDTH:0.609313
G1 X86.772 Y118.958 E18.5262
;WIDTH:0.563969
G1 X86.68 Y118.981 E18.53294
;WIDTH:0.518626
G1 X86.588 Y119.003 E18.53905
;WIDTH:0.473282
G1 X84.777 Y119.003 E18.64397
G1 X84.155 Y118.964 E18.68007
;WIDTH:0.450592
G1 X83.585 Y118.826 E18.71213
G1 X82.932 Y118.566 E18.75053
;WIDTH:0.430972
G1 X83.048 Y118.572 E18.75653
;WIDTH:0.450592
G1 X84.199 Y118.594 E18.81945
;WIDTH:0.473283
G1 X86.588 Y118.605 E18.95786
;WIDTH:0.518626
G1 X86.642 Y118.597 E18.9614
;WIDTH:0.563969
G1 X86.696 Y118.588 E18.96529
;WIDTH:0.609313
G1 X86.75 Y118.579 E18.96955
;WIDTH:0.654656
G1 X86.804 Y118.571 E18.97417
;WIDTH:0.7
G1 X86.859 Y118.562 E18.97916
G1 X88.686 Y115.396 E19.31159
G1 X88.724 Y115.289 E19.3219
G1 X88.697 Y115.143 E19.33545
G1 X88.944 Y114.777 F7800
G1 E17.33545 F2400
G92 E0
G1 X108.873 Y114.107 F7800
G1 E2 F2400
;TYPE:Solid infill
;WIDTH:0.716912
G1 F1800
G1 X109.611 Y114.845 E2.09748
G1 X109.57 Y114.966 E2.10939
G1 X109.577 Y115.564 E2.16521
G1 X109.663 Y115.805 E2.18912
G1 X108.246 Y114.388 E2.37621
G1 X107.339 Y114.388 E2.46097
G1 X110.122 Y117.172 E2.82856
G1 X109.214 Y117.172 E2.91332
G1 X106.431 Y114.388 E3.28091
G1 X105.523 Y114.388 E3.36567
G1 X108.306 Y117.172 E3.73325
G1 X107.399 Y117.172 E3.81802
G1 X104.616 Y114.388 E4.1856
G1 X103.708 Y114.388 E4.27037
G1 X106.491 Y117.172 E4.63795
G1 X105.583 Y117.172 E4.72271
G1 X102.8 Y114.388 E5.0903
G1 X101.893 Y114.388 E5.17506
G1 X104.676 Y117.172 E5.54265
G1 X103.768 Y117.172 E5.62741
G1 X100.985 Y114.388 E5.99499
G1 X100.077 Y114.388 E6.07976
G1 X102.861 Y117.172 E6.44734
G1 X101.953 Y117.172 E6.53211
G1 X99.17 Y114.388 E6.89969
G1 X98.262 Y114.388 E6.98445
G1 X101.045 Y117.172 E7.35204
G1 X100.138 Y117.172 E7.4368
G1 X97.354 Y114.388 E7.80438
G1 X96.447 Y114.388 E7.88915
G1 X99.23 Y117.172 E8.25673
G1 X98.322 Y117.172 E8.3415
G1 X95.539 Y114.388 E8.70908
G1 X94.632 Y114.388 E8.79385
G1 X97.415 Y117.172 E9.16143
G1 X96.507 Y117.172 E9.24619
G1 X93.724 Y114.388 E9.61378
G1 X92.816 Y114.388 E9.69854
