; generated by PrusaSlicer 2.5.0+linux-x64-GTK3 on 2023-01-12 at 19:39:02 UTC

; 

; external perimeters extrusion width = 0.45mm
; perimeters extrusion width = 0.45mm
; infill extrusion width = 0.45mm
; solid infill extrusion width = 0.45mm
; top infill extrusion width = 0.40mm
; first layer extrusion width = 0.70mm

M107
M104 S200 ; set temperature
;TYPE:Custom
G28 ; home all axes
G1 Z5 F5000 ; lift nozzle
M109 S200 ; set temperature and wait for it to be reached
G21 ; set units to millimeters
G90 ; use absolute coordinates
M82 ; use absolute distances for extrusion
G92 E0
; Filament gcode
M107
;LAYER_CHANGE
;Z:0.35
;HEIGHT:0.35
G1 Z.35 F7800
G1 E-2 F2400
G92 E0
G1 X76.894 Y72.549 F7800
G1 E2 F2400
;TYPE:Skirt/Brim
;WIDTH:0.7
G1 F1800
G1 X77.914 Y71.559 E2.12929
G1 X78.801 Y70.888 E2.23038
G1 X79.783 Y70.294 E2.33474
G1 X80.989 Y69.755 E2.45484
G1 X81.977 Y69.434 E2.54932
G1 X83.269 Y69.161 E2.66944
G1 X84.76 Y69.055 E2.80532
G1 X115.587 Y69.064 E5.60838
G1 X117.412 Y69.287 E5.77561
G1 X119.01 Y69.755 E5.92696
G1 X120.402 Y70.394 E6.06625
G1 X122.086 Y71.559 E6.25242
G1 X123.513 Y73.026 E6.43859
G1 X124.453 Y74.403 E6.59016
G1 X125.229 Y76.07 E6.7574
G1 X125.705 Y77.846 E6.92453
G1 X125.865 Y79.68 E7.09194
G1 X125.865 Y120.32 E10.78732
G1 X125.795 Y121.465 E10.89163
G1 X125.552 Y122.866 E11.02097
G1 X125.079 Y124.321 E11.16002
G1 X124.453 Y125.597 E11.28932
G1 X123.513 Y126.974 E11.44085
G1 X122.629 Y127.953 E11.5608
G1 X121.76 Y128.705 E11.66529
G1 X120.848 Y129.34 E11.76637
G1 X119.591 Y130.005 E11.89565
G1 X118.023 Y130.566 E12.04709
G1 X116.005 Y130.914 E12.23334
G1 X84.413 Y130.936 E15.10592
G1 X83.271 Y130.839 E15.21021
G1 X81.977 Y130.566 E15.33046
G1 X80.409 Y130.005 E15.48189
G1 X79.152 Y129.34 E15.61113
G1 X78.24 Y128.705 E15.71227
G1 X77.371 Y127.953 E15.81672
G1 X76.487 Y126.974 E15.93667
G1 X75.547 Y125.598 E16.0882
G1 X74.921 Y124.322 E16.21745
G1 X74.557 Y123.27 E16.31862
G1 X74.295 Y122.153 E16.42297
G1 X74.156 Y120.84 E16.54304
G1 X74.135 Y79.68 E20.28569
G1 X74.205 Y78.534 E20.39005
G1 X74.448 Y77.134 E20.51932
G1 X74.921 Y75.679 E20.65842
G1 X75.547 Y74.402 E20.7877
G1 X76.859 Y72.598 E20.99056
G1 E18.99056 F2400
G92 E0
G1 X86.08 Y115.592 F7800
G1 E2 F2400
;TYPE:Perimeter
;WIDTH:0.7
G1 F1800
G1 X82.932 Y115.592 E2.28626
G1 X82.36 Y115.72 E2.33959
G1 X82.36 Y84.28 E5.19839
G1 X82.932 Y84.408 E5.25172
G1 X86.08 Y84.408 E5.53798
G1 X86.08 Y115.532 E8.36801
G1 X86.705 Y116.284 F7800
G1 F1800
G1 X86.588 Y116.217 E8.38032
G1 X82.932 Y116.217 E8.71274
G1 X82.532 Y116.306 E8.75001
G1 X82.12 Y116.685 E8.80091
G1 X81.735 Y117.353 E8.871
G1 X81.735 Y82.647 E12.02677
G1 X82.12 Y83.315 E12.09686
G1 X82.532 Y83.694 E12.14776
G1 X82.932 Y83.783 E12.18502
G1 X86.588 Y83.783 E12.51745
G1 X86.705 Y83.716 E12.52975
G1 X86.705 Y116.224 E15.48573
G1 E13.48573 F2400
G92 E0
G1 X80.965 Y79.6 F7800
G1 E2 F2400
;TYPE:External perimeter
;WIDTH:0.433321
G1 F1800
G1 X81.026 Y79.081 E2.02723
G1 X81.168 Y78.498 E2.0585
;WIDTH:0.470185
G1 X81.414 Y77.958 E2.09263
G1 X81.722 Y77.454 E2.12657
;WIDTH:0.462849
G1 X82.105 Y77.008 E2.15975
G1 X82.834 Y76.402 E2.2132
;WIDTH:0.459671
G1 X82.61 Y76.69 E2.23358
;WIDTH:0.462849
G1 X82.037 Y77.677 E2.29796
;WIDTH:0.470185
G1 X81.488 Y78.656 E2.3625
;WIDTH:0.433321
G1 X80.993 Y79.547 E2.41562
G1 E.41562 F2400
G92 E0
G1 X98.763 Y81 F7800
G1 E2 F2400
;TYPE:Perimeter
;WIDTH:0.7
G1 F1800
G1 X89.458 Y81 E2.84611
G1 X89.769 Y80.461 E2.90271
G1 X89.964 Y79.888 E2.9578
G1 X89.959 Y79.434 E2.99909
G1 X89.769 Y78.899 E3.05068
G1 X88.834 Y77.28 E3.22063
G1 X111.164 Y77.283 E5.25109
G1 X110.231 Y78.899 E5.42077
G1 X110.041 Y79.434 E5.4724
G1 X110.036 Y79.888 E5.51367
G1 X110.231 Y80.461 E5.56874
G1 X110.542 Y81 E5.62535
G1 X98.823 Y81 E6.69103
G1 X98.6 Y81.625 F7800
G1 F1800
G1 X88.375 Y81.625 E7.62076
G1 X89.228 Y80.149 E7.77578
G1 X89.345 Y79.805 E7.80883
G1 X89.341 Y79.532 E7.8336
G1 X89.228 Y79.211 E7.86456
G1 X87.752 Y76.655 E8.13294
G1 X112.246 Y76.658 E10.36023
G1 X110.772 Y79.211 E10.62831
G1 X110.658 Y79.532 E10.65929
G1 X110.655 Y79.805 E10.68405
G1 X110.772 Y80.149 E10.71709
G1 X111.625 Y81.625 E10.87212
G1 X98.66 Y81.625 E12.051
G1 E10.051 F2400
G92 E0
G1 X119.035 Y79.6 F7800
G1 E2 F2400
;TYPE:External perimeter
;WIDTH:0.433337
G1 F1800
G1 X118.512 Y78.656 E2.05624
;WIDTH:0.470185
G1 X117.963 Y77.677 E2.12079
;WIDTH:0.462863
G1 X117.681 Y77.187 E2.15266
G1 X117.204 Y76.435 E2.20289
;WIDTH:0.462676
G1 X117.457 Y76.634 E2.22104
;WIDTH:0.462863
G1 X117.912 Y77.024 E2.25483
G1 X118.296 Y77.478 E2.28841
;WIDTH:0.470185
G1 X118.6 Y77.986 E2.32245
G1 X118.841 Y78.525 E2.35635
;WIDTH:0.433337
G1 X118.977 Y79.095 E2.3869
G1 X119.048 Y79.668 E2.41701
;WIDTH:0.418281
G1 X119.046 Y79.659 E2.41749
G1 E.41749 F2400
G92 E0
G1 X113.92 Y115.592 F7800
G1 E2 F2400
;TYPE:Perimeter
;WIDTH:0.7
G1 F1800
G1 X113.92 Y84.408 E4.83549
G1 X117.068 Y84.408 E5.12175
G1 X117.64 Y84.28 E5.17508
G1 X117.64 Y115.72 E8.03388
G1 X117.068 Y115.592 E8.08721
G1 X113.98 Y115.592 E8.36801
G1 X113.295 Y116.284 F7800
G1 F1800
G1 X113.295 Y83.716 E11.32944
G1 X113.412 Y83.783 E11.34174
G1 X117.068 Y83.783 E11.67417
G1 X117.468 Y83.694 E11.71144
G1 X117.88 Y83.315 E11.76234
G1 X118.265 Y82.647 E11.83243
G1 X118.265 Y117.353 E14.9882
G1 X117.88 Y116.685 E15.05829
G1 X117.468 Y116.306 E15.10919
G1 X117.068 Y116.217 E15.14645
G1 X113.412 Y116.217 E15.47888
G1 X113.347 Y116.254 E15.48572
G1 E13.48572 F2400
G92 E0
G1 X117.166 Y123.598 F7800
G1 E2 F2400
;TYPE:External perimeter
;WIDTH:0.459665
G1 F1800
G1 X117.39 Y123.31 E2.02038
;WIDTH:0.462848
G1 X117.963 Y122.323 E2.08476
;WIDTH:0.470177
G1 X118.512 Y121.344 E2.1493
;WIDTH:0.433309
G1 X119.035 Y120.4 E2.20554
G1 X118.974 Y120.919 E2.23276
G1 X118.832 Y121.502 E2.26403
;WIDTH:0.470177
G1 X118.586 Y122.042 E2.29817
G1 X118.278 Y122.546 E2.33211
;WIDTH:0.462848
G1 X117.895 Y122.992 E2.36529
G1 X117.213 Y123.559 E2.41535
G1 X117.404 Y123.322 F7800
G1 E.41535 F2400
G92 E0
G1 X89.844 Y119.76 F7800
G1 E2 F2400
;TYPE:Perimeter
;WIDTH:0.7
G1 F1800
G1 X89.769 Y119.539 E2.02128
G1 X89.458 Y119 E2.07789
G1 X110.542 Y119 E3.99513
G1 X110.231 Y119.539 E4.05174
G1 X110.036 Y120.112 E4.10684
G1 X110.041 Y120.566 E4.14812
G1 X110.231 Y121.101 E4.1997
G1 X111.166 Y122.72 E4.3697
G1 X88.834 Y122.72 E6.40034
G1 X89.769 Y121.101 E6.57034
G1 X89.959 Y120.566 E6.62192
G1 X89.964 Y120.112 E6.66321
G1 X89.864 Y119.817 E6.69157
G1 X89.265 Y119.962 F7800
G1 F1800
G1 X89.228 Y119.851 E6.70221
G1 X88.375 Y118.375 E6.85723
G1 X111.625 Y118.375 E8.97131
G1 X110.772 Y119.851 E9.12633
G1 X110.655 Y120.195 E9.15939
G1 X110.659 Y120.468 E9.18416
G1 X110.772 Y120.789 E9.21511
G1 X112.248 Y123.345 E9.48352
G1 X87.752 Y123.345 E11.71099
G1 X89.228 Y120.789 E11.97941
G1 X89.341 Y120.468 E12.01036
G1 X89.345 Y120.195 E12.03513
G1 X89.285 Y120.019 E12.05209
G1 E10.05209 F2400
G92 E0
G1 X80.965 Y120.4 F7800
G1 E2 F2400
;TYPE:External perimeter
;WIDTH:0.433291
G1 F1800
G1 X81.488 Y121.343 E2.05621
;WIDTH:0.47019
G1 X82.037 Y122.323 E2.12079
;WIDTH:0.462854
G1 X82.319 Y122.813 E2.15265
G1 X82.796 Y123.565 E2.20289
;WIDTH:0.462673
G1 X82.543 Y123.366 E2.22103
;WIDTH:0.462854
G1 X82.088 Y122.976 E2.25483
G1 X81.704 Y122.522 E2.2884
;WIDTH:0.47019
G1 X81.4 Y122.015 E2.32239
G1 X81.159 Y121.475 E2.35637
;WIDTH:0.433291
G1 X81.023 Y120.905 E2.3869
G1 X80.957 Y120.375 E2.41473
G1 X81.12 Y120.769 F7800
G1 E.41473 F2400
G92 E0
G1 X112.535 Y117.516 F7800
G1 E2 F2400
;WIDTH:0.623716
G1 F1800
G1 X112.476 Y117.594 E2.00782
;WIDTH:0.661858
G1 X112.417 Y117.672 E2.01618
;WIDTH:0.7
G1 X112.358 Y117.75 E2.02508
G1 X87.642 Y117.75 E4.27241
;WIDTH:0.699144
G1 X87.557 Y117.646 E4.28461
;WIDTH:0.661267
G1 X87.472 Y117.542 E4.29607
;WIDTH:0.623391
G1 X87.387 Y117.438 E4.30679
;WIDTH:0.623676
G1 X87.368 Y117.249 E4.32194
;WIDTH:0.661838
G1 X87.349 Y117.06 E4.33813
;WIDTH:0.7
G1 X87.33 Y116.871 E4.35538
G1 X87.33 Y83.129 E7.42359
G1 X87.349 Y82.987 E7.43658
;WIDTH:0.661864
G1 X87.368 Y82.846 E7.44877
;WIDTH:0.623729
G1 X87.387 Y82.704 E7.46017
;WIDTH:0.585594
G1 X87.406 Y82.562 E7.47078
G1 X87.465 Y82.484 E7.47806
;WIDTH:0.623729
G1 X87.524 Y82.406 E7.48587
;WIDTH:0.661864
G1 X87.583 Y82.328 E7.49423
;WIDTH:0.7
G1 X87.642 Y82.25 E7.50314
G1 X112.358 Y82.25 E9.75047
;WIDTH:0.699139
G1 X112.443 Y82.354 E9.76267
;WIDTH:0.661261
G1 X112.528 Y82.458 E9.77413
;WIDTH:0.623383
G1 X112.613 Y82.562 E9.78485
;WIDTH:0.62367
G1 X112.632 Y82.751 E9.79999
;WIDTH:0.661835
G1 X112.651 Y82.94 E9.81618
;WIDTH:0.7
G1 X112.67 Y83.129 E9.83343
G1 X112.67 Y116.871 E12.90165
G1 X112.651 Y117.013 E12.91463
;WIDTH:0.661858
G1 X112.632 Y117.154 E12.92683
;WIDTH:0.623716
G1 X112.613 Y117.296 E12.93823
;WIDTH:0.585574
G1 X112.594 Y117.438 E12.94884
G1 X112.571 Y117.468 E12.95165
G1 X112.582 Y117.602 F7800
G1 E10.95165 F2400
G92 E0
G1 X88.686 Y120.164 F7800
G1 E2 F2400
;WIDTH:0.7
G1 F1800
G1 X87.467 Y118.053 E2.22165
;WIDTH:0.699144
G1 X87.409 Y117.999 E2.22884
;WIDTH:0.652062
G1 X87.351 Y117.945 E2.2355
;WIDTH:0.604981
G1 X87.293 Y117.892 E2.2416
;WIDTH:0.5579
G1 X87.234 Y117.838 E2.24717
;WIDTH:0.510819
G1 X87.176 Y117.784 E2.25219
;WIDTH:0.50433
G1 X87.148 Y117.695 E2.25803
;WIDTH:0.544922
G1 X87.12 Y117.606 E2.26443
;WIDTH:0.585515
G1 X87.092 Y117.517 E2.27137
;WIDTH:0.623676
G1 X87.014 Y117.344 E2.28651
;WIDTH:0.661838
G1 X86.936 Y117.171 E2.30271
;WIDTH:0.7
G1 X86.859 Y116.998 E2.31996
G1 X86.588 Y116.841 E2.34837
G1 X82.932 Y116.841 E2.6808
G1 X82.799 Y116.871 E2.69322
G1 X82.661 Y116.998 E2.71018
G1 X81.11 Y119.685 E2.99234
G1 X81.11 Y80.315 E6.57222
G1 X82.661 Y83.002 E6.85437
G1 X82.799 Y83.129 E6.87134
G1 X82.932 Y83.159 E6.88376
G1 X86.588 Y83.159 E7.21619
G1 X86.859 Y83.002 E7.2446
G1 X86.909 Y82.868 E7.25761
;WIDTH:0.652749
G1 X86.959 Y82.734 E7.26964
;WIDTH:0.605498
G1 X87.009 Y82.6 E7.28068
;WIDTH:0.558247
G1 X87.059 Y82.466 E7.29075
;WIDTH:0.510996
G1 X87.109 Y82.332 E7.29982
G1 X87.181 Y82.255 E7.30649
;WIDTH:0.558247
G1 X87.253 Y82.178 E7.31389
;WIDTH:0.605498
G1 X87.324 Y82.101 E7.32201
;WIDTH:0.652749
G1 X87.396 Y82.024 E7.33085
;WIDTH:0.7
G1 X87.468 Y81.947 E7.34042
G1 X88.686 Y79.836 E7.56207
G1 X88.726 Y79.722 E7.57308
G1 X88.686 Y79.524 E7.59141
G1 X86.859 Y76.358 E7.92384
G1 X86.804 Y76.349 E7.92882
;WIDTH:0.654639
G1 X86.75 Y76.341 E7.93344
;WIDTH:0.609278
G1 X86.696 Y76.332 E7.9377
;WIDTH:0.563917
G1 X86.642 Y76.323 E7.9416
;WIDTH:0.518556
G1 X86.588 Y76.315 E7.94513
;WIDTH:0.473297
G1 X84.199 Y76.326 E8.08355
;WIDTH:0.450585
G1 X83.631 Y76.326 E8.11458
G1 X82.932 Y76.354 E8.1528
;WIDTH:0.433328
G1 X83.04 Y76.299 E8.1591
;WIDTH:0.450585
G1 X83.603 Y76.089 E8.19197
G1 X84.184 Y75.951 E8.2246
;WIDTH:0.473297
G1 X84.769 Y75.917 E8.25856
G1 X86.588 Y75.917 E8.36393
;WIDTH:0.518555
G1 X86.68 Y75.939 E8.37004
;WIDTH:0.563916
G1 X86.772 Y75.962 E8.37678
;WIDTH:0.609277
G1 X86.864 Y75.985 E8.38414
;WIDTH:0.654638
G1 X86.956 Y76.008 E8.39212
;WIDTH:0.7
G1 X87.048 Y76.03 E8.40073
G1 X112.954 Y76.033 E10.7564
G1 X113.046 Y76.01 E10.76498
;WIDTH:0.654332
G1 X113.137 Y75.988 E10.77294
;WIDTH:0.608664
G1 X113.229 Y75.965 E10.78026
;WIDTH:0.562997
G1 X113.32 Y75.942 E10.78696
;WIDTH:0.517329
G1 X113.412 Y75.919 E10.79304
;WIDTH:0.471662
G1 X115.267 Y75.919 E10.90009
;WIDTH:0.471556
G1 X115.845 Y75.956 E10.93347
;WIDTH:0.450586
G1 X116.415 Y76.094 E10.96553
G1 X117.068 Y76.354 E11.00393
;WIDTH:0.431059
G1 X116.951 Y76.348 E11.00999
;WIDTH:0.450586
G1 X115.801 Y76.326 E11.07285
;WIDTH:0.471556
G1 X115.267 Y76.316 E11.10364
;WIDTH:0.471662
G1 X113.412 Y76.316 E11.21069
;WIDTH:0.517329
G1 X113.358 Y76.324 E11.21422
;WIDTH:0.562997
G1 X113.304 Y76.332 E11.21811
;WIDTH:0.608664
G1 X113.25 Y76.341 E11.22236
;WIDTH:0.654332
G1 X113.196 Y76.349 E11.22697
;WIDTH:0.7
G1 X113.141 Y76.358 E11.23195
G1 X111.314 Y79.524 E11.56438
G1 X111.276 Y79.631 E11.5747
G1 X111.314 Y79.836 E11.5937
G1 X112.533 Y81.947 E11.81535
;WIDTH:0.699139
G1 X112.591 Y82.001 E11.82254
;WIDTH:0.652056
G1 X112.649 Y82.055 E11.82919
;WIDTH:0.604974
G1 X112.707 Y82.108 E11.8353
;WIDTH:0.557891
G1 X112.766 Y82.162 E11.84087
;WIDTH:0.510809
G1 X112.824 Y82.216 E11.84589
;WIDTH:0.504319
G1 X112.852 Y82.305 E11.85173
;WIDTH:0.544912
G1 X112.88 Y82.394 E11.85812
;WIDTH:0.585505
G1 X112.908 Y82.483 E11.86507
;WIDTH:0.62367
G1 X112.986 Y82.656 E11.88021
;WIDTH:0.661835
G1 X113.064 Y82.829 E11.8964
;WIDTH:0.7
G1 X113.141 Y83.002 E11.91365
G1 X113.412 Y83.159 E11.94206
G1 X117.068 Y83.159 E12.27449
G1 X117.201 Y83.129 E12.28691
G1 X117.339 Y83.002 E12.30388
G1 X118.89 Y80.315 E12.58603
G1 X118.89 Y119.685 E16.16592
G1 X117.339 Y116.998 E16.44807
G1 X117.201 Y116.871 E16.46504
G1 X117.068 Y116.841 E16.47746
G1 X113.412 Y116.841 E16.80989
G1 X113.141 Y116.998 E16.8383
G1 X113.091 Y117.132 E16.85131
;WIDTH:0.652744
G1 X113.041 Y117.266 E16.86334
;WIDTH:0.605488
G1 X112.991 Y117.4 E16.87439
;WIDTH:0.558232
G1 X112.941 Y117.534 E16.88445
;WIDTH:0.510976
G1 X112.891 Y117.668 E16.89353
G1 X112.819 Y117.745 E16.9002
;WIDTH:0.558232
G1 X112.747 Y117.822 E16.90759
;WIDTH:0.605488
G1 X112.676 Y117.899 E16.91571
;WIDTH:0.652744
G1 X112.604 Y117.976 E16.92455
;WIDTH:0.7
G1 X112.532 Y118.053 E16.93412
G1 X111.314 Y120.164 E17.15577
G1 X111.274 Y120.278 E17.16679
G1 X111.314 Y120.476 E17.18512
G1 X113.141 Y123.642 E17.51754
G1 X113.196 Y123.651 E17.52252
;WIDTH:0.654656
G1 X113.25 Y123.659 E17.52715
;WIDTH:0.609312
G1 X113.304 Y123.668 E17.5314
;WIDTH:0.563969
G1 X113.358 Y123.677 E17.5353
;WIDTH:0.518625
G1 X113.412 Y123.685 E17.53884
;WIDTH:0.47328
G1 X115.801 Y123.674 E17.67725
;WIDTH:0.45059
G1 X116.369 Y123.674 E17.70828
G1 X117.068 Y123.646 E17.74651
;WIDTH:0.433325
G1 X116.961 Y123.701 E17.7528
;WIDTH:0.45059
G1 X116.397 Y123.911 E17.78567
G1 X115.816 Y124.049 E17.81831
;WIDTH:0.473282
G1 X115.231 Y124.083 E17.85226
G1 X113.412 Y124.083 E17.95763
;WIDTH:0.518625
G1 X113.32 Y124.061 E17.96375
;WIDTH:0.563969
G1 X113.228 Y124.038 E17.97048
;WIDTH:0.609312
G1 X113.136 Y124.015 E17.97784
;WIDTH:0.654656
G1 X113.044 Y123.993 E17.98583
;WIDTH:0.7
G1 X112.952 Y123.97 E17.99444
G1 X87.048 Y123.97 E20.34993
G1 X86.956 Y123.993 E20.35854
;WIDTH:0.654656
G1 X86.864 Y124.015 E20.36653
;WIDTH:0.609312
G1 X86.772 Y124.038 E20.37389
;WIDTH:0.563969
G1 X86.68 Y124.061 E20.38063
;WIDTH:0.518625
G1 X86.588 Y124.083 E20.38674
;WIDTH:0.473281
G1 X84.777 Y124.083 E20.49166
G1 X84.155 Y124.044 E20.52776
;WIDTH:0.450591
G1 X83.585 Y123.906 E20.55982
G1 X82.932 Y123.646 E20.59822
;WIDTH:0.431058
G1 X83.049 Y123.652 E20.60428
;WIDTH:0.450591
G1 X84.199 Y123.674 E20.66714
;WIDTH:0.473282
G1 X86.588 Y123.685 E20.80555
;WIDTH:0.518625
G1 X86.642 Y123.677 E20.80908
;WIDTH:0.563969
G1 X86.696 Y123.668 E20.81298
;WIDTH:0.609312
G1 X86.75 Y123.659 E20.81724
;WIDTH:0.654656
G1 X86.804 Y123.651 E20.82186
;WIDTH:0.7
G1 X86.859 Y123.642 E20.82684
G1 X88.686 Y120.476 E21.15927
G1 X88.724 Y120.369 E21.16959
G1 X88.697 Y120.223 E21.18314
G1 X88.944 Y119.857 F7800
G1 E19.18314 F2400
G92 E0
G1 X108.873 Y119.187 F7800
G1 E2 F2400
;TYPE:Solid infill
;WIDTH:0.716912
G1 F1800
G1 X109.611 Y119.925 E2.09748
G1 X109.57 Y120.046 E2.10939
G1 X109.577 Y120.644 E2.16521
G1 X109.663 Y120.885 E2.18912
G1 X108.246 Y119.468 E2.37621
G1 X107.339 Y119.468 E2.46097
G1 X110.122 Y122.252 E2.82856
G1 X109.214 Y122.252 E2.91332
G1 X106.431 Y119.468 E3.2809
G1 X105.523 Y119.468 E3.36567
G1 X108.306 Y122.252 E3.73325
G1 X107.399 Y122.252 E3.81802
G1 X104.616 Y119.468 E4.1856
G1 X103.708 Y119.468 E4.27037
G1 X106.491 Y122.252 E4.63795
G1 X105.583 Y122.252 E4.72271
G1 X102.8 Y119.468 E5.0903
G1 X101.893 Y119.468 E5.17506
G1 X104.676 Y122.252 E5.54264
G1 X103.768 Y122.252 E5.62741
G1 X100.985 Y119.468 E5.99499
G1 X100.077 Y119.468 E6.07976
G1 X102.861 Y122.252 E6.44734
G1 X101.953 Y122.252 E6.5321
G1 X99.17 Y119.468 E6.89969
G1 X98.262 Y119.468 E6.98445
G1 X101.045 Y122.252 E7.35203
G1 X100.138 Y122.252 E7.4368
G1 X97.354 Y119.468 E7.80438
G1 X96.447 Y119.468 E7.88915
G1 X99.23 Y122.252 E8.25673
G1 X98.322 Y122.252 E8.3415
G1 X95.539 Y119.468 E8.70908
G1 X94.632 Y119.468 E8.79384
G1 X97.415 Y122.252 E9.16143
G1 X96.507 Y122.252 E9.24619
G1 X93.724 Y119.468 E9.61377
